;FLAVOR:Marlin
;TIME:279
;Filament used: 0.160094m
;Layer height: 0.2
;MINX:40.2
;MINY:40.2
;MINZ:0.2
;MAXX:259.8
;MAXY:259.8
;MAXZ:0.2
;Generated with Cura_SteamEngine 4.6.0
M140 S50
M105
M190 S50
M104 S200
M105
M109 S200
M82 ;absolute extrusion mode
M201 X500.00 Y500.00 Z100.00 E5000.00 ;Setup machine max acceleration
M203 X500.00 Y500.00 Z10.00 E50.00 ;Setup machine max feedrate
M204 P500.00 R1000.00 T500.00 ;Setup Print/Retract/Travel acceleration
M205 X8.00 Y8.00 Z0.40 E5.00 ;Setup Jerk
M220 S100 ;Reset Feedrate
M221 S100 ;Reset Flowrate

G28 ;Home

G92 E0 ;Reset Extruder
G1 Z2.0 F3000 ;Move Z Axis up
G1 X10.1 Y20 Z0.28 F5000.0 ;Move to start position
G1 X10.1 Y200.0 Z0.28 F1500.0 E15 ;Draw the first line
G1 X10.4 Y200.0 Z0.28 F5000.0 ;Move to side a little
G1 X10.4 Y20 Z0.28 F1500.0 E30 ;Draw the second line
G92 E0 ;Reset Extruder
G1 Z2.0 F3000 ;Move Z Axis up

G92 E0
G92 E0
G1 F2700 E-5
;LAYER_COUNT:1
;LAYER:0
M107
;MESH:220_Bed_Leveling_Tacblades_0p2.stl
G0 F6000 X59.4 Y259.4 Z0.2
;TYPE:WALL-INNER
G1 F2700 E0
G1 F1200 X40.6 Y259.4 E0.62529
G1 X40.6 Y240.6 E1.25058
G1 X59.4 Y240.6 E1.87587
G1 X59.4 Y259.4 E2.50116
G0 F6000 X59.8 Y259.8
;TYPE:WALL-OUTER
G1 F1200 X40.2 Y259.8 E3.15306
G1 X40.2 Y240.2 E3.80496
G1 X59.8 Y240.2 E4.45686
G1 X59.8 Y259.8 E5.10876
G0 F6000 X59.53 Y259.53
G0 X59.29 Y259.01
G0 X59.01 Y259.01
;TYPE:SKIN
G1 F1200 X40.99 Y259.01 E5.7081
G1 X40.99 Y240.99 E6.30745
G1 X59.01 Y240.99 E6.9068
G1 X59.01 Y259.01 E7.50615
G0 F6000 X59.29 Y259.01
G0 X59.29 Y241.566
G0 X58.85 Y241.566
G1 F1200 X58.433 Y241.149 E7.52576
G0 F6000 X57.867 Y241.149
G1 F1200 X58.85 Y242.132 E7.572
G0 F6000 X58.85 Y242.698
G1 F1200 X57.301 Y241.149 E7.64486
G0 F6000 X56.736 Y241.149
G1 F1200 X58.85 Y243.263 E7.7443
G0 F6000 X58.85 Y243.829
G1 F1200 X56.17 Y241.149 E7.87035
G0 F6000 X55.604 Y241.149
G1 F1200 X58.85 Y244.395 E8.02304
G0 F6000 X58.85 Y244.96
G1 F1200 X55.039 Y241.149 E8.20229
G0 F6000 X54.473 Y241.149
G1 F1200 X58.85 Y245.526 E8.40817
G0 F6000 X58.85 Y246.092
G1 F1200 X53.907 Y241.149 E8.64068
G0 F6000 X53.342 Y241.149
G1 F1200 X58.85 Y246.657 E8.89976
G0 F6000 X58.85 Y247.223
G1 F1200 X52.776 Y241.149 E9.18546
G0 F6000 X52.21 Y241.149
G1 F1200 X58.85 Y247.789 E9.49779
G0 F6000 X58.85 Y248.354
G1 F1200 X51.644 Y241.149 E9.83671
G0 F6000 X51.079 Y241.149
G1 F1200 X58.85 Y248.92 E10.20223
G0 F6000 X58.85 Y249.486
G1 F1200 X50.513 Y241.149 E10.59438
G0 F6000 X49.947 Y241.149
G1 F1200 X58.85 Y250.052 E11.01315
G0 F6000 X58.85 Y250.617
G1 F1200 X49.382 Y241.149 E11.4585
G0 F6000 X48.816 Y241.149
G1 F1200 X58.85 Y251.183 E11.93046
G0 F6000 X58.85 Y251.749
G1 F1200 X48.25 Y241.149 E12.42906
G0 F6000 X47.685 Y241.149
G1 F1200 X58.85 Y252.314 E12.95422
G0 F6000 X58.85 Y252.88
G1 F1200 X47.119 Y241.149 E13.50601
G0 F6000 X46.553 Y241.149
G1 F1200 X58.85 Y253.446 E14.08443
G0 F6000 X58.85 Y254.011
G1 F1200 X45.988 Y241.149 E14.68942
G0 F6000 X45.422 Y241.149
G1 F1200 X58.85 Y254.577 E15.32103
G0 F6000 X58.85 Y255.143
G1 F1200 X44.856 Y241.149 E15.97926
G0 F6000 X44.291 Y241.149
G1 F1200 X58.85 Y255.708 E16.66407
G0 F6000 X58.85 Y256.274
G1 F1200 X43.725 Y241.149 E17.37551
G0 F6000 X43.159 Y241.149
G1 F1200 X58.85 Y256.84 E18.11356
G0 F6000 X58.85 Y257.405
G1 F1200 X42.593 Y241.149 E18.87822
G0 F6000 X42.028 Y241.149
G1 F1200 X58.85 Y257.971 E19.66948
G0 F6000 X58.85 Y258.537
G1 F1200 X41.462 Y241.149 E20.48735
G0 F6000 X41.15 Y241.402
G1 F1200 X58.596 Y258.849 E21.30798
G0 F6000 X58.03 Y258.849
G1 F1200 X41.15 Y241.968 E22.10199
G0 F6000 X41.15 Y242.534
G1 F1200 X57.465 Y258.849 E22.8694
G0 F6000 X56.899 Y258.849
G1 F1200 X41.15 Y243.099 E23.61021
G0 F6000 X41.15 Y243.665
G1 F1200 X56.333 Y258.849 E24.32439
G0 F6000 X55.768 Y258.849
G1 F1200 X41.15 Y244.231 E25.01198
G0 F6000 X41.15 Y244.796
G1 F1200 X55.202 Y258.849 E25.67296
G0 F6000 X54.636 Y258.849
G1 F1200 X41.15 Y245.362 E26.30733
G0 F6000 X41.15 Y245.928
G1 F1200 X54.071 Y258.849 E26.91509
G0 F6000 X53.505 Y258.849
G1 F1200 X41.15 Y246.493 E27.49626
G0 F6000 X41.15 Y247.059
G1 F1200 X52.939 Y258.849 E28.0508
G0 F6000 X52.373 Y258.849
G1 F1200 X41.15 Y247.625 E28.57872
G0 F6000 X41.15 Y248.19
G1 F1200 X51.808 Y258.849 E29.08006
G0 F6000 X51.242 Y258.849
G1 F1200 X41.15 Y248.756 E29.55478
G0 F6000 X41.15 Y249.322
G1 F1200 X50.676 Y258.849 E30.00288
G0 F6000 X50.111 Y258.849
G1 F1200 X41.15 Y249.888 E30.42438
G0 F6000 X41.15 Y250.453
G1 F1200 X49.545 Y258.849 E30.81927
G0 F6000 X48.979 Y258.849
G1 F1200 X41.15 Y251.019 E31.18755
G0 F6000 X41.15 Y251.585
G1 F1200 X48.414 Y258.849 E31.52923
G0 F6000 X47.848 Y258.849
G1 F1200 X41.15 Y252.15 E31.8443
G0 F6000 X41.15 Y252.716
G1 F1200 X47.282 Y258.849 E32.13276
G0 F6000 X46.717 Y258.849
G1 F1200 X41.15 Y253.282 E32.39461
G0 F6000 X41.15 Y253.847
G1 F1200 X46.151 Y258.849 E32.62987
G0 F6000 X45.585 Y258.849
G1 F1200 X41.15 Y254.413 E32.8385
G0 F6000 X41.15 Y254.979
G1 F1200 X45.02 Y258.849 E33.02053
G0 F6000 X44.454 Y258.849
G1 F1200 X41.15 Y255.544 E33.17597
G0 F6000 X41.15 Y256.11
G1 F1200 X43.888 Y258.849 E33.30478
G0 F6000 X43.323 Y258.849
G1 F1200 X41.15 Y256.676 E33.40699
G0 F6000 X41.15 Y257.241
G1 F1200 X42.757 Y258.849 E33.4826
G0 F6000 X42.191 Y258.849
G1 F1200 X41.15 Y257.807 E33.53159
G0 F6000 X41.15 Y258.373
G1 F1200 X41.625 Y258.849 E33.55395
G0 F6000 X41.625 Y259.2
G1 F2700 E28.55395
G0 F6000 X41.625 Y259.29
G0 X59.218 Y259.218
G0 X59.586 Y240.414
G0 X60.665 Y240.414
G0 X146.546 Y160.072
G0 X147.038 Y159.106
G0 X150 Y159.392
;TYPE:WALL-INNER
G1 F2700 E33.55395
G1 F1200 X147.096 Y158.933 E33.65174
G1 X144.479 Y157.599 E33.74944
G1 X142.401 Y155.521 E33.84718
G1 X141.067 Y152.904 E33.94488
G1 X140.608 Y150 E34.04267
G1 X141.067 Y147.096 E34.14045
G1 X142.401 Y144.479 E34.23815
G1 X144.479 Y142.401 E34.33589
G1 X147.096 Y141.067 E34.43359
G1 X150 Y140.608 E34.53138
G1 X152.904 Y141.067 E34.62916
G1 X155.521 Y142.401 E34.72686
G1 X157.599 Y144.479 E34.82461
G1 X158.933 Y147.096 E34.9223
G1 X159.392 Y150 E35.02009
G1 X158.933 Y152.904 E35.11788
G1 X157.599 Y155.521 E35.21557
G1 X155.521 Y157.599 E35.31332
G1 X152.904 Y158.933 E35.41101
G1 X150 Y159.392 E35.5088
G0 F6000 X150 Y159.797
;TYPE:WALL-OUTER
G1 F1200 X146.971 Y159.318 E35.6108
G1 X144.24 Y157.926 E35.71275
G1 X142.074 Y155.76 E35.81463
G1 X140.682 Y153.029 E35.91658
G1 X140.203 Y150 E36.01858
G1 X140.682 Y146.971 E36.12058
G1 X142.074 Y144.24 E36.22253
G1 X144.24 Y142.074 E36.32441
G1 X146.971 Y140.682 E36.42636
G1 X150 Y140.203 E36.52836
G1 X153.029 Y140.682 E36.63036
G1 X155.76 Y142.074 E36.73231
G1 X157.926 Y144.24 E36.83419
G1 X159.318 Y146.971 E36.93614
G1 X159.797 Y150 E37.03814
G1 X159.318 Y153.029 E37.14014
G1 X157.926 Y155.76 E37.24209
G1 X155.76 Y157.926 E37.34397
G1 X153.029 Y159.318 E37.44592
G1 X150 Y159.797 E37.54792
G0 F6000 X150 Y159.357
G0 X150 Y158.996
;TYPE:SKIN
G1 F1200 X147.214 Y158.556 E37.64173
G1 X144.71 Y157.28 E37.73521
G1 X142.72 Y155.29 E37.82881
G1 X141.444 Y152.786 E37.92228
G1 X141.004 Y150 E38.01609
G1 X141.444 Y147.214 E38.1099
G1 X142.72 Y144.71 E38.20338
G1 X144.71 Y142.72 E38.29698
G1 X147.214 Y141.444 E38.39045
G1 X150 Y141.004 E38.48427
G1 X152.786 Y141.444 E38.57808
G1 X155.29 Y142.72 E38.67155
G1 X157.28 Y144.71 E38.76515
G1 X158.556 Y147.214 E38.85863
G1 X158.996 Y150 E38.95244
G1 X158.556 Y152.786 E39.04625
G1 X157.28 Y155.29 E39.13972
G1 X155.29 Y157.28 E39.23333
G1 X152.786 Y158.556 E39.3268
G1 X150 Y158.996 E39.42061
G0 F6000 X149.956 Y159.273
G0 X147.15 Y158.769
G0 X145.553 Y158.023
G0 X145.753 Y157.632
G1 F1200 X142.366 Y154.246 E39.5799
G0 F6000 X141.975 Y154.444
G0 X141.387 Y153.289
G0 X141.777 Y153.091
G1 F1200 X146.907 Y158.22 E39.82118
G0 F6000 X147.726 Y158.474
G1 F1200 X141.523 Y152.271 E40.11295
G0 F6000 X141.418 Y151.6
G1 F1200 X148.397 Y158.58 E40.44124
G0 F6000 X149.068 Y158.685
G1 F1200 X141.313 Y150.929 E40.80604
G0 F6000 X141.207 Y150.258
G1 F1200 X149.739 Y158.79 E41.20736
G0 F6000 X150.299 Y158.784
G1 F1200 X141.214 Y149.699 E41.63469
G0 F6000 X141.291 Y149.21
G1 F1200 X150.787 Y158.707 E42.08137
G0 F6000 X151.277 Y158.63
G1 F1200 X141.367 Y148.721 E42.54749
G0 F6000 X141.444 Y148.232
G1 F1200 X151.765 Y158.553 E43.03295
G0 F6000 X152.254 Y158.477
G1 F1200 X141.521 Y147.743 E43.53782
G0 F6000 X141.599 Y147.256
G1 F1200 X152.742 Y158.398 E44.06193
G0 F6000 X153.116 Y158.208
G1 F1200 X141.79 Y146.881 E44.5947
G0 F6000 X141.981 Y146.506
G1 F1200 X153.491 Y158.017 E45.13612
G0 F6000 X153.866 Y157.826
G1 F1200 X142.172 Y146.132 E45.68617
G0 F6000 X142.363 Y145.758
G1 F1200 X154.24 Y157.634 E46.2448
G0 F6000 X154.615 Y157.443
G1 F1200 X142.554 Y145.383 E46.81209
G0 F6000 X142.745 Y145.008
G1 F1200 X154.99 Y157.252 E47.38803
G0 F6000 X155.323 Y157.02
G1 F1200 X142.978 Y144.675 E47.9687
G0 F6000 X143.261 Y144.392
G1 F1200 X155.606 Y156.737 E48.54937
G0 F6000 X155.889 Y156.455
G1 F1200 X143.544 Y144.109 E49.13007
G0 F6000 X143.826 Y143.826
G1 F1200 X156.172 Y156.172 E49.71079
G0 F6000 X156.455 Y155.889
G1 F1200 X144.109 Y143.544 E50.29148
G0 F6000 X144.392 Y143.261
G1 F1200 X156.737 Y155.606 E50.87215
G0 F6000 X157.02 Y155.323
G1 F1200 X144.675 Y142.978 E51.45282
G0 F6000 X145.009 Y142.746
G1 F1200 X157.253 Y154.99 E52.02874
G0 F6000 X157.444 Y154.615
G1 F1200 X145.383 Y142.555 E52.59603
G0 F6000 X145.758 Y142.364
G1 F1200 X157.635 Y154.241 E53.15469
G0 F6000 X157.826 Y153.867
G1 F1200 X146.132 Y142.173 E53.70474
G0 F6000 X146.507 Y141.982
G1 F1200 X158.017 Y153.492 E54.24614
G0 F6000 X158.208 Y153.117
G1 F1200 X146.882 Y141.791 E54.77888
G0 F6000 X147.257 Y141.6
G1 F1200 X158.399 Y152.742 E55.30296
G0 F6000 X158.478 Y152.255
G1 F1200 X147.744 Y141.521 E55.80786
G0 F6000 X148.233 Y141.445
G1 F1200 X158.554 Y151.766 E56.29332
G0 F6000 X158.631 Y151.277
G1 F1200 X148.722 Y141.368 E56.75941
G0 F6000 X149.211 Y141.291
G1 F1200 X158.707 Y150.788 E57.2061
G0 F6000 X158.785 Y150.299
G1 F1200 X149.7 Y141.214 E57.63343
G0 F6000 X150.259 Y141.208
G1 F1200 X158.791 Y149.74 E58.03475
G0 F6000 X158.686 Y149.069
G1 F1200 X150.93 Y141.313 E58.39957
G0 F6000 X151.601 Y141.419
G1 F1200 X158.58 Y148.398 E58.72784
G0 F6000 X158.475 Y147.727
G1 F1200 X152.272 Y141.524 E59.01961
G0 F6000 X153.092 Y141.778
G1 F1200 X158.221 Y146.907 E59.26086
G0 F6000 X158.612 Y146.709
G0 X158.024 Y145.555
G0 X157.633 Y145.753
G1 F1200 X154.246 Y142.367 E59.42015
G0 F6000 X154.405 Y142.055
G1 F2700 E54.42015
G0 F6000 X154.445 Y141.976
G0 X153.01 Y141.306
G0 X150 Y140.426
G0 X149.83 Y139.354
G0 X60.665 Y59.586
G0 X59.586 Y59.586
G0 X59.4 Y59.4
;TYPE:WALL-INNER
G1 F2700 E59.42015
G1 F1200 X40.6 Y59.4 E60.04544
G1 X40.6 Y40.6 E60.67073
G1 X59.4 Y40.6 E61.29602
G1 X59.4 Y59.4 E61.92131
G0 F6000 X59.8 Y59.8
;TYPE:WALL-OUTER
G1 F1200 X40.2 Y59.8 E62.57321
G1 X40.2 Y40.2 E63.22511
G1 X59.8 Y40.2 E63.87701
G1 X59.8 Y59.8 E64.52891
G0 F6000 X59.53 Y59.53
G0 X59.29 Y59.01
G0 X59.01 Y59.01
;TYPE:SKIN
G1 F1200 X40.99 Y59.01 E65.12826
G1 X40.99 Y40.99 E65.7276
G1 X59.01 Y40.99 E66.32695
G1 X59.01 Y59.01 E66.9263
G0 F6000 X59.29 Y59.01
G0 X59.29 Y41.313
G0 X58.849 Y41.313
G1 F1200 X58.686 Y41.15 E66.93397
G0 F6000 X58.12 Y41.15
G1 F1200 X58.849 Y41.879 E66.96826
G0 F6000 X58.849 Y42.444
G1 F1200 X57.554 Y41.15 E67.02914
G0 F6000 X56.989 Y41.15
G1 F1200 X58.849 Y43.01 E67.11663
G0 F6000 X58.849 Y43.576
G1 F1200 X56.423 Y41.15 E67.23075
G0 F6000 X55.857 Y41.15
G1 F1200 X58.849 Y44.141 E67.37146
G0 F6000 X58.849 Y44.707
G1 F1200 X55.292 Y41.15 E67.53877
G0 F6000 X54.726 Y41.15
G1 F1200 X58.849 Y45.273 E67.7327
G0 F6000 X58.849 Y45.838
G1 F1200 X54.16 Y41.15 E67.95323
G0 F6000 X53.595 Y41.15
G1 F1200 X58.849 Y46.404 E68.20036
G0 F6000 X58.849 Y46.97
G1 F1200 X53.029 Y41.15 E68.47412
G0 F6000 X52.463 Y41.15
G1 F1200 X58.849 Y47.535 E68.77447
G0 F6000 X58.849 Y48.101
G1 F1200 X51.898 Y41.15 E69.10143
G0 F6000 X51.332 Y41.15
G1 F1200 X58.849 Y48.667 E69.455
G0 F6000 X58.849 Y49.233
G1 F1200 X50.766 Y41.15 E69.8352
G0 F6000 X50.201 Y41.15
G1 F1200 X58.849 Y49.798 E70.24198
G0 F6000 X58.849 Y50.364
G1 F1200 X49.635 Y41.15 E70.67538
G0 F6000 X49.069 Y41.15
G1 F1200 X58.849 Y50.93 E71.1354
G0 F6000 X58.849 Y51.495
G1 F1200 X48.503 Y41.15 E71.62202
G0 F6000 X47.938 Y41.15
G1 F1200 X58.849 Y52.061 E72.13524
G0 F6000 X58.849 Y52.627
G1 F1200 X47.372 Y41.15 E72.67508
G0 F6000 X46.806 Y41.15
G1 F1200 X58.849 Y53.192 E73.24152
G0 F6000 X58.849 Y53.758
G1 F1200 X46.241 Y41.15 E73.83457
G0 F6000 X45.675 Y41.15
G1 F1200 X58.849 Y54.324 E74.45423
G0 F6000 X58.849 Y54.889
G1 F1200 X45.109 Y41.15 E75.10049
G0 F6000 X44.544 Y41.15
G1 F1200 X58.849 Y55.455 E75.77336
G0 F6000 X58.849 Y56.021
G1 F1200 X43.978 Y41.15 E76.47284
G0 F6000 X43.412 Y41.15
G1 F1200 X58.849 Y56.586 E77.19893
G0 F6000 X58.849 Y57.152
G1 F1200 X42.847 Y41.15 E77.95161
G0 F6000 X42.281 Y41.15
G1 F1200 X58.849 Y57.718 E78.73092
G0 F6000 X58.849 Y58.283
G1 F1200 X41.715 Y41.15 E79.53683
G0 F6000 X41.149 Y41.149
G1 F1200 X58.849 Y58.849 E80.36938
G0 F6000 X58.283 Y58.848
G1 F1200 X41.149 Y41.715 E81.17529
G0 F6000 X41.149 Y42.28
G1 F1200 X57.717 Y58.848 E81.9546
G0 F6000 X57.151 Y58.848
G1 F1200 X41.149 Y42.846 E82.70728
G0 F6000 X41.149 Y43.412
G1 F1200 X56.586 Y58.848 E83.43337
G0 F6000 X56.02 Y58.848
G1 F1200 X41.149 Y43.977 E84.13286
G0 F6000 X41.149 Y44.543
G1 F1200 X55.454 Y58.848 E84.80572
G0 F6000 X54.889 Y58.848
G1 F1200 X41.149 Y45.109 E85.45198
G0 F6000 X41.149 Y45.674
G1 F1200 X54.323 Y58.848 E86.07165
G0 F6000 X53.757 Y58.848
G1 F1200 X41.149 Y46.24 E86.66469
G0 F6000 X41.149 Y46.806
G1 F1200 X53.192 Y58.848 E87.23113
G0 F6000 X52.626 Y58.848
G1 F1200 X41.149 Y47.371 E87.77097
G0 F6000 X41.149 Y47.937
G1 F1200 X52.06 Y58.848 E88.28419
G0 F6000 X51.495 Y58.848
G1 F1200 X41.149 Y48.503 E88.77082
G0 F6000 X41.149 Y49.068
G1 F1200 X50.929 Y58.848 E89.23084
G0 F6000 X50.363 Y58.848
G1 F1200 X41.149 Y49.634 E89.66423
G0 F6000 X41.149 Y50.2
G1 F1200 X49.797 Y58.848 E90.07101
G0 F6000 X49.232 Y58.848
G1 F1200 X41.149 Y50.766 E90.45119
G0 F6000 X41.149 Y51.331
G1 F1200 X48.666 Y58.848 E90.80476
G0 F6000 X48.1 Y58.848
G1 F1200 X41.149 Y51.897 E91.13172
G0 F6000 X41.149 Y52.463
G1 F1200 X47.535 Y58.848 E91.43207
G0 F6000 X46.969 Y58.848
G1 F1200 X41.149 Y53.028 E91.70583
G0 F6000 X41.149 Y53.594
G1 F1200 X46.403 Y58.848 E91.95296
G0 F6000 X45.838 Y58.848
G1 F1200 X41.149 Y54.16 E92.17349
G0 F6000 X41.149 Y54.725
G1 F1200 X45.272 Y58.848 E92.36742
G0 F6000 X44.706 Y58.848
G1 F1200 X41.149 Y55.291 E92.53473
G0 F6000 X41.149 Y55.857
G1 F1200 X44.141 Y58.848 E92.67545
G0 F6000 X43.575 Y58.848
G1 F1200 X41.149 Y56.422 E92.78956
G0 F6000 X41.149 Y56.988
G1 F1200 X43.009 Y58.848 E92.87705
G0 F6000 X42.444 Y58.848
G1 F1200 X41.149 Y57.554 E92.93793
G0 F6000 X41.149 Y58.119
G1 F1200 X41.878 Y58.848 E92.97222
G0 F6000 X41.312 Y58.848
G1 F1200 X41.149 Y58.685 E92.97989
G0 F6000 X40.8 Y58.685
G1 F2700 E87.97989
G0 F6000 X40.71 Y58.685
G0 X40.782 Y59.218
G0 X59.58 Y59.4
G0 X60.665 Y59.4
G0 X239.335 Y59.4
G0 X240.42 Y59.4
G0 X240.6 Y59.4
;TYPE:WALL-INNER
G1 F2700 E92.97989
G1 F1200 X240.6 Y40.6 E93.60518
G1 X259.4 Y40.6 E94.23047
G1 X259.4 Y59.4 E94.85576
G1 X240.6 Y59.4 E95.48105
G0 F6000 X240.2 Y59.8
;TYPE:WALL-OUTER
G1 F1200 X240.2 Y40.2 E96.13295
G1 X259.8 Y40.2 E96.78485
G1 X259.8 Y59.8 E97.43675
G1 X240.2 Y59.8 E98.08865
G0 F6000 X240.47 Y59.53
G0 X240.71 Y59.01
G0 X240.99 Y59.01
;TYPE:SKIN
G1 F1200 X240.99 Y40.99 E98.688
G1 X259.01 Y40.99 E99.28734
G1 X259.01 Y59.01 E99.88669
G1 X240.99 Y59.01 E100.48604
G0 F6000 X241.566 Y58.849
G1 F1200 X241.149 Y58.433 E100.50563
G0 F6000 X241.149 Y57.867
G1 F1200 X242.131 Y58.849 E100.55182
G0 F6000 X242.697 Y58.849
G1 F1200 X241.149 Y57.301 E100.62463
G0 F6000 X241.149 Y56.736
G1 F1200 X243.263 Y58.849 E100.72405
G0 F6000 X243.828 Y58.849
G1 F1200 X241.149 Y56.17 E100.85006
G0 F6000 X241.149 Y55.604
G1 F1200 X244.394 Y58.849 E101.00269
G0 F6000 X244.96 Y58.849
G1 F1200 X241.149 Y55.039 E101.18193
G0 F6000 X241.149 Y54.473
G1 F1200 X245.525 Y58.849 E101.38776
G0 F6000 X246.091 Y58.849
G1 F1200 X241.149 Y53.907 E101.62022
G0 F6000 X241.149 Y53.342
G1 F1200 X246.657 Y58.849 E101.87927
G0 F6000 X247.222 Y58.849
G1 F1200 X241.149 Y52.776 E102.16493
