;FLAVOR:Marlin
;TIME:6923
;Filament used: 4.40328m
;Layer height: 0.2
;MINX:113.992
;MINY:71.607
;MINZ:0.2
;MAXX:201.444
;MAXY:188.55
;MAXZ:5
;Generated with Cura_SteamEngine 4.6.0
M140 S50
M105
M190 S50
M104 S200
M105
M109 S200
M82 ;absolute extrusion mode
M201 X500.00 Y500.00 Z100.00 E5000.00 ;Setup machine max acceleration
M203 X500.00 Y500.00 Z10.00 E50.00 ;Setup machine max feedrate
M204 P500.00 R1000.00 T500.00 ;Setup Print/Retract/Travel acceleration
M205 X8.00 Y8.00 Z0.40 E5.00 ;Setup Jerk
M220 S100 ;Reset Feedrate
M221 S100 ;Reset Flowrate

G28 ;Home

G92 E0 ;Reset Extruder
G1 Z2.0 F3000 ;Move Z Axis up
G1 X10.1 Y20 Z0.28 F5000.0 ;Move to start position
G1 X10.1 Y200.0 Z0.28 F1500.0 E15 ;Draw the first line
G1 X10.4 Y200.0 Z0.28 F5000.0 ;Move to side a little
G1 X10.4 Y20 Z0.28 F1500.0 E30 ;Draw the second line
G92 E0 ;Reset Extruder
G1 Z2.0 F3000 ;Move Z Axis up

G92 E0
G92 E0
G1 F2700 E-5
;LAYER_COUNT:25
;LAYER:0
M107
G0 F6000 X128.231 Y82.705 Z0.2
;TYPE:SKIRT
G1 F2700 E0
G1 F1200 X128.713 Y81.968 E0.02929
G1 X128.967 Y81.632 E0.0433
G1 X130.424 Y79.804 E0.12105
G1 X131.009 Y79.151 E0.15021
G1 X131.315 Y78.852 E0.16444
G1 X133.03 Y77.262 E0.24222
G1 X133.7 Y76.707 E0.27116
G1 X133.807 Y76.628 E0.27558
G1 X134.047 Y76.458 E0.28536
G1 X135.978 Y75.142 E0.36309
G1 X136.767 Y74.67 E0.39367
G1 X137.111 Y74.495 E0.4065
G1 X139.221 Y73.481 E0.48436
G1 X140.079 Y73.129 E0.51521
G1 X140.427 Y73.015 E0.52739
G1 X142.661 Y72.327 E0.60514
G1 X143.608 Y72.099 E0.63753
G1 X143.929 Y72.045 E0.64836
G1 X146.245 Y71.697 E0.72626
G1 X147.283 Y71.611 E0.7609
G1 X147.53 Y71.608 E0.76911
G1 X149.869 Y71.607 E0.84691
G1 X151.038 Y71.695 E0.8859
G1 X153.485 Y72.065 E0.96821
G1 X154.614 Y72.322 E1.00672
G1 X156.959 Y73.044 E1.08833
G1 X158.049 Y73.472 E1.12728
G1 X160.279 Y74.546 E1.20961
G1 X160.796 Y74.819 E1.22905
G1 X161.926 Y75.472 E1.27246
G1 X183.192 Y87.749 E2.08917
G1 X183.579 Y87.987 E2.10429
G1 X186.361 Y89.817 E2.21504
G1 X187.029 Y90.31 E2.24265
G1 X187.209 Y90.459 E2.25042
G1 X189.635 Y92.493 E2.35572
G1 X190.251 Y93.068 E2.38375
G1 X190.42 Y93.245 E2.39189
G1 X192.592 Y95.549 E2.4972
G1 X193.102 Y96.148 E2.52337
G1 X193.277 Y96.378 E2.53298
G1 X195.169 Y98.918 E2.63832
G1 X195.63 Y99.61 E2.66598
G1 X195.757 Y99.825 E2.67428
G1 X197.341 Y102.568 E2.77964
G1 X197.741 Y103.364 E2.80927
G1 X197.81 Y103.523 E2.81503
G1 X197.817 Y103.539 E2.81561
G1 X199.071 Y106.447 E2.92094
G1 X199.365 Y107.245 E2.94923
G1 X199.433 Y107.468 E2.95698
G1 X200.34 Y110.502 E3.0623
G1 X200.534 Y111.301 E3.08965
G1 X200.581 Y111.554 E3.09821
G1 X201.131 Y114.676 E3.20365
G1 X201.233 Y115.522 E3.23199
G1 X201.247 Y115.745 E3.23942
G1 X201.431 Y118.908 E3.3448
G1 X201.444 Y119.361 E3.35987
G1 X201.444 Y135.461 E3.89536
G1 X201.404 Y136.25 E3.92164
G1 X201.236 Y137.252 E3.95543
G1 X201.194 Y137.43 E3.96151
G1 X200.974 Y138.189 E3.9878
G1 X200.678 Y138.921 E4.01406
G1 X200.31 Y139.62 E4.04033
G1 X199.633 Y140.585 E4.07954
G1 X199.519 Y140.724 E4.08552
G1 X198.988 Y141.309 E4.1118
G1 X198.401 Y141.837 E4.13805
G1 X197.763 Y142.302 E4.16431
G1 X196.833 Y142.824 E4.19978
G1 X196.675 Y142.899 E4.2056
G1 X195.945 Y143.202 E4.23189
G1 X195.189 Y143.428 E4.25813
G1 X194.133 Y143.612 E4.29379
G1 X194.046 Y143.621 E4.29669
G1 X193.243 Y143.662 E4.32344
G1 X181.18 Y143.662 E4.72465
G1 X181.27 Y143.698 E4.72788
G1 X181.971 Y144.063 E4.75417
G1 X182.877 Y144.685 E4.79072
G1 X183.019 Y144.798 E4.79675
G1 X183.611 Y145.32 E4.823
G1 X184.147 Y145.9 E4.84927
G1 X184.623 Y146.53 E4.87553
G1 X185.182 Y147.501 E4.9128
G1 X185.259 Y147.66 E4.91867
G1 X185.567 Y148.388 E4.94497
G1 X185.8 Y149.142 E4.97121
G1 X185.955 Y149.916 E4.99747
G1 X186.012 Y150.404 E5.01381
G1 X186.047 Y151.071 E5.03602
G1 X186.049 Y151.286 E5.04318
G1 X186.049 Y180.256 E6.00672
G1 X185.967 Y181.383 E6.0443
G1 X185.928 Y181.65 E6.05328
G1 X185.775 Y182.425 E6.07955
G1 X185.543 Y183.18 E6.10582
G1 X185.237 Y183.908 E6.13209
G1 X184.859 Y184.601 E6.15834
G1 X184.268 Y185.437 E6.1924
G1 X184.152 Y185.58 E6.19852
G1 X183.624 Y186.167 E6.22478
G1 X183.039 Y186.698 E6.25106
G1 X182.404 Y187.167 E6.27731
G1 X181.422 Y187.721 E6.31481
G1 X181.263 Y187.796 E6.32066
G1 X180.532 Y188.096 E6.34694
G1 X179.775 Y188.321 E6.37321
G1 X178.738 Y188.5 E6.40821
G1 X178.651 Y188.509 E6.41112
G1 X177.848 Y188.55 E6.43786
G1 X161.749 Y188.55 E6.97332
G1 X161.151 Y188.529 E6.99322
G1 X161.138 Y188.528 E6.99365
G1 X157.977 Y188.345 E7.09896
G1 X157.13 Y188.249 E7.12732
G1 X156.914 Y188.213 E7.1346
G1 X153.793 Y187.663 E7.24
G1 X152.968 Y187.471 E7.26818
G1 X152.747 Y187.406 E7.27584
G1 X149.711 Y186.498 E7.38123
G1 X148.901 Y186.206 E7.40987
G1 X148.743 Y186.139 E7.41558
G1 X145.789 Y184.865 E7.52258
G1 X145.013 Y184.478 E7.55142
G1 X144.864 Y184.393 E7.55713
G1 X144.829 Y184.373 E7.55847
G1 X142.087 Y182.79 E7.66377
G1 X141.365 Y182.318 E7.69246
G1 X141.225 Y182.215 E7.69824
G1 X141.189 Y182.189 E7.69972
G1 X138.649 Y180.298 E7.80504
G1 X137.998 Y179.755 E7.83324
G1 X137.828 Y179.597 E7.84096
G1 X135.522 Y177.422 E7.94639
G1 X134.898 Y176.761 E7.97662
G1 X132.753 Y174.204 E8.08763
G1 X132.212 Y173.477 E8.11777
G1 X130.375 Y170.684 E8.22896
G1 X130.138 Y170.3 E8.24397
G1 X129.484 Y169.168 E8.28745
G1 X129.482 Y169.165 E8.28757
G1 X117.166 Y147.825 E9.10707
G1 X116.894 Y147.309 E9.12647
G1 X115.879 Y145.2 E9.20431
G1 X115.627 Y144.62 E9.22535
G1 X115.422 Y144.037 E9.2459
G1 X114.733 Y141.802 E9.32369
G1 X114.608 Y141.354 E9.33916
G1 X114.441 Y140.537 E9.36689
G1 X114.093 Y138.221 E9.44479
G1 X114.032 Y137.715 E9.46174
G1 X113.993 Y136.936 E9.48768
G1 X113.992 Y134.595 E9.56554
G1 X114.02 Y133.923 E9.58791
G1 X114.088 Y133.3 E9.60876
G1 X114.437 Y130.983 E9.68669
G1 X114.581 Y130.257 E9.71131
G1 X114.724 Y129.726 E9.7296
G1 X115.412 Y127.49 E9.80741
G1 X115.662 Y126.796 E9.83194
G1 X115.713 Y126.673 E9.83637
G1 X115.888 Y126.281 E9.85065
G1 X116.902 Y124.172 E9.92848
G1 X117.212 Y123.592 E9.95036
G1 X117.278 Y123.48 E9.95468
G1 X117.553 Y123.047 E9.97174
G1 X118.872 Y121.112 E10.04963
G1 X119.315 Y120.523 E10.07414
G1 X119.398 Y120.423 E10.07846
G1 X119.683 Y120.098 E10.09284
G1 X121.275 Y118.383 E10.17067
G1 X121.754 Y117.91 E10.19306
G1 X121.85 Y117.823 E10.19737
G1 X122.224 Y117.505 E10.2137
G1 X124.053 Y116.046 E10.29152
G1 X124.672 Y115.6 E10.31689
G1 X124.783 Y115.528 E10.32129
G1 X125.126 Y115.318 E10.33467
G1 X127.151 Y114.148 E10.41245
G1 X127.945 Y113.748 E10.44202
G1 X128.067 Y113.695 E10.44645
G1 X128.324 Y113.589 E10.45569
G1 X130.501 Y112.734 E10.53349
G1 X131.005 Y112.568 E10.55113
G1 X130.943 Y112.505 E10.55407
G1 X130.419 Y111.913 E10.58037
G1 X128.961 Y110.085 E10.65814
G1 X128.631 Y109.641 E10.67654
G1 X128.225 Y109.009 E10.70152
G1 X127.057 Y106.983 E10.7793
G1 X126.767 Y106.433 E10.79998
G1 X126.494 Y105.818 E10.82236
G1 X125.64 Y103.642 E10.90011
G1 X125.427 Y103.026 E10.92179
G1 X125.257 Y102.403 E10.94327
G1 X124.736 Y100.122 E11.02109
G1 X124.621 Y99.505 E11.04197
G1 X124.602 Y99.374 E11.04637
G1 X124.543 Y98.834 E11.06444
G1 X124.369 Y96.502 E11.14221
G1 X124.347 Y95.791 E11.16587
G1 X124.369 Y95.211 E11.18518
G1 X124.543 Y92.878 E11.26299
G1 X124.619 Y92.223 E11.28492
G1 X124.64 Y92.092 E11.28933
G1 X124.738 Y91.589 E11.30638
G1 X125.259 Y89.309 E11.38417
G1 X125.469 Y88.563 E11.40994
G1 X125.511 Y88.438 E11.41433
G1 X125.643 Y88.075 E11.42717
G1 X126.497 Y85.897 E11.50498
G1 X126.843 Y85.138 E11.53273
G1 X126.904 Y85.021 E11.53712
G1 X127.063 Y84.731 E11.54812
G1 X128.231 Y82.705 E11.6259
G0 F6000 X128.577 Y82.905
G1 F1200 X129.035 Y82.206 E11.65369
G1 X129.28 Y81.882 E11.6672
G1 X130.737 Y80.054 E11.74495
G1 X131.291 Y79.433 E11.77263
G1 X131.385 Y79.339 E11.77705
G1 X131.587 Y79.145 E11.78637
G1 X133.302 Y77.555 E11.86415
G1 X133.938 Y77.029 E11.8916
G1 X134.045 Y76.95 E11.89603
G1 X134.273 Y76.788 E11.90533
G1 X136.204 Y75.472 E11.98305
G1 X136.952 Y75.024 E12.01205
G1 X137.285 Y74.855 E12.02447
G1 X139.395 Y73.841 E12.10233
G1 X140.209 Y73.508 E12.13159
G1 X140.545 Y73.397 E12.14335
G1 X142.779 Y72.709 E12.2211
G1 X143.677 Y72.492 E12.25183
G1 X143.988 Y72.44 E12.26232
G1 X146.304 Y72.092 E12.34021
G1 X147.289 Y72.011 E12.37308
G1 X147.53 Y72.008 E12.3811
G1 X149.869 Y72.007 E12.4589
G1 X150.978 Y72.09 E12.49588
G1 X153.425 Y72.46 E12.5782
G1 X154.497 Y72.705 E12.61477
G1 X156.842 Y73.427 E12.69638
G1 X157.875 Y73.832 E12.73328
G1 X160.105 Y74.906 E12.81561
G1 X160.596 Y75.165 E12.83407
G1 X161.726 Y75.818 E12.87748
G1 X182.992 Y88.095 E13.69419
G1 X183.359 Y88.322 E13.70855
G1 X186.141 Y90.152 E13.8193
G1 X186.775 Y90.619 E13.84549
G1 X186.952 Y90.765 E13.85312
G1 X189.378 Y92.799 E13.95842
G1 X189.962 Y93.345 E13.98501
G1 X190.129 Y93.519 E13.99303
G1 X192.301 Y95.823 E14.09835
G1 X192.785 Y96.391 E14.12317
G1 X192.957 Y96.616 E14.13259
G1 X194.849 Y99.156 E14.23793
G1 X195.286 Y99.814 E14.2642
G1 X195.41 Y100.025 E14.27234
G1 X196.994 Y102.768 E14.37769
G1 X197.374 Y103.523 E14.4058
G1 X197.443 Y103.682 E14.41157
G1 X197.45 Y103.698 E14.41215
G1 X198.704 Y106.606 E14.51748
G1 X198.983 Y107.363 E14.54431
G1 X199.05 Y107.582 E14.55193
G1 X199.957 Y110.616 E14.65725
G1 X200.141 Y111.375 E14.68323
G1 X200.187 Y111.623 E14.69162
G1 X200.737 Y114.745 E14.79706
G1 X200.833 Y115.548 E14.82395
G1 X200.848 Y115.768 E14.83129
G1 X201.032 Y118.931 E14.93667
G1 X201.044 Y119.361 E14.95098
G1 X201.044 Y135.461 E15.48646
G1 X201.004 Y136.229 E15.51204
G1 X200.846 Y137.16 E15.54345
G1 X200.804 Y137.338 E15.54953
G1 X200.589 Y138.077 E15.57513
G1 X200.298 Y138.789 E15.60071
G1 X199.935 Y139.467 E15.62629
G1 X199.324 Y140.332 E15.66152
G1 X199.21 Y140.471 E15.6675
G1 X198.692 Y141.039 E15.69306
G1 X198.118 Y141.551 E15.71865
G1 X197.493 Y142 E15.74424
G1 X196.661 Y142.463 E15.77591
G1 X196.503 Y142.538 E15.78173
G1 X195.792 Y142.831 E15.80731
G1 X195.055 Y143.049 E15.83287
G1 X194.091 Y143.214 E15.8654
G1 X194.004 Y143.223 E15.86831
G1 X193.243 Y143.262 E15.89365
G1 X170.183 Y143.262 E16.66063
G1 X170.234 Y143.35 E16.66401
G1 X177.848 Y143.35 E16.91725
G1 X178.634 Y143.391 E16.94343
G1 X179.394 Y143.504 E16.96899
G1 X180.32 Y143.754 E17.00089
G1 X180.408 Y143.784 E17.00398
G1 X181.122 Y144.07 E17.02956
G1 X181.803 Y144.428 E17.05515
G1 X182.628 Y144.998 E17.08851
G1 X182.77 Y145.111 E17.09454
G1 X183.346 Y145.62 E17.12011
G1 X183.866 Y146.187 E17.1457
G1 X184.325 Y146.804 E17.17127
G1 X184.822 Y147.676 E17.20466
G1 X184.899 Y147.835 E17.21053
G1 X185.198 Y148.543 E17.23609
G1 X185.422 Y149.279 E17.26168
G1 X185.606 Y150.358 E17.29809
G1 X185.614 Y150.442 E17.30089
G1 X185.647 Y151.075 E17.32198
G1 X185.649 Y151.29 E17.32913
G1 X185.649 Y180.256 E18.29254
G1 X185.571 Y181.326 E18.32822
G1 X185.532 Y181.593 E18.3372
G1 X185.382 Y182.347 E18.36277
G1 X185.154 Y183.081 E18.38833
G1 X184.851 Y183.788 E18.41391
G1 X184.476 Y184.46 E18.43951
G1 X183.957 Y185.185 E18.46917
G1 X183.841 Y185.328 E18.47529
G1 X183.326 Y185.899 E18.50086
G1 X182.755 Y186.414 E18.52644
G1 X182.133 Y186.867 E18.55203
G1 X181.251 Y187.359 E18.58562
G1 X181.092 Y187.434 E18.59147
G1 X180.38 Y187.725 E18.61705
G1 X179.642 Y187.941 E18.64263
G1 X178.696 Y188.102 E18.67455
G1 X178.609 Y188.111 E18.67745
G1 X177.848 Y188.15 E18.7028
G1 X161.749 Y188.15 E19.23825
G1 X161.173 Y188.129 E19.25742
G1 X161.161 Y188.129 E19.25782
G1 X158 Y187.946 E19.36314
G1 X157.197 Y187.855 E19.39001
G1 X156.984 Y187.819 E19.3972
G1 X153.863 Y187.269 E19.5026
G1 X153.08 Y187.086 E19.52935
G1 X152.862 Y187.023 E19.5369
G1 X149.826 Y186.115 E19.64229
G1 X149.057 Y185.838 E19.66948
G1 X148.899 Y185.771 E19.67519
G1 X148.858 Y185.753 E19.67668
G1 X145.948 Y184.498 E19.78208
G1 X145.211 Y184.131 E19.80946
G1 X145.062 Y184.046 E19.81517
G1 X142.287 Y182.444 E19.92174
G1 X141.602 Y181.996 E19.94896
G1 X141.462 Y181.893 E19.95475
G1 X141.428 Y181.868 E19.95615
G1 X138.888 Y179.977 E20.06147
G1 X138.27 Y179.462 E20.08823
G1 X138.103 Y179.306 E20.09583
G1 X135.797 Y177.131 E20.20126
G1 X135.205 Y176.504 E20.22994
G1 X133.06 Y173.947 E20.34095
G1 X132.546 Y173.257 E20.36957
G1 X130.709 Y170.464 E20.48075
G1 X130.484 Y170.1 E20.49499
G1 X129.83 Y168.968 E20.53847
G1 X129.829 Y168.965 E20.53857
G1 X117.513 Y147.625 E21.35807
G1 X117.254 Y147.135 E21.3765
G1 X116.239 Y145.026 E21.45435
G1 X115.999 Y144.472 E21.47443
G1 X115.804 Y143.919 E21.49393
G1 X115.115 Y141.684 E21.57172
G1 X114.995 Y141.253 E21.5866
G1 X114.836 Y140.478 E21.61292
G1 X114.488 Y138.162 E21.69081
G1 X114.43 Y137.675 E21.70712
G1 X114.393 Y136.936 E21.73173
G1 X114.392 Y134.595 E21.8096
G1 X114.419 Y133.951 E21.83103
G1 X114.484 Y133.36 E21.85081
G1 X114.833 Y131.043 E21.92874
G1 X114.941 Y130.473 E21.94804
G1 X114.97 Y130.348 E21.95231
G1 X115.106 Y129.844 E21.96967
G1 X115.794 Y127.608 E22.04748
G1 X116.031 Y126.95 E22.07074
G1 X116.082 Y126.827 E22.07517
G1 X116.249 Y126.454 E22.08876
G1 X117.263 Y124.345 E22.16659
G1 X117.557 Y123.795 E22.18734
G1 X117.623 Y123.683 E22.19166
G1 X117.883 Y123.272 E22.20784
G1 X119.202 Y121.337 E22.28572
G1 X119.623 Y120.779 E22.30897
G1 X119.706 Y120.679 E22.3133
G1 X119.977 Y120.371 E22.32694
G1 X121.569 Y118.656 E22.40477
G1 X122.023 Y118.207 E22.42601
G1 X122.119 Y118.12 E22.43032
G1 X122.473 Y117.818 E22.44579
G1 X124.302 Y116.359 E22.52361
G1 X124.89 Y115.936 E22.5477
G1 X125.001 Y115.864 E22.5521
G1 X125.326 Y115.665 E22.56478
G1 X127.351 Y114.495 E22.64256
G1 X128.104 Y114.115 E22.67062
G1 X128.47 Y113.961 E22.68382
G1 X130.647 Y113.106 E22.76161
G1 X131.452 Y112.842 E22.78979
G1 X131.781 Y112.758 E22.80109
G1 X131.576 Y112.568 E22.81038
G1 X131.228 Y112.225 E22.82663
G1 X130.732 Y111.663 E22.85156
G1 X129.274 Y109.835 E22.92933
G1 X128.957 Y109.409 E22.947
G1 X128.571 Y108.809 E22.97072
G1 X127.403 Y106.783 E23.04851
G1 X127.125 Y106.255 E23.06835
G1 X126.867 Y105.671 E23.08959
G1 X126.013 Y103.495 E23.16734
G1 X125.808 Y102.905 E23.18811
G1 X125.647 Y102.314 E23.20848
G1 X125.126 Y100.033 E23.2863
G1 X125.017 Y99.447 E23.30613
G1 X124.998 Y99.316 E23.31053
G1 X124.942 Y98.805 E23.32763
G1 X124.768 Y96.473 E23.40541
G1 X124.747 Y95.791 E23.4281
G1 X124.767 Y95.241 E23.44641
G1 X124.941 Y92.908 E23.52422
G1 X125.014 Y92.287 E23.54501
G1 X125.035 Y92.156 E23.54943
G1 X125.128 Y91.679 E23.56559
G1 X125.649 Y89.399 E23.64338
G1 X125.848 Y88.69 E23.66787
G1 X125.89 Y88.565 E23.67226
G1 X126.016 Y88.221 E23.68444
G1 X126.87 Y86.043 E23.76225
G1 X127.197 Y85.323 E23.78855
G1 X127.258 Y85.206 E23.79294
G1 X127.409 Y84.931 E23.80338
G1 X128.577 Y82.905 E23.88116
G0 F6000 X128.924 Y83.105
G1 F1200 X129.357 Y82.443 E23.90747
G1 X129.593 Y82.131 E23.92048
G1 X131.05 Y80.303 E23.99823
G1 X131.574 Y79.716 E24.0244
G1 X131.668 Y79.622 E24.02882
G1 X131.859 Y79.439 E24.03762
G1 X133.574 Y77.849 E24.1154
G1 X134.175 Y77.351 E24.14136
G1 X134.282 Y77.272 E24.14579
G1 X134.498 Y77.119 E24.15459
G1 X136.429 Y75.803 E24.23231
G1 X137.137 Y75.379 E24.25976
G1 X137.458 Y75.216 E24.27173
G1 X139.568 Y74.202 E24.3496
G1 X140.338 Y73.887 E24.37727
G1 X140.663 Y73.779 E24.38866
G1 X142.897 Y73.091 E24.46641
G1 X143.747 Y72.886 E24.49549
G1 X144.048 Y72.836 E24.50564
G1 X146.364 Y72.488 E24.58353
G1 X147.295 Y72.411 E24.6146
G1 X147.53 Y72.408 E24.62242
G1 X149.869 Y72.407 E24.70021
G1 X150.919 Y72.486 E24.73524
G1 X153.366 Y72.856 E24.81755
G1 X154.379 Y73.087 E24.85211
G1 X156.724 Y73.809 E24.93371
G1 X157.701 Y74.192 E24.96862
G1 X159.931 Y75.266 E25.05094
G1 X160.396 Y75.512 E25.06844
G1 X161.526 Y76.165 E25.11185
G1 X182.792 Y88.442 E25.92856
G1 X183.139 Y88.656 E25.94212
G1 X185.921 Y90.486 E26.05287
G1 X186.521 Y90.928 E26.07766
G1 X186.695 Y91.072 E26.08517
G1 X189.121 Y93.106 E26.19047
G1 X189.674 Y93.622 E26.21563
G1 X189.838 Y93.793 E26.22351
G1 X192.01 Y96.097 E26.32882
G1 X192.467 Y96.635 E26.3523
G1 X192.636 Y96.855 E26.36153
G1 X194.528 Y99.395 E26.46687
G1 X194.941 Y100.017 E26.4917
G1 X195.064 Y100.225 E26.49974
G1 X196.648 Y102.968 E26.60509
G1 X197.007 Y103.682 E26.63167
G1 X197.076 Y103.841 E26.63744
G1 X197.083 Y103.856 E26.63799
G1 X198.337 Y106.764 E26.74332
G1 X198.6 Y107.48 E26.76869
G1 X198.667 Y107.697 E26.77624
