;FLAVOR:Marlin
;TIME:7150
;Filament used: 4.44582m
;Layer height: 0.2
;MINX:117.263
;MINY:116.573
;MINZ:0.2
;MAXX:182.738
;MAXY:183.426
;MAXZ:35
;Generated with Cura_SteamEngine 4.6.0
M140 S50
M105
M190 S50
M104 S200
M105
M109 S200
M82 ;absolute extrusion mode
M201 X500.00 Y500.00 Z100.00 E5000.00 ;Setup machine max acceleration
M203 X500.00 Y500.00 Z10.00 E50.00 ;Setup machine max feedrate
M204 P500.00 R1000.00 T500.00 ;Setup Print/Retract/Travel acceleration
M205 X8.00 Y8.00 Z0.40 E5.00 ;Setup Jerk
M220 S100 ;Reset Feedrate
M221 S100 ;Reset Flowrate

G28 ;Home

G92 E0 ;Reset Extruder
G1 Z2.0 F3000 ;Move Z Axis up
G1 X10.1 Y20 Z0.28 F5000.0 ;Move to start position
G1 X10.1 Y200.0 Z0.28 F1500.0 E15 ;Draw the first line
G1 X10.4 Y200.0 Z0.28 F5000.0 ;Move to side a little
G1 X10.4 Y20 Z0.28 F1500.0 E30 ;Draw the second line
G92 E0 ;Reset Extruder
G1 Z2.0 F3000 ;Move Z Axis up

G92 E0
G92 E0
G1 F2700 E-5
;LAYER_COUNT:175
;LAYER:0
M107
G0 F6000 X152.349 Y117.494 Z0.2
;TYPE:SKIRT
G1 F2700 E0
G1 F1200 X153.233 Y117.676 E0.03002
G1 X154.099 Y117.935 E0.06008
G1 X154.937 Y118.269 E0.09009
G1 X155.174 Y118.389 E0.09892
G1 X155.177 Y118.382 E0.09918
G1 X155.7 Y118.634 E0.11848
G1 X157.945 Y119.681 E0.20087
G1 X169.579 Y124.923 E0.62529
G1 X170.234 Y125.231 E0.64936
G1 X171.034 Y125.651 E0.67941
G1 X171.793 Y126.14 E0.70944
G1 X172.506 Y126.694 E0.73948
G1 X173.167 Y127.31 E0.76953
G1 X173.771 Y127.981 E0.79955
G1 X174.313 Y128.703 E0.82958
G1 X174.79 Y129.47 E0.85962
G1 X175.196 Y130.277 E0.88967
G1 X175.503 Y131.04 E0.91702
G1 X176.004 Y132.438 E0.96642
G1 X176.587 Y134.118 E1.02556
G1 X181.132 Y146.42 E1.46176
G1 X181.358 Y147.061 E1.48437
G1 X181.62 Y147.926 E1.51443
G1 X181.805 Y148.81 E1.54447
G1 X181.911 Y149.706 E1.57448
G1 X181.938 Y150.453 E1.59934
G1 X181.938 Y150.455 E1.5994
G1 X181.898 Y151.357 E1.62943
G1 X181.778 Y152.252 E1.65947
G1 X181.58 Y153.133 E1.6895
G1 X181.15 Y154.385 E1.73353
G1 X180.953 Y154.852 E1.75039
G1 X180.747 Y155.318 E1.76734
G1 X174.501 Y169.773 E2.29107
G1 X174.229 Y170.379 E2.31317
G1 X173.779 Y171.263 E2.34616
G1 X173.775 Y171.27 E2.34643
G1 X173.293 Y172.033 E2.37644
G1 X172.745 Y172.751 E2.40649
G1 X172.135 Y173.418 E2.43655
G1 X171.47 Y174.028 E2.46656
G1 X170.752 Y174.576 E2.4966
G1 X169.989 Y175.06 E2.52666
G1 X168.97 Y175.57 E2.56456
G1 X168.299 Y175.851 E2.58875
G1 X155.251 Y181.02 E3.05554
G1 X153.637 Y181.672 E3.11344
G1 X152.959 Y181.936 E3.13764
G1 X152.104 Y182.226 E3.16767
G1 X151.226 Y182.439 E3.19772
G1 X150.333 Y182.574 E3.22776
G1 X149.432 Y182.63 E3.25778
G1 X148.529 Y182.605 E3.28783
G1 X147.632 Y182.501 E3.31786
G1 X146.748 Y182.317 E3.34789
G1 X145.883 Y182.056 E3.37794
G1 X144.841 Y181.625 E3.41545
G1 X144.363 Y181.395 E3.43309
G1 X142.038 Y180.312 E3.5184
G1 X130.469 Y175.101 E3.94042
G1 X129.805 Y174.792 E3.96478
G1 X129.004 Y174.375 E3.99481
G1 X128.451 Y174.031 E4.01647
G1 X128.448 Y174.029 E4.01659
G1 X127.72 Y173.495 E4.04662
G1 X127.041 Y172.899 E4.07667
G1 X126.418 Y172.245 E4.10671
G1 X125.855 Y171.539 E4.13675
G1 X125.357 Y170.786 E4.16678
G1 X124.928 Y169.991 E4.19682
G1 X124.498 Y168.965 E4.23382
G1 X123.983 Y167.532 E4.28447
G1 X123.409 Y165.876 E4.34276
G1 X118.861 Y153.559 E4.77946
G1 X118.64 Y152.93 E4.80164
G1 X118.378 Y152.066 E4.83167
G1 X118.194 Y151.182 E4.8617
G1 X118.09 Y150.285 E4.89173
G1 X118.064 Y149.382 E4.92178
G1 X118.119 Y148.48 E4.95183
G1 X118.253 Y147.587 E4.98187
G1 X118.435 Y146.819 E5.00812
G1 X118.44 Y146.801 E5.00874
G1 X118.856 Y145.599 E5.05105
G1 X119.057 Y145.123 E5.06823
G1 X119.224 Y144.743 E5.08204
G1 X125.481 Y130.268 E5.60653
G1 X125.781 Y129.602 E5.63083
G1 X126.188 Y128.796 E5.66086
G1 X126.665 Y128.029 E5.6909
G1 X127.207 Y127.307 E5.72093
G1 X127.812 Y126.636 E5.75098
G1 X128.473 Y126.021 E5.78101
G1 X129.186 Y125.467 E5.81104
G1 X129.946 Y124.978 E5.84109
G1 X130.891 Y124.492 E5.87644
G1 X131.053 Y124.419 E5.88235
G1 X131.373 Y124.281 E5.89394
G1 X131.765 Y124.121 E5.90802
G1 X145.074 Y118.849 E6.38415
G1 X146.349 Y118.334 E6.42988
G1 X147.023 Y118.07 E6.45396
G1 X147.878 Y117.778 E6.48401
G1 X148.755 Y117.563 E6.51404
G1 X149.647 Y117.426 E6.54406
G1 X150.549 Y117.369 E6.57412
G1 X151.452 Y117.392 E6.60416
G1 X152.349 Y117.494 E6.63419
G0 F6000 X152.306 Y117.083
G1 F1200 X153.21 Y117.258 E6.66481
G1 X154.095 Y117.511 E6.69543
G1 X154.955 Y117.84 E6.72605
G1 X155.347 Y118.03 E6.74054
G1 X155.351 Y118.021 E6.74087
G1 X155.894 Y118.283 E6.76092
G1 X158.131 Y119.325 E6.843
G1 X169.75 Y124.561 E7.26688
G1 X170.405 Y124.869 E7.29095
G1 X171.22 Y125.296 E7.32155
G1 X171.995 Y125.793 E7.35217
G1 X172.724 Y126.355 E7.38279
G1 X173.402 Y126.978 E7.41341
G1 X174.023 Y127.658 E7.44404
G1 X174.583 Y128.389 E7.47467
G1 X175.077 Y129.166 E7.50529
G1 X175.501 Y129.983 E7.53591
G1 X175.88 Y130.906 E7.56909
G1 X176.382 Y132.306 E7.61856
G1 X176.972 Y134.005 E7.67838
G1 X181.509 Y146.287 E8.11386
G1 X181.735 Y146.928 E8.13647
G1 X182.003 Y147.809 E8.1671
G1 X182.194 Y148.71 E8.19773
G1 X182.306 Y149.624 E8.22836
G1 X182.338 Y150.453 E8.25595
G1 X182.338 Y150.455 E8.25602
G1 X182.298 Y151.375 E8.28665
G1 X182.178 Y152.288 E8.31727
G1 X181.98 Y153.187 E8.34789
G1 X181.704 Y154.065 E8.3785
G1 X181.519 Y154.54 E8.39546
G1 X181.319 Y155.014 E8.41257
G1 X181.113 Y155.48 E8.42951
G1 X174.866 Y169.937 E8.95333
G1 X174.594 Y170.543 E8.97542
G1 X174.126 Y171.461 E9.00969
G1 X174.122 Y171.468 E9.00996
G1 X173.631 Y172.247 E9.04059
G1 X173.075 Y172.98 E9.07119
G1 X172.456 Y173.662 E9.10182
G1 X171.781 Y174.288 E9.13244
G1 X171.054 Y174.853 E9.16306
G1 X170.281 Y175.353 E9.19368
G1 X169.128 Y175.937 E9.23667
G1 X168.446 Y176.223 E9.26127
G1 X155.327 Y181.42 E9.7306
G1 X153.782 Y182.045 E9.78603
G1 X153.104 Y182.309 E9.81023
G1 X152.233 Y182.605 E9.84082
G1 X151.338 Y182.825 E9.87148
G1 X150.429 Y182.966 E9.90207
G1 X149.51 Y183.028 E9.93271
G1 X148.59 Y183.01 E9.96331
G1 X147.674 Y182.912 E9.99395
G1 X146.771 Y182.735 E10.02456
G1 X145.886 Y182.48 E10.05519
G1 X144.668 Y181.986 E10.09891
G1 X144.13 Y181.728 E10.11875
G1 X141.917 Y180.697 E10.19995
G1 X130.301 Y175.463 E10.62371
G1 X129.637 Y175.154 E10.64807
G1 X128.82 Y174.73 E10.67869
G1 X128.229 Y174.364 E10.70181
G1 X128.226 Y174.362 E10.70193
G1 X127.483 Y173.818 E10.73256
G1 X126.79 Y173.212 E10.76317
G1 X126.152 Y172.549 E10.79378
G1 X125.574 Y171.832 E10.82441
G1 X125.06 Y171.068 E10.85504
G1 X124.615 Y170.262 E10.88566
G1 X124.121 Y169.1 E10.92765
G1 X123.605 Y167.663 E10.97844
G1 X123.025 Y165.989 E11.03736
G1 X118.483 Y153.692 E11.47337
G1 X118.262 Y153.063 E11.49554
G1 X117.995 Y152.182 E11.52616
G1 X117.805 Y151.281 E11.55679
G1 X117.695 Y150.367 E11.58741
G1 X117.663 Y149.447 E11.61802
G1 X117.712 Y148.527 E11.64867
G1 X117.841 Y147.616 E11.67927
G1 X118.05 Y146.712 E11.71013
G1 X118.055 Y146.694 E11.71075
G1 X118.487 Y145.445 E11.75471
G1 X118.691 Y144.962 E11.77215
G1 X118.858 Y144.582 E11.78595
G1 X125.116 Y130.104 E12.31055
G1 X125.416 Y129.438 E12.33485
G1 X125.83 Y128.615 E12.36549
G1 X126.314 Y127.832 E12.3961
G1 X126.865 Y127.094 E12.42674
G1 X127.477 Y126.406 E12.45736
G1 X128.146 Y125.774 E12.48797
G1 X128.868 Y125.203 E12.51859
G1 X129.637 Y124.696 E12.54922
G1 X130.726 Y124.127 E12.59009
G1 X130.888 Y124.054 E12.596
G1 X131.617 Y123.749 E12.62228
G1 X144.964 Y118.462 E13.09977
G1 X146.203 Y117.961 E13.14422
G1 X146.877 Y117.697 E13.16829
G1 X147.748 Y117.399 E13.19891
G1 X148.642 Y117.177 E13.22955
G1 X149.551 Y117.034 E13.26015
G1 X150.47 Y116.971 E13.29079
G1 X151.39 Y116.987 E13.32139
G1 X152.306 Y117.083 E13.35203
G0 F6000 X152.261 Y116.672
G1 F1200 X153.183 Y116.841 E13.3832
G1 X154.088 Y117.088 E13.41441
G1 X154.968 Y117.411 E13.44558
G1 X155.521 Y117.669 E13.46588
G1 X155.525 Y117.661 E13.46618
G1 X156.089 Y117.933 E13.487
G1 X158.287 Y118.957 E13.56765
G1 X169.92 Y124.199 E13.99204
G1 X170.575 Y124.507 E14.01611
G1 X171.406 Y124.942 E14.04731
G1 X172.197 Y125.446 E14.0785
G1 X172.942 Y126.015 E14.10968
G1 X173.636 Y126.646 E14.14088
G1 X174.273 Y127.334 E14.17207
G1 X174.85 Y128.074 E14.20328
G1 X175.361 Y128.86 E14.23446
G1 X175.804 Y129.687 E14.26566
G1 X176.257 Y130.772 E14.30477
G1 X176.728 Y132.095 E14.35148
G1 X176.727 Y132.095 E14.35151
G1 X176.76 Y132.175 E14.35439
G1 X177.35 Y133.876 E14.41427
G1 X181.886 Y146.154 E14.84961
G1 X182.112 Y146.795 E14.87222
G1 X182.386 Y147.692 E14.90342
G1 X182.582 Y148.609 E14.9346
G1 X182.7 Y149.54 E14.96582
G1 X182.738 Y150.453 E14.99621
G1 X182.738 Y150.455 E14.99628
G1 X182.698 Y151.392 E15.02747
G1 X182.578 Y152.322 E15.05866
G1 X182.38 Y153.239 E15.08986
G1 X182.104 Y154.135 E15.12104
G1 X181.889 Y154.694 E15.14096
G1 X181.685 Y155.175 E15.15834
G1 X181.516 Y155.557 E15.17223
G1 X175.23 Y170.1 E15.69919
G1 X174.958 Y170.706 E15.72128
G1 X174.474 Y171.66 E15.75686
G1 X174.47 Y171.667 E15.75713
G1 X173.97 Y172.46 E15.78831
G1 X173.405 Y173.209 E15.81951
G1 X172.778 Y173.906 E15.8507
G1 X172.093 Y174.547 E15.8819
G1 X171.357 Y175.128 E15.91309
G1 X170.574 Y175.644 E15.94427
G1 X169.75 Y176.092 E15.97547
G1 X169.079 Y176.394 E15.99994
G1 X168.593 Y176.595 E16.01744
G1 X155.474 Y181.792 E16.48677
G1 X153.927 Y182.417 E16.54226
G1 X153.249 Y182.681 E16.56646
G1 X152.362 Y182.984 E16.59763
G1 X151.451 Y183.21 E16.62885
G1 X150.525 Y183.358 E16.66004
G1 X149.59 Y183.426 E16.69122
G1 X148.652 Y183.414 E16.72242
G1 X147.719 Y183.323 E16.7536
G1 X146.796 Y183.152 E16.78482
G1 X145.892 Y182.903 E16.81601
G1 X145.012 Y182.579 E16.8472
G1 X144.495 Y182.346 E16.86606
G1 X144.05 Y182.132 E16.88249
G1 X141.761 Y181.065 E16.96648
G1 X130.132 Y175.826 E17.3907
G1 X129.468 Y175.517 E17.41506
G1 X128.635 Y175.085 E17.44627
G1 X128.007 Y174.697 E17.47083
G1 X128.004 Y174.695 E17.47094
G1 X127.247 Y174.142 E17.50213
G1 X126.539 Y173.526 E17.53334
G1 X125.887 Y172.852 E17.56453
G1 X125.294 Y172.126 E17.59571
G1 X124.765 Y171.351 E17.62692
G1 X124.304 Y170.534 E17.65812
G1 X123.914 Y169.681 E17.68931
G1 X123.744 Y169.234 E17.70522
G1 X123.263 Y167.884 E17.75288
G1 X123.264 Y167.883 E17.75293
G1 X123.227 Y167.793 E17.75617
G1 X122.652 Y166.133 E17.8146
G1 X118.106 Y153.824 E18.25103
G1 X117.885 Y153.195 E18.2732
G1 X117.612 Y152.298 E18.30439
G1 X117.417 Y151.381 E18.33557
G1 X117.3 Y150.45 E18.36678
G1 X117.263 Y149.513 E18.39797
G1 X117.306 Y148.576 E18.42916
G1 X117.429 Y147.646 E18.46036
G1 X117.664 Y146.605 E18.49586
G1 X117.669 Y146.587 E18.49648
G1 X118.118 Y145.291 E18.5421
G1 X118.325 Y144.801 E18.55979
G1 X118.492 Y144.421 E18.5736
G1 X124.752 Y129.939 E19.09834
G1 X125.052 Y129.273 E19.12264
G1 X125.473 Y128.435 E19.15383
G1 X125.964 Y127.636 E19.18502
G1 X126.521 Y126.882 E19.2162
G1 X127.141 Y126.178 E19.2474
G1 X127.818 Y125.529 E19.27859
G1 X128.549 Y124.941 E19.3098
G1 X129.326 Y124.416 E19.34099
G1 X130.562 Y123.762 E19.3875
G1 X130.724 Y123.689 E19.39341
G1 X131.069 Y123.54 E19.40591
G1 X131.47 Y123.377 E19.4203
G1 X144.776 Y118.106 E19.89632
G1 X146.057 Y117.589 E19.94227
G1 X146.731 Y117.325 E19.96634
G1 X147.618 Y117.02 E19.99754
G1 X148.528 Y116.792 E20.02874
G1 X149.454 Y116.643 E20.05994
G1 X150.389 Y116.573 E20.09112
G1 X151.327 Y116.583 E20.12232
G1 X152.261 Y116.672 E20.15353
G1 F2700 E15.15353
;MESH:Low_Poly_Planter_Mini.stl
G0 F6000 X150.862 Y126.939
G0 X150.664 Y128.049
G0 X165.21 Y134.987
G0 X170.868 Y150.306
G0 X170.787 Y150.71
G0 X164.342 Y165.615
G0 X149.348 Y171.758
;TYPE:WALL-INNER
G1 F2700 E20.15353
G1 F1200 X134.651 Y165.141 E20.68961
G1 X128.933 Y149.661 E21.23848
G1 X129.004 Y149.572 E21.24227
G1 X128.959 Y149.444 E21.24678
G1 X135.525 Y134.248 E21.79736
G1 X148.629 Y129.061 E22.26611
G1 X150.652 Y128.241 E22.33871
G1 X165.348 Y134.859 E22.87478
G1 X171.067 Y150.338 E23.42363
G1 X170.996 Y150.427 E23.42741
G1 X171.04 Y150.555 E23.43191
G1 X170.944 Y150.778 E23.43999
G1 X164.474 Y165.75 E23.98247
G1 X151.119 Y171.038 E24.46021
G1 X151.119 Y171.04 E24.46028
G1 X149.348 Y171.758 E24.52384
G0 F6000 X149.298 Y172.21
;TYPE:WALL-OUTER
G1 F1200 X149.218 Y172.138 E24.52742
G1 X134.29 Y165.417 E25.07193
G1 X134.285 Y165.305 E25.07565
G1 X128.48 Y149.588 E25.63292
G1 X128.554 Y149.495 E25.63687
G1 X128.531 Y149.428 E25.63923
G1 X128.578 Y149.318 E25.64321
G1 X135.224 Y133.937 E26.2005
G1 X135.376 Y133.877 E26.20593
G1 X148.48 Y128.69 E26.67467
G1 X150.702 Y127.789 E26.75442
G1 X150.783 Y127.861 E26.75803
G1 X165.709 Y134.583 E27.30249
G1 X165.714 Y134.695 E27.30622
G1 X171.52 Y150.411 E27.86346
G1 X171.446 Y150.504 E27.86742
G1 X171.469 Y150.571 E27.86977
G1 X171.311 Y150.937 E27.88303
G1 X164.775 Y166.061 E28.43102
G1 X164.624 Y166.121 E28.43643
G1 X151.519 Y171.309 E28.90521
G1 X151.519 Y171.31 E28.90525
G1 X149.298 Y172.21 E28.98495
G0 F6000 X149.349 Y171.715
G0 X149.356 Y171.335
;TYPE:SKIN
G1 F1200 X134.961 Y164.854 E29.51002
G1 X129.375 Y149.732 E30.0462
G1 X129.443 Y149.646 E30.04984
G1 X129.377 Y149.459 E30.05644
G1 X135.818 Y134.552 E30.59655
G1 X148.774 Y129.423 E31.06001
G1 X150.644 Y128.664 E31.12713
G1 X165.038 Y135.146 E31.65218
G1 X170.625 Y150.267 E32.18834
G1 X170.557 Y150.351 E32.19193
G1 X170.623 Y150.539 E32.19856
G1 X170.586 Y150.624 E32.20165
G1 X164.181 Y165.446 E32.73869
G1 X150.729 Y170.773 E33.21991
G1 X150.729 Y170.778 E33.22007
G1 X149.356 Y171.335 E33.26935
G0 F6000 X149.241 Y171.589
G0 X134.789 Y165.013
G0 X134.539 Y164.517
G0 X134.95 Y164.366
G1 F1200 X135.512 Y164.927 E33.29576
G0 F6000 X135.331 Y165.326
G0 X136.359 Y165.789
G0 X136.54 Y165.39
G1 F1200 X134.619 Y163.469 E33.38612
G0 F6000 X134.288 Y162.573
G1 F1200 X137.569 Y165.853 E33.54043
G0 F6000 X137.388 Y166.253
G0 X138.416 Y166.715
G0 X138.597 Y166.316
G1 F1200 X133.957 Y161.675 E33.7587
G0 F6000 X133.626 Y160.779
G1 F1200 X139.626 Y166.779 E34.04092
G0 F6000 X139.445 Y167.179
G0 X140.474 Y167.642
G0 X140.655 Y167.242
G1 F1200 X133.294 Y159.881 E34.38716
G0 F6000 X132.963 Y158.985
G1 F1200 X141.684 Y167.705 E34.79735
G0 F6000 X141.503 Y168.105
G0 X142.531 Y168.568
G0 X142.712 Y168.168
G1 F1200 X132.632 Y158.088 E35.27148
G0 F6000 X132.301 Y157.191
G1 F1200 X143.741 Y168.631 E35.80958
G0 F6000 X143.56 Y169.032
G0 X144.589 Y169.495
G0 X144.77 Y169.094
G1 F1200 X131.97 Y156.294 E36.41166
G0 F6000 X131.638 Y155.397
G1 F1200 X145.799 Y169.557 E37.07772
G0 F6000 X145.618 Y169.958
G0 X146.646 Y170.421
G0 X146.827 Y170.02
G1 F1200 X131.307 Y154.5 E37.80774
G0 F6000 X130.976 Y153.604
G1 F1200 X147.856 Y170.483 E38.6017
G0 F6000 X147.675 Y170.884
G0 X148.703 Y171.347
G0 X148.884 Y170.946
G1 F1200 X130.645 Y152.706 E39.45963
G0 F6000 X130.314 Y151.81
G1 F1200 X149.575 Y171.071 E40.3656
G0 F6000 X149.978 Y170.908
G1 F1200 X129.983 Y150.913 E41.30611
G0 F6000 X129.651 Y150.016
G1 F1200 X150.381 Y170.745 E42.28116
G0 F6000 X150.78 Y170.579
G1 F1200 X129.582 Y149.381 E43.27825
G0 F6000 X129.753 Y148.986
G1 F1200 X151.185 Y170.419 E44.28637
G0 F6000 X151.59 Y170.258
G1 F1200 X129.924 Y148.592 E45.30547
G0 F6000 X130.094 Y148.196
G1 F1200 X151.996 Y170.098 E46.33567
G0 F6000 X152.401 Y169.937
G1 F1200 X130.266 Y147.802 E47.37684
G0 F6000 X130.436 Y147.407
G1 F1200 X152.806 Y169.777 E48.42905
G0 F6000 X153.211 Y169.616
G1 F1200 X130.606 Y147.011 E49.49232
G0 F6000 X130.777 Y146.617
G1 F1200 X153.616 Y169.456 E50.5666
G0 F6000 X154.021 Y169.295
G1 F1200 X130.948 Y146.221 E51.6519
G0 F6000 X131.119 Y145.827
G1 F1200 X154.427 Y169.134 E52.74822
G0 F6000 X154.832 Y168.974
G1 F1200 X131.289 Y145.432 E53.85558
G0 F6000 X131.46 Y145.036
G1 F1200 X155.237 Y168.813 E54.97398
G0 F6000 X155.642 Y168.653
G1 F1200 X131.631 Y144.642 E56.10339
G0 F6000 X131.801 Y144.246
G1 F1200 X156.048 Y168.493 E57.24389
G0 F6000 X156.453 Y168.333
G1 F1200 X131.972 Y143.852 E58.3954
G0 F6000 X132.143 Y143.457
G1 F1200 X156.858 Y168.172 E59.55792
G0 F6000 X157.264 Y168.012
G1 F1200 X132.313 Y143.061 E60.73154
G0 F6000 X132.484 Y142.667
G1 F1200 X157.669 Y167.851 E61.91614
G0 F6000 X158.074 Y167.691
G1 F1200 X132.655 Y142.272 E63.11177
G0 F6000 X132.826 Y141.877
G1 F1200 X158.479 Y167.53 E64.31841
G0 F6000 X158.884 Y167.37
G1 F1200 X132.996 Y141.482 E65.5361
G0 F6000 X133.167 Y141.086
G1 F1200 X159.289 Y167.209 E66.76482
