;FLAVOR:Marlin
;TIME:2834
;Filament used: 1.69044m
;Layer height: 0.2
;MINX:60.705
;MINY:126.428
;MINZ:0.2
;MAXX:239.295
;MAXY:173.572
;MAXZ:2.2
;Generated with Cura_SteamEngine 4.6.0
M140 S50
M105
M190 S50
M104 S200
M105
M109 S200
M82 ;absolute extrusion mode
M201 X500.00 Y500.00 Z100.00 E5000.00 ;Setup machine max acceleration
M203 X500.00 Y500.00 Z10.00 E50.00 ;Setup machine max feedrate
M204 P500.00 R1000.00 T500.00 ;Setup Print/Retract/Travel acceleration
M205 X8.00 Y8.00 Z0.40 E5.00 ;Setup Jerk
M220 S100 ;Reset Feedrate
M221 S100 ;Reset Flowrate

G28 ;Home

G92 E0 ;Reset Extruder
G1 Z2.0 F3000 ;Move Z Axis up
G1 X10.1 Y20 Z0.28 F5000.0 ;Move to start position
G1 X10.1 Y200.0 Z0.28 F1500.0 E15 ;Draw the first line
G1 X10.4 Y200.0 Z0.28 F5000.0 ;Move to side a little
G1 X10.4 Y20 Z0.28 F1500.0 E30 ;Draw the second line
G92 E0 ;Reset Extruder
G1 Z2.0 F3000 ;Move Z Axis up

G92 E0
G92 E0
G1 F2700 E-5
;LAYER_COUNT:10
;LAYER:0
M107
G1 F300 Z0.4
G0 F6000 X67.128 Y132.065 Z0.4
;TYPE:SKIRT
G1 F300 Z0.2
G1 F2700 E0
G1 F1200 X67.863 Y131.778 E0.02624
G1 X68.333 Y131.637 E0.04256
G1 X69.05 Y131.447 E0.06723
G1 X69.998 Y131.258 E0.09939
G1 X70.079 Y131.247 E0.1021
G1 X71.129 Y131.176 E0.13711
G1 X71.873 Y131.176 E0.16185
G1 X72.662 Y131.216 E0.18813
G1 X73.442 Y131.335 E0.21437
G1 X73.882 Y131.439 E0.22941
G1 X74.636 Y131.64 E0.25536
G1 X75.388 Y131.882 E0.28164
G1 X76.111 Y132.199 E0.3079
G1 X76.269 Y132.284 E0.31386
G1 X76.706 Y131.896 E0.3333
G1 X76.771 Y131.845 E0.33605
G1 X77.688 Y131.226 E0.37285
G1 X78.331 Y130.855 E0.39754
G1 X79.034 Y130.495 E0.42381
G1 X79.77 Y130.209 E0.45007
G1 X80.221 Y130.074 E0.46573
G1 X80.938 Y129.883 E0.49041
G1 X80.939 Y129.888 E0.49058
G1 X81.584 Y129.736 E0.51262
G1 X82.367 Y129.633 E0.53888
G1 X82.984 Y129.609 E0.55942
G1 X83.728 Y129.609 E0.58417
G1 X84.765 Y129.678 E0.61873
G1 X85.829 Y129.885 E0.65478
G1 X86.545 Y130.077 E0.67944
G1 X87.297 Y130.32 E0.70573
G1 X88.02 Y130.638 E0.732
G1 X88.162 Y130.714 E0.73735
G1 X88.513 Y130.397 E0.75308
G1 X89.149 Y129.929 E0.77935
G1 X89.562 Y129.674 E0.79549
G1 X90.206 Y129.304 E0.82019
G1 X90.21 Y129.31 E0.82043
G1 X90.665 Y129.055 E0.83778
G1 X91.39 Y128.741 E0.86406
G1 X92.117 Y128.509 E0.88944
G1 X92.833 Y128.318 E0.91409
G1 X93.793 Y128.125 E0.94666
G1 X93.874 Y128.114 E0.94938
G1 X94.924 Y128.043 E0.98438
G1 X95.668 Y128.043 E1.00912
G1 X96.457 Y128.083 E1.0354
G1 X97.237 Y128.202 E1.06164
G1 X97.688 Y128.309 E1.07706
G1 X98.404 Y128.501 E1.10171
G1 X99.384 Y128.835 E1.13615
G1 X99.456 Y128.865 E1.13875
G1 X100.05 Y129.158 E1.16077
G1 X100.417 Y128.826 E1.17723
G1 X101.053 Y128.359 E1.20348
G1 X101.443 Y128.118 E1.21873
G1 X102.085 Y127.747 E1.24339
G1 X102.974 Y127.306 E1.27639
G1 X103.048 Y127.275 E1.27906
G1 X104.044 Y126.934 E1.31408
G1 X104.761 Y126.742 E1.33877
G1 X105.534 Y126.577 E1.36506
G1 X106.318 Y126.491 E1.39129
G1 X106.779 Y126.477 E1.40663
G1 X107.566 Y126.477 E1.4328
G1 X108.355 Y126.517 E1.45908
G1 X109.135 Y126.636 E1.48532
G1 X109.579 Y126.741 E1.5005
G1 X110.294 Y126.932 E1.52511
G1 X110.294 Y126.933 E1.52515
G1 X111.011 Y127.157 E1.55013
G1 X111.738 Y127.467 E1.57642
G1 X112.218 Y127.722 E1.59449
G1 X112.861 Y128.093 E1.61918
G1 X113.778 Y128.712 E1.65598
G1 X113.843 Y128.763 E1.65873
G1 X114.543 Y129.385 E1.68988
G1 X115.068 Y129.91 E1.71457
G1 X115.598 Y130.496 E1.74085
G1 X116.065 Y131.132 E1.76709
G1 X116.276 Y131.47 E1.78035
G1 X116.699 Y132.202 E1.80847
G1 X116.754 Y132.31 E1.8125
G1 X121.942 Y131.629 E1.98653
G1 X122.107 Y131.356 E1.99714
G1 X122.368 Y130.993 E2.01201
G1 X122.845 Y130.369 E2.03813
G1 X123.356 Y129.767 E2.0644
G1 X123.925 Y129.219 E2.09067
G1 X124.306 Y128.908 E2.10703
G1 X124.929 Y128.432 E2.13311
G1 X125.58 Y127.985 E2.15937
G1 X126.273 Y127.606 E2.18564
G1 X126.674 Y127.426 E2.20026
G1 X127.394 Y127.127 E2.22619
G1 X128.137 Y126.862 E2.25243
G1 X128.904 Y126.673 E2.2787
G1 X129.365 Y126.598 E2.29424
G1 X130.146 Y126.495 E2.32044
G1 X131.166 Y126.428 E2.35444
G1 X168.834 Y126.428 E3.60728
G1 X169.854 Y126.495 E3.64128
G1 X170.635 Y126.598 E3.66748
G1 X171.412 Y126.741 E3.69376
G1 X172.17 Y126.961 E3.72001
G1 X172.606 Y127.127 E3.73553
G1 X173.326 Y127.426 E3.76146
G1 X174.04 Y127.766 E3.78776
G1 X174.715 Y128.176 E3.81403
G1 X175.071 Y128.432 E3.82861
G1 X175.694 Y128.908 E3.85469
G1 X176.296 Y129.419 E3.88095
G1 X176.844 Y129.987 E3.9072
G1 X177.155 Y130.369 E3.92358
G1 X177.632 Y130.993 E3.94971
G1 X178.07 Y131.63 E3.97542
G1 X183.25 Y132.31 E4.14919
G1 X183.318 Y132.173 E4.15427
G1 X183.69 Y131.528 E4.17904
G1 X184.119 Y130.865 E4.2053
G1 X184.612 Y130.248 E4.23157
G1 X184.932 Y129.91 E4.24705
G1 X185.486 Y129.356 E4.27311
G1 X186.072 Y128.826 E4.29939
G1 X186.708 Y128.359 E4.32563
G1 X187.103 Y128.115 E4.34108
G1 X187.746 Y127.744 E4.36577
G1 X188.63 Y127.306 E4.39858
G1 X188.704 Y127.275 E4.40125
G1 X189.698 Y126.935 E4.43619
G1 X190.414 Y126.743 E4.46085
G1 X191.186 Y126.578 E4.4871
G1 X191.971 Y126.491 E4.51337
G1 X192.434 Y126.477 E4.52878
G1 X193.178 Y126.477 E4.55352
G1 X194.215 Y126.546 E4.58809
G1 X195.267 Y126.75 E4.62373
G1 X195.984 Y126.941 E4.64841
G1 X196.736 Y127.182 E4.67468
G1 X197.459 Y127.499 E4.70093
G1 X197.888 Y127.73 E4.71714
G1 X198.566 Y128.123 E4.7432
G1 X199.228 Y128.553 E4.76946
G1 X199.843 Y129.048 E4.79572
G1 X199.949 Y129.148 E4.80056
G1 X200.115 Y129.055 E4.80689
G1 X200.84 Y128.741 E4.83317
G1 X201.569 Y128.508 E4.85862
G1 X202.286 Y128.317 E4.8833
G1 X203.244 Y128.125 E4.9158
G1 X203.325 Y128.114 E4.91852
G1 X204.375 Y128.043 E4.95352
G1 X205.119 Y128.043 E4.97827
G1 X205.908 Y128.083 E5.00454
G1 X206.688 Y128.202 E5.03079
G1 X207.142 Y128.31 E5.04631
G1 X207.857 Y128.502 E5.07093
G1 X208.834 Y128.835 E5.10526
G1 X208.906 Y128.865 E5.10786
G1 X209.798 Y129.306 E5.14095
G1 X210.444 Y129.678 E5.16575
G1 X211.108 Y130.106 E5.19202
G1 X211.725 Y130.599 E5.21829
G1 X211.849 Y130.716 E5.22396
G1 X212.276 Y130.497 E5.23992
G1 X213.012 Y130.21 E5.2662
G1 X213.457 Y130.077 E5.28164
G1 X214.211 Y129.875 E5.30761
G1 X214.983 Y129.709 E5.33387
G1 X215.768 Y129.623 E5.36013
G1 X216.229 Y129.609 E5.37547
G1 X216.974 Y129.609 E5.40025
G1 X218.011 Y129.678 E5.43482
G1 X219.075 Y129.885 E5.47087
G1 X219.791 Y130.077 E5.49553
G1 X220.543 Y130.32 E5.52181
G1 X221.266 Y130.638 E5.54808
G1 X221.666 Y130.853 E5.56319
G1 X222.308 Y131.223 E5.58783
G1 X223.228 Y131.844 E5.62475
G1 X223.293 Y131.895 E5.6275
G1 X223.734 Y132.286 E5.6471
G1 X223.911 Y132.187 E5.65385
G1 X224.636 Y131.873 E5.68013
G1 X225.372 Y131.638 E5.70582
G1 X226.088 Y131.448 E5.73046
G1 X227.039 Y131.258 E5.76272
G1 X227.12 Y131.247 E5.76543
G1 X228.17 Y131.176 E5.80044
G1 X228.914 Y131.176 E5.82518
G1 X229.703 Y131.216 E5.85146
G1 X230.483 Y131.335 E5.8777
G1 X230.924 Y131.44 E5.89278
G1 X231.627 Y131.627 E5.91698
G1 X231.64 Y131.632 E5.91744
G1 X232.36 Y131.856 E5.94252
G1 X233.087 Y132.166 E5.9688
G1 X233.572 Y132.424 E5.98708
G1 X234.214 Y132.795 E6.01174
G1 X235.126 Y133.411 E6.04834
G1 X235.191 Y133.462 E6.05109
G1 X235.891 Y134.084 E6.08224
G1 X236.416 Y134.609 E6.10693
G1 X236.946 Y135.195 E6.13321
G1 X237.413 Y135.831 E6.15945
G1 X237.659 Y136.229 E6.17502
G1 X238.029 Y136.871 E6.19966
G1 X238.466 Y137.753 E6.2324
G1 X238.834 Y138.811 E6.26966
G1 X239.027 Y139.528 E6.29435
G1 X239.193 Y140.3 E6.32062
G1 X239.281 Y141.084 E6.34686
G1 X239.295 Y141.555 E6.36253
G1 X239.295 Y142.339 E6.3886
G1 X239.228 Y143.357 E6.42254
G1 X236.483 Y164.209 E7.12206
G1 X236.287 Y165.198 E7.15559
G1 X236.086 Y165.953 E7.18158
G1 X235.845 Y166.705 E7.20785
G1 X235.529 Y167.428 E7.23409
G1 X235.301 Y167.852 E7.2501
G1 X234.865 Y168.602 E7.27895
G1 X234.844 Y168.637 E7.28031
G1 X234.404 Y169.293 E7.30658
G1 X233.671 Y170.139 E7.34382
G1 X233.147 Y170.663 E7.36846
G1 X232.447 Y171.285 E7.39961
G1 X232.382 Y171.336 E7.40236
G1 X231.473 Y171.951 E7.43886
G1 X230.83 Y172.323 E7.46357
G1 X230.127 Y172.683 E7.48984
G1 X229.392 Y172.97 E7.51608
G1 X228.919 Y173.111 E7.5325
G1 X228.201 Y173.301 E7.5572
G1 X228.2 Y173.296 E7.55737
G1 X227.568 Y173.445 E7.57896
G1 X226.785 Y173.548 E7.60523
G1 X226.168 Y173.572 E7.62577
G1 X225.382 Y173.572 E7.65191
G1 X224.593 Y173.532 E7.67819
G1 X223.813 Y173.413 E7.70443
G1 X223.369 Y173.308 E7.71961
G1 X222.654 Y173.117 E7.74422
G1 X221.653 Y172.775 E7.7794
G1 X221.579 Y172.744 E7.78207
G1 X220.692 Y172.304 E7.815
G1 X220.048 Y171.932 E7.83974
G1 X219.385 Y171.503 E7.866
G1 X218.768 Y171.009 E7.89229
G1 X218.654 Y170.901 E7.89752
G1 X218.488 Y170.994 E7.90385
G1 X217.763 Y171.308 E7.93012
G1 X217.036 Y171.54 E7.9555
G1 X216.32 Y171.731 E7.98015
G1 X215.36 Y171.924 E8.01272
G1 X215.279 Y171.935 E8.01544
G1 X214.229 Y172.006 E8.05044
G1 X213.485 Y172.006 E8.07519
G1 X212.696 Y171.966 E8.10146
G1 X211.916 Y171.847 E8.12771
G1 X211.469 Y171.741 E8.14299
G1 X210.714 Y171.539 E8.16898
G1 X209.962 Y171.297 E8.19526
G1 X209.239 Y170.979 E8.22153
G1 X208.835 Y170.762 E8.23678
G1 X208.193 Y170.392 E8.26142
G1 X207.273 Y169.771 E8.29834
G1 X207.208 Y169.72 E8.30109
G1 X206.76 Y169.322 E8.32102
G1 X206.179 Y169.61 E8.34259
G1 X206.105 Y169.641 E8.34526
G1 X205.118 Y169.979 E8.37996
G1 X204.401 Y170.172 E8.40465
G1 X203.629 Y170.338 E8.43092
G1 X202.845 Y170.426 E8.45716
G1 X202.374 Y170.44 E8.47283
G1 X201.63 Y170.44 E8.49757
G1 X200.593 Y170.371 E8.53214
G1 X199.531 Y170.165 E8.56812
G1 X198.814 Y169.973 E8.59281
G1 X198.063 Y169.73 E8.61906
G1 X197.34 Y169.413 E8.64532
G1 X196.926 Y169.19 E8.66096
G1 X196.176 Y168.754 E8.68981
G1 X196.141 Y168.733 E8.69117
G1 X195.485 Y168.293 E8.71744
G1 X194.863 Y167.755 E8.7448
G1 X194.281 Y168.044 E8.76641
G1 X194.207 Y168.075 E8.76908
G1 X193.211 Y168.416 E8.80409
G1 X192.494 Y168.608 E8.82878
G1 X191.721 Y168.773 E8.85507
G1 X190.937 Y168.859 E8.8813
G1 X190.476 Y168.873 E8.89664
G1 X189.689 Y168.873 E8.92282
G1 X188.9 Y168.833 E8.94909
G1 X188.12 Y168.714 E8.97534
G1 X187.676 Y168.609 E8.99051
G1 X186.961 Y168.418 E9.01513
G1 X185.96 Y168.076 E9.05031
G1 X185.886 Y168.045 E9.05298
G1 X184.999 Y167.605 E9.08591
G1 X184.355 Y167.233 E9.11065
G1 X183.692 Y166.804 E9.13691
G1 X183.075 Y166.31 E9.1632
G1 X182.735 Y165.989 E9.17875
G1 X182.21 Y165.463 E9.20347
G1 X181.525 Y164.679 E9.2381
G1 X180.93 Y163.796 E9.27351
G1 X180.558 Y163.153 E9.29822
G1 X180.198 Y162.45 E9.32449
G1 X179.911 Y161.715 E9.35073
G1 X179.776 Y161.268 E9.36626
G1 X179.574 Y160.515 E9.39219
G1 X179.478 Y160.068 E9.4074
G1 X178.336 Y159.917 E9.44571
G1 X177.996 Y160.119 E9.45887
G1 X177.542 Y160.34 E9.47566
G1 X177.242 Y160.474 E9.48659
G1 X176.163 Y160.863 E9.52474
G1 X175.795 Y160.966 E9.53745
G1 X174.776 Y161.179 E9.57207
G1 X174.398 Y161.232 E9.58477
G1 X173.868 Y161.288 E9.60249
G1 X173.629 Y161.305 E9.61046
G1 X173.247 Y161.323 E9.62318
G1 X172.847 Y161.33 E9.63649
G1 X126.923 Y161.325 E11.16393
G1 X126.403 Y161.308 E11.18123
G1 X126.164 Y161.292 E11.1892
G1 X125.585 Y161.231 E11.20856
G1 X125.227 Y161.18 E11.22059
G1 X124.543 Y161.051 E11.24374
G1 X124.343 Y161.004 E11.25057
G1 X123.573 Y160.781 E11.27724
G1 X123.244 Y160.667 E11.28882
G1 X122.512 Y160.371 E11.31508
G1 X122.094 Y160.162 E11.33062
G1 X121.816 Y160.012 E11.34113
G1 X121.661 Y159.918 E11.34716
G1 X120.532 Y160.066 E11.38503
G1 X120.426 Y160.512 E11.40028
G1 X120.235 Y161.225 E11.42483
G1 X119.88 Y162.256 E11.4611
G1 X119.849 Y162.329 E11.46373
G1 X119.422 Y163.185 E11.49555
G1 X119.049 Y163.83 E11.52033
G1 X118.62 Y164.492 E11.54657
G1 X118.126 Y165.108 E11.57283
G1 X117.818 Y165.435 E11.58777
G1 X117.295 Y165.959 E11.6124
G1 X116.589 Y166.586 E11.6438
G1 X116.524 Y166.637 E11.64655
G1 X115.61 Y167.254 E11.68323
G1 X114.966 Y167.626 E11.70796
G1 X114.264 Y167.986 E11.7342
G1 X113.528 Y168.273 E11.76048
G1 X113.066 Y168.411 E11.77652
G1 X112.35 Y168.601 E11.80115
G1 X111.399 Y168.791 E11.83341
G1 X111.318 Y168.802 E11.83613
G1 X110.268 Y168.873 E11.87113
G1 X109.524 Y168.873 E11.89588
G1 X108.735 Y168.833 E11.92215
G1 X107.955 Y168.714 E11.9484
G1 X107.514 Y168.609 E11.96347
G1 X106.811 Y168.422 E11.98767
G1 X106.798 Y168.417 E11.98813
G1 X106.078 Y168.193 E12.01321
G1 X105.351 Y167.883 E12.0395
G1 X105.132 Y167.767 E12.04774
G1 X104.77 Y168.094 E12.06397
G1 X103.801 Y168.768 E12.10322
G1 X103.077 Y169.188 E12.13106
G1 X102.375 Y169.548 E12.1573
G1 X101.639 Y169.836 E12.18359
G1 X101.173 Y169.976 E12.19977
G1 X100.455 Y170.167 E12.22448
G1 X100.454 Y170.162 E12.22465
G1 X99.812 Y170.313 E12.24659
G1 X99.029 Y170.416 E12.27286
G1 X98.412 Y170.44 E12.29339
G1 X97.669 Y170.44 E12.31811
G1 X96.632 Y170.371 E12.35267
G1 X95.57 Y170.165 E12.38865
G1 X94.853 Y169.973 E12.41334
G1 X94.102 Y169.73 E12.43959
G1 X93.379 Y169.413 E12.46585
G1 X93.235 Y169.333 E12.47133
G1 X92.877 Y169.657 E12.48739
G1 X92.241 Y170.124 E12.51363
G1 X91.843 Y170.37 E12.5292
G1 X91.201 Y170.74 E12.55384
G1 X90.32 Y171.176 E12.58654
G1 X90.246 Y171.207 E12.5892
G1 X89.259 Y171.545 E12.6239
G1 X88.542 Y171.738 E12.6486
G1 X87.77 Y171.904 E12.67486
G1 X86.986 Y171.992 E12.7011
G1 X86.515 Y172.006 E12.71678
G1 X85.728 Y172.006 E12.74295
G1 X84.939 Y171.966 E12.76923
G1 X84.159 Y171.847 E12.79547
G1 X83.71 Y171.74 E12.81082
G1 X82.956 Y171.538 E12.83678
G1 X82.204 Y171.296 E12.86306
G1 X81.481 Y170.978 E12.88933
G1 X81.337 Y170.9 E12.89478
G1 X80.98 Y171.223 E12.91079
G1 X80.344 Y171.69 E12.93703
G1 X79.945 Y171.937 E12.95264
G1 X79.301 Y172.308 E12.97736
G1 X79.297 Y172.301 E12.97763
G1 X78.834 Y172.561 E12.99529
G1 X78.109 Y172.875 E13.02157
G1 X77.37 Y173.111 E13.04737
G1 X76.653 Y173.301 E13.07204
G1 X76.652 Y173.296 E13.07221
G1 X76.017 Y173.445 E13.0939
G1 X75.234 Y173.548 E13.12017
G1 X74.617 Y173.572 E13.14071
G1 X73.874 Y173.572 E13.16542
G1 X72.837 Y173.503 E13.19999
G1 X71.785 Y173.299 E13.23563
G1 X71.068 Y173.108 E13.26031
G1 X70.316 Y172.867 E13.28657
G1 X69.593 Y172.55 E13.31283
G1 X69.173 Y172.324 E13.32869
G1 X68.531 Y171.953 E13.35336
G1 X67.619 Y171.337 E13.38996
G1 X67.554 Y171.286 E13.39271
G1 X66.854 Y170.664 E13.42385
G1 X66.329 Y170.139 E13.44855
G1 X65.799 Y169.553 E13.47483
G1 X65.332 Y168.917 E13.50107
G1 X65.088 Y168.522 E13.51651
G1 X64.717 Y167.879 E13.5412
G1 X64.723 Y167.876 E13.54143
G1 X64.461 Y167.408 E13.55927
G1 X64.147 Y166.683 E13.58554
G1 X63.911 Y165.944 E13.61135
G1 X63.721 Y165.227 E13.63602
G1 X63.73 Y165.225 E13.63632
G1 X63.517 Y164.209 E13.67085
G1 X60.772 Y143.36 E14.37027
G1 X60.705 Y142.342 E14.40421
G1 X60.705 Y141.555 E14.43038
G1 X60.745 Y140.766 E14.45666
G1 X60.864 Y139.986 E14.4829
G1 X60.971 Y139.537 E14.49825
G1 X61.162 Y138.824 E14.5228
G1 X61.517 Y137.793 E14.55907
G1 X61.548 Y137.72 E14.56171
G1 X61.97 Y136.872 E14.59321
G1 X62.342 Y136.227 E14.61798
G1 X62.771 Y135.564 E14.64424
G1 X63.264 Y134.947 E14.67051
G1 X63.584 Y134.609 E14.68599
G1 X64.108 Y134.085 E14.71064
G1 X64.808 Y133.463 E14.74179
G1 X64.873 Y133.412 E14.74453
G1 X65.782 Y132.797 E14.78104
G1 X66.425 Y132.425 E14.80574
G1 X67.128 Y132.065 E14.83201
G0 F6000 X67.31 Y132.422
G1 F1200 X68.028 Y132.145 E14.85761
G1 X68.435 Y132.024 E14.87173
G1 X69.152 Y131.834 E14.8964
G1 X70.052 Y131.654 E14.92693
G1 X70.133 Y131.643 E14.92965
G1 X71.129 Y131.576 E14.96285
G1 X71.873 Y131.576 E14.9876
G1 X72.641 Y131.616 E15.01317
G1 X73.401 Y131.735 E15.03876
G1 X73.779 Y131.826 E15.05169
G1 X74.533 Y132.027 E15.07765
G1 X75.265 Y132.263 E15.10323
G1 X75.968 Y132.574 E15.12879
G1 X76.325 Y132.767 E15.14229
G1 X77.018 Y132.16 E15.17293
G1 X77.888 Y131.572 E15.20786
G1 X78.531 Y131.201 E15.23255
G1 X79.216 Y130.852 E15.25812
G1 X79.934 Y130.576 E15.2837
G1 X80.324 Y130.46 E15.29724
G1 X81.041 Y130.269 E15.32191
G1 X81.042 Y130.274 E15.32208
G1 X81.675 Y130.126 E15.34371
G1 X82.438 Y130.029 E15.36929
G1 X82.984 Y130.009 E15.38746
G1 X83.728 Y130.009 E15.41221
G1 X84.716 Y130.075 E15.44514
G1 X85.726 Y130.272 E15.47937
G1 X86.442 Y130.464 E15.50402
G1 X87.173 Y130.701 E15.52958
G1 X87.876 Y131.013 E15.55516
G1 X88.22 Y131.2 E15.56818
G1 X88.781 Y130.694 E15.59331
G1 X89.403 Y130.241 E15.6189
G1 X89.762 Y130.021 E15.63291
G1 X90.406 Y129.651 E15.65761
G1 X90.409 Y129.657 E15.65783
G1 X90.861 Y129.405 E15.67505
