;FLAVOR:Marlin
;TIME:2146
;Filament used: 1.12986m
;Layer height: 0.2
;MINX:101.644
;MINY:112.222
;MINZ:0.2
;MAXX:198.347
;MAXY:187.775
;MAXZ:5
;Generated with Cura_SteamEngine 4.6.0
M140 S50
M105
M190 S50
M104 S200
M105
M109 S200
M82 ;absolute extrusion mode
M201 X500.00 Y500.00 Z100.00 E5000.00 ;Setup machine max acceleration
M203 X500.00 Y500.00 Z10.00 E50.00 ;Setup machine max feedrate
M204 P500.00 R1000.00 T500.00 ;Setup Print/Retract/Travel acceleration
M205 X8.00 Y8.00 Z0.40 E5.00 ;Setup Jerk
M220 S100 ;Reset Feedrate
M221 S100 ;Reset Flowrate

G28 ;Home

G92 E0 ;Reset Extruder
G1 Z2.0 F3000 ;Move Z Axis up
G1 X10.1 Y20 Z0.28 F5000.0 ;Move to start position
G1 X10.1 Y200.0 Z0.28 F1500.0 E15 ;Draw the first line
G1 X10.4 Y200.0 Z0.28 F5000.0 ;Move to side a little
G1 X10.4 Y20 Z0.28 F1500.0 E30 ;Draw the second line
G92 E0 ;Reset Extruder
G1 Z2.0 F3000 ;Move Z Axis up

G92 E0
G92 E0
G1 F2700 E-5
;LAYER_COUNT:25
;LAYER:0
M107
G0 F6000 X151.742 Y113.165 Z0.2
;TYPE:SKIRT
G1 F2700 E0
G1 F1200 X152.624 Y113.359 E0.03004
G1 X153.486 Y113.629 E0.06008
G1 X154.32 Y113.975 E0.09011
G1 X155.12 Y114.393 E0.12013
G1 X155.881 Y114.881 E0.1502
G1 X156.671 Y115.498 E0.18354
G1 X157.4 Y116.129 E0.21561
G1 X158.141 Y116.789 E0.24861
G1 X160.116 Y118.448 E0.3344
G1 X162.085 Y120.012 E0.41804
G1 X164.096 Y121.516 E0.50156
G1 X166.184 Y122.988 E0.58653
G1 X168.324 Y124.409 E0.67197
G1 X170.456 Y125.739 E0.75555
G1 X172.638 Y127.015 E0.83962
G1 X174.869 Y128.238 E0.92424
G1 X177.151 Y129.405 E1.00949
G1 X179.43 Y130.49 E1.09344
G1 X181.782 Y131.53 E1.17897
G1 X184.04 Y132.455 E1.26013
G1 X186.451 Y133.361 E1.3458
G1 X190.353 Y134.67 E1.48269
G1 X191.202 Y134.978 E1.51273
G1 X192.02 Y135.359 E1.54274
G1 X192.802 Y135.812 E1.5728
G1 X193.54 Y136.332 E1.60282
G1 X194.229 Y136.915 E1.63284
G1 X194.865 Y137.557 E1.6629
G1 X195.44 Y138.253 E1.69293
G1 X195.953 Y138.997 E1.72299
G1 X196.397 Y139.783 E1.75301
G1 X196.77 Y140.606 E1.78306
G1 X197.002 Y141.244 E1.80564
G1 X197.256 Y142.111 E1.83569
G1 X197.431 Y142.996 E1.8657
G1 X197.528 Y143.894 E1.89574
G1 X197.545 Y144.797 E1.92578
G1 X197.481 Y145.698 E1.95582
G1 X197.339 Y146.59 E1.98586
G1 X196.985 Y147.877 E2.03026
G1 X196.873 Y148.2 E2.04163
G1 X196.591 Y148.922 E2.06741
G1 X196.485 Y149.166 E2.07626
G1 X196.318 Y149.532 E2.08964
G1 X196.074 Y150.038 E2.10832
G1 X195.797 Y150.571 E2.1283
G1 X195.776 Y150.608 E2.12971
G1 X195.352 Y151.401 E2.15962
G1 X194.82 Y152.364 E2.19622
G1 X193.839 Y154.058 E2.26132
G1 X193.554 Y154.518 E2.27932
G1 X193.267 Y154.957 E2.29677
G1 X193.254 Y154.975 E2.29751
G1 X190.638 Y158.806 E2.4518
G1 X190.3 Y159.286 E2.47132
G1 X189.997 Y159.689 E2.48809
G1 X189.999 Y159.691 E2.48819
G1 X188.338 Y161.823 E2.57808
G1 X187.631 Y162.787 E2.61784
G1 X186.972 Y163.656 E2.65411
G1 X186.957 Y163.675 E2.65492
G1 X186.366 Y164.359 E2.68498
G1 X185.718 Y164.987 E2.715
G1 X185.291 Y165.345 E2.73353
G1 X184.595 Y165.896 E2.76306
G1 X182.222 Y167.724 E2.86269
G1 X181.936 Y167.94 E2.87461
G1 X181.298 Y168.399 E2.90075
G1 X181.073 Y168.551 E2.90978
G1 X180.64 Y168.833 E2.92696
G1 X179.239 Y169.714 E2.98201
G1 X178.521 Y170.125 E3.00953
G1 X177.785 Y170.508 E3.03712
G1 X176.84 Y170.981 E3.07227
G1 X176.837 Y170.983 E3.07239
G1 X176.631 Y171.089 E3.08009
G1 X174.994 Y171.908 E3.14098
G1 X172.749 Y173.113 E3.22572
G1 X170.541 Y174.379 E3.31037
G1 X168.373 Y175.705 E3.3949
G1 X166.268 Y177.076 E3.47845
G1 X164.153 Y178.54 E3.56401
G1 X162.107 Y180.042 E3.64843
G1 X160.137 Y181.579 E3.73153
G1 X158.136 Y183.231 E3.81784
G1 X156.806 Y184.388 E3.87647
G1 X155.769 Y185.18 E3.91987
G1 X155.646 Y185.262 E3.92478
G1 X154.873 Y185.729 E3.95482
G1 X154.062 Y186.126 E3.98485
G1 X153.219 Y186.45 E4.01489
G1 X152.35 Y186.698 E4.04495
G1 X151.463 Y186.868 E4.07499
G1 X150.565 Y186.959 E4.10501
G1 X149.662 Y186.97 E4.13504
G1 X148.761 Y186.901 E4.1651
G1 X147.871 Y186.753 E4.19511
G1 X146.996 Y186.526 E4.22517
G1 X146.145 Y186.224 E4.25521
G1 X145.325 Y185.847 E4.28522
G1 X144.541 Y185.399 E4.31526
G1 X143.799 Y184.883 E4.34532
G1 X143.296 Y184.473 E4.3669
G1 X142.606 Y183.873 E4.39731
G1 X140.62 Y182.195 E4.48379
G1 X138.645 Y180.621 E4.56779
G1 X136.635 Y179.11 E4.65142
G1 X134.54 Y177.626 E4.73681
G1 X132.417 Y176.21 E4.82169
G1 X130.279 Y174.87 E4.90561
G1 X128.099 Y173.588 E4.98973
G1 X125.888 Y172.37 E5.07369
G1 X123.324 Y171.071 E5.16929
G1 X123.203 Y171.003 E5.1739
G1 X122.148 Y170.472 E5.21319
G1 X121.517 Y170.146 E5.23681
G1 X121.007 Y169.864 E5.25619
G1 X120.322 Y169.446 E5.28288
G1 X119.108 Y168.669 E5.33082
G1 X118.389 Y168.179 E5.35976
G1 X118.201 Y168.041 E5.36752
G1 X117.68 Y167.65 E5.38918
G1 X115.251 Y165.776 E5.49122
G1 X114.714 Y165.35 E5.51402
G1 X113.841 Y164.571 E5.55293
G1 X113.833 Y164.563 E5.55331
G1 X113.223 Y163.897 E5.58335
G1 X112.894 Y163.483 E5.60094
G1 X112.15 Y162.492 E5.64215
G1 X111.891 Y162.138 E5.65674
G1 X110.697 Y160.611 E5.72121
G1 X110.216 Y159.983 E5.74752
G1 X110.011 Y159.705 E5.75901
G1 X109.124 Y158.458 E5.80991
G1 X106.924 Y155.235 E5.9397
G1 X106.366 Y154.384 E5.97355
G1 X105.974 Y153.752 E5.99828
G1 X105.777 Y153.42 E6.01112
G1 X105.181 Y152.372 E6.05122
G1 X104.481 Y151.1 E6.09951
G1 X104.064 Y150.317 E6.12902
G1 X103.888 Y149.971 E6.14193
G1 X103.714 Y149.612 E6.1552
G1 X103.493 Y149.122 E6.17308
G1 X103.33 Y148.735 E6.18704
G1 X103.169 Y148.331 E6.20151
G1 X103.082 Y148.097 E6.20981
G1 X102.805 Y147.237 E6.23986
G1 X102.606 Y146.356 E6.2699
G1 X102.485 Y145.461 E6.29994
G1 X102.443 Y144.559 E6.32997
G1 X102.481 Y143.657 E6.36
G1 X102.6 Y142.762 E6.39003
G1 X102.796 Y141.88 E6.42008
G1 X103.07 Y141.02 E6.4501
G1 X103.307 Y140.43 E6.47125
G1 X103.695 Y139.614 E6.5013
G1 X104.154 Y138.836 E6.53135
G1 X104.68 Y138.102 E6.56138
G1 X105.268 Y137.417 E6.59141
G1 X105.915 Y136.787 E6.62144
G1 X106.615 Y136.216 E6.65149
G1 X107.363 Y135.71 E6.68152
G1 X108.152 Y135.271 E6.71155
G1 X108.977 Y134.905 E6.74157
G1 X109.584 Y134.701 E6.76287
G1 X109.581 Y134.691 E6.76322
G1 X112.147 Y133.855 E6.85298
G1 X114.52 Y133.007 E6.93679
G1 X116.898 Y132.08 E7.02168
G1 X119.231 Y131.094 E7.10592
G1 X121.537 Y130.041 E7.19024
G1 X123.818 Y128.922 E7.27474
G1 X126.083 Y127.729 E7.35989
G1 X128.282 Y126.49 E7.44384
G1 X130.447 Y125.189 E7.52785
G1 X132.594 Y123.814 E7.61265
G1 X134.7 Y122.38 E7.69739
G1 X136.752 Y120.896 E7.78162
G1 X138.757 Y119.357 E7.86568
G1 X140.732 Y117.752 E7.95033
G1 X143.32 Y115.509 E8.06424
G1 X144.028 Y114.948 E8.09428
G1 X144.783 Y114.452 E8.12433
G1 X145.579 Y114.025 E8.15437
G1 X146.409 Y113.67 E8.18439
G1 X147.267 Y113.389 E8.21442
G1 X148.147 Y113.186 E8.24446
G1 X149.042 Y113.061 E8.27452
G1 X149.944 Y113.016 E8.30456
G1 X150.846 Y113.051 E8.33458
G1 X151.742 Y113.165 E8.36462
G0 F6000 X151.634 Y112.742
G1 F1200 X152.536 Y112.923 E8.39522
G1 X153.42 Y113.182 E8.42586
G1 X154.278 Y113.517 E8.45649
G1 X155.103 Y113.924 E8.48709
G1 X155.89 Y114.402 E8.51771
G1 X156.932 Y115.195 E8.56127
G1 X157.666 Y115.831 E8.59357
G1 X158.399 Y116.483 E8.6262
G1 X160.337 Y118.113 E8.71042
G1 X162.328 Y119.693 E8.79496
G1 X164.344 Y121.201 E8.8787
G1 X166.414 Y122.661 E8.96295
G1 X168.526 Y124.063 E9.04726
G1 X170.69 Y125.413 E9.13209
G1 X172.826 Y126.662 E9.21439
G1 X175.065 Y127.889 E9.29931
G1 X177.327 Y129.045 E9.3838
G1 X179.614 Y130.135 E9.46806
G1 X181.886 Y131.139 E9.55068
G1 X184.226 Y132.098 E9.63479
G1 X186.576 Y132.981 E9.71829
G1 X190.472 Y134.288 E9.85497
G1 X191.338 Y134.601 E9.88559
G1 X192.173 Y134.988 E9.9162
G1 X192.972 Y135.446 E9.94684
G1 X193.728 Y135.972 E9.97747
G1 X194.435 Y136.561 E10.00807
G1 X195.089 Y137.21 E10.03872
G1 X195.684 Y137.912 E10.06933
G1 X196.215 Y138.664 E10.09994
G1 X196.679 Y139.459 E10.13056
G1 X197.073 Y140.291 E10.16118
G1 X197.381 Y141.115 E10.19044
G1 X197.64 Y141.998 E10.22104
G1 X197.821 Y142.901 E10.25167
G1 X197.924 Y143.816 E10.2823
G1 X197.946 Y144.736 E10.31291
G1 X197.889 Y145.655 E10.34353
G1 X197.752 Y146.565 E10.37414
G1 X197.536 Y147.46 E10.40476
G1 X197.363 Y148.008 E10.42388
G1 X197.251 Y148.331 E10.43525
G1 X196.958 Y149.082 E10.46206
G1 X196.852 Y149.326 E10.47091
G1 X196.678 Y149.706 E10.48481
G1 X196.434 Y150.212 E10.50349
G1 X195.703 Y151.594 E10.55549
G1 X195.167 Y152.563 E10.59232
G1 X194.179 Y154.269 E10.65789
G1 X193.894 Y154.729 E10.67589
G1 X193.598 Y155.181 E10.69386
G1 X190.965 Y159.036 E10.84913
G1 X190.627 Y159.516 E10.86866
G1 X190.312 Y159.935 E10.88609
G1 X190.314 Y159.937 E10.88619
G1 X188.677 Y162.039 E10.9748
G1 X187.95 Y163.028 E11.01563
G1 X187.286 Y163.904 E11.05219
G1 X187.271 Y163.923 E11.05299
G1 X186.669 Y164.62 E11.08362
G1 X186.01 Y165.263 E11.11425
G1 X185.54 Y165.659 E11.13469
G1 X184.839 Y166.213 E11.1644
G1 X182.466 Y168.041 E11.26403
G1 X182.172 Y168.263 E11.27629
G1 X181.526 Y168.728 E11.30276
G1 X181.292 Y168.886 E11.31215
G1 X180.855 Y169.171 E11.3295
G1 X179.452 Y170.052 E11.3846
G1 X178.706 Y170.48 E11.41321
G1 X177.964 Y170.865 E11.44101
G1 X177.046 Y171.325 E11.47517
G1 X176.81 Y171.447 E11.484
G1 X175.155 Y172.275 E11.54555
G1 X172.958 Y173.454 E11.62848
G1 X170.743 Y174.724 E11.7134
G1 X168.603 Y176.033 E11.79684
G1 X166.467 Y177.424 E11.88162
G1 X164.413 Y178.847 E11.96473
G1 X162.345 Y180.365 E12.05005
G1 X160.352 Y181.918 E12.13409
G1 X158.431 Y183.505 E12.21696
G1 X157.069 Y184.69 E12.27701
G1 X155.991 Y185.513 E12.32212
G1 X155.868 Y185.595 E12.32704
G1 X155.08 Y186.072 E12.35767
G1 X154.254 Y186.478 E12.38829
G1 X153.396 Y186.812 E12.41891
G1 X152.513 Y187.07 E12.4495
G1 X151.61 Y187.25 E12.48013
G1 X150.695 Y187.351 E12.51075
G1 X149.774 Y187.373 E12.54139
G1 X148.855 Y187.314 E12.57202
G1 X147.945 Y187.176 E12.60263
G1 X147.05 Y186.96 E12.63325
G1 X146.178 Y186.666 E12.66386
G1 X145.334 Y186.299 E12.69447
G1 X144.525 Y185.859 E12.7251
G1 X143.757 Y185.35 E12.75574
G1 X143.034 Y184.775 E12.78647
G1 X142.369 Y184.197 E12.81577
G1 X140.375 Y182.512 E12.9026
G1 X138.401 Y180.939 E12.98656
G1 X136.368 Y179.411 E13.07114
G1 X134.309 Y177.952 E13.15508
G1 X132.213 Y176.554 E13.23887
G1 X130.07 Y175.211 E13.32299
G1 X127.913 Y173.943 E13.40621
G1 X125.704 Y172.725 E13.49011
G1 X123.143 Y171.428 E13.58559
G1 X123.004 Y171.35 E13.59089
G1 X121.965 Y170.827 E13.62958
G1 X121.334 Y170.501 E13.6532
G1 X120.804 Y170.208 E13.67334
G1 X120.107 Y169.783 E13.7005
G1 X118.886 Y169.001 E13.74872
G1 X118.157 Y168.505 E13.77805
G1 X117.436 Y167.966 E13.80799
G1 X115.002 Y166.089 E13.91022
G1 X114.465 Y165.663 E13.93302
G1 X113.558 Y164.854 E13.97344
G1 X113.55 Y164.846 E13.97382
G1 X112.928 Y164.168 E14.00442
G1 X112.574 Y163.723 E14.02333
G1 X111.827 Y162.729 E14.06469
G1 X111.566 Y162.372 E14.0794
G1 X110.38 Y160.854 E14.14347
G1 X109.899 Y160.226 E14.16978
G1 X109.685 Y159.938 E14.18171
G1 X108.793 Y158.684 E14.2329
G1 X106.59 Y155.455 E14.36291
G1 X106.026 Y154.595 E14.39711
G1 X105.634 Y153.963 E14.42185
G1 X105.429 Y153.618 E14.4352
G1 X104.831 Y152.565 E14.47547
G1 X104.128 Y151.288 E14.52396
G1 X103.711 Y150.505 E14.55346
G1 X103.528 Y150.145 E14.56689
G1 X103.354 Y149.786 E14.58016
G1 X103.124 Y149.278 E14.59871
G1 X102.961 Y148.891 E14.61268
G1 X102.794 Y148.47 E14.62774
G1 X102.707 Y148.236 E14.63604
G1 X102.424 Y147.36 E14.66666
G1 X102.218 Y146.463 E14.69727
G1 X102.091 Y145.551 E14.7279
G1 X102.043 Y144.631 E14.75854
G1 X102.076 Y143.711 E14.78916
G1 X102.188 Y142.797 E14.81979
G1 X102.378 Y141.897 E14.85038
G1 X102.647 Y141.016 E14.88102
G1 X102.939 Y140.274 E14.90754
G1 X103.334 Y139.443 E14.93814
G1 X103.799 Y138.648 E14.96878
G1 X104.332 Y137.897 E14.99941
G1 X104.928 Y137.196 E15.03001
G1 X105.582 Y136.548 E15.06063
G1 X106.29 Y135.96 E15.09124
G1 X107.047 Y135.435 E15.12188
G1 X107.846 Y134.978 E15.1525
G1 X108.682 Y134.592 E15.18312
G1 X109.462 Y134.323 E15.21056
G1 X109.458 Y134.311 E15.21098
G1 X111.983 Y133.488 E15.29931
G1 X114.388 Y132.629 E15.38425
G1 X116.733 Y131.715 E15.46796
G1 X119.074 Y130.726 E15.55249
G1 X121.387 Y129.67 E15.63706
G1 X123.634 Y128.567 E15.72031
G1 X125.865 Y127.392 E15.80418
G1 X128.101 Y126.133 E15.88953
G1 X130.247 Y124.842 E15.97282
G1 X132.359 Y123.49 E16.05623
G1 X134.486 Y122.041 E16.14183
G1 X136.503 Y120.583 E16.22461
G1 X138.524 Y119.032 E16.30934
G1 X140.468 Y117.452 E16.39266
G1 X143.058 Y115.207 E16.50666
G1 X143.779 Y114.635 E16.53727
G1 X144.548 Y114.127 E16.56792
G1 X145.357 Y113.688 E16.59854
G1 X146.201 Y113.321 E16.62915
G1 X147.074 Y113.028 E16.65978
G1 X147.969 Y112.813 E16.69039
G1 X148.879 Y112.676 E16.721
G1 X149.798 Y112.618 E16.75163
G1 X150.719 Y112.64 E16.78227
G1 X151.634 Y112.742 E16.81289
G0 F6000 X151.522 Y112.321
G1 F1200 X152.444 Y112.491 E16.84407
G1 X153.349 Y112.738 E16.87527
G1 X154.229 Y113.061 E16.90645
G1 X155.079 Y113.458 E16.93765
G1 X155.892 Y113.926 E16.96885
G1 X156.662 Y114.461 E17.00004
G1 X157.194 Y114.893 E17.02283
G1 X157.932 Y115.532 E17.0553
G1 X158.676 Y116.194 E17.08843
G1 X160.598 Y117.809 E17.17192
G1 X162.554 Y119.362 E17.25499
G1 X164.585 Y120.882 E17.33937
G1 X166.643 Y122.333 E17.42312
G1 X168.738 Y123.724 E17.50676
G1 X170.872 Y125.055 E17.59041
G1 X173.041 Y126.324 E17.67399
G1 X175.26 Y127.539 E17.75813
G1 X177.502 Y128.686 E17.8419
G1 X179.769 Y129.766 E17.92542
G1 X182.063 Y130.78 E18.00884
G1 X184.34 Y131.713 E18.09068
G1 X186.736 Y132.613 E18.17581
G1 X190.38 Y133.84 E18.30369
G1 X190.592 Y133.906 E18.31108
G1 X191.474 Y134.225 E18.34227
G1 X192.326 Y134.617 E18.37347
G1 X193.141 Y135.08 E18.40464
G1 X193.914 Y135.612 E18.43585
G1 X194.639 Y136.207 E18.46705
G1 X195.311 Y136.861 E18.49824
G1 X195.924 Y137.571 E18.52943
G1 X196.475 Y138.33 E18.56063
G1 X196.959 Y139.133 E18.59181
G1 X197.372 Y139.975 E18.62301
G1 X197.715 Y140.854 E18.65439
G1 X197.76 Y140.986 E18.65903
G1 X198.024 Y141.885 E18.69019
G1 X198.211 Y142.804 E18.72138
G1 X198.319 Y143.736 E18.75259
G1 X198.347 Y144.674 E18.7838
G1 X198.295 Y145.61 E18.81498
G1 X198.164 Y146.539 E18.84619
G1 X197.954 Y147.453 E18.87738
G1 X197.741 Y148.139 E18.90127
G1 X197.629 Y148.462 E18.91264
G1 X197.325 Y149.241 E18.94045
G1 X197.219 Y149.485 E18.9493
G1 X197.038 Y149.88 E18.96375
G1 X196.794 Y150.386 E18.98244
G1 X196.053 Y151.787 E19.03515
G1 X195.514 Y152.763 E19.07223
G1 X194.701 Y154.175 E19.12642
G1 X194.519 Y154.479 E19.13821
G1 X194.234 Y154.939 E19.15621
G1 X193.928 Y155.406 E19.17478
G1 X193.915 Y155.426 E19.17557
G1 X191.292 Y159.266 E19.33024
G1 X190.954 Y159.746 E19.34977
G1 X190.628 Y160.181 E19.36785
G1 X190.63 Y160.183 E19.36794
G1 X188.987 Y162.292 E19.45686
G1 X188.269 Y163.269 E19.49719
G1 X187.6 Y164.152 E19.53403
G1 X187.585 Y164.171 E19.53484
G1 X186.973 Y164.882 E19.56604
G1 X186.302 Y165.538 E19.59725
G1 X185.788 Y165.972 E19.61963
G1 X185.083 Y166.53 E19.64953
G1 X182.71 Y168.358 E19.74916
G1 X182.409 Y168.585 E19.7617
G1 X181.754 Y169.057 E19.78855
G1 X181.511 Y169.221 E19.7983
G1 X181.07 Y169.508 E19.8158
G1 X179.665 Y170.391 E19.87099
G1 X178.891 Y170.835 E19.90067
G1 X178.143 Y171.223 E19.9287
G1 X177.233 Y171.679 E19.96255
G1 X176.989 Y171.804 E19.97167
G1 X175.372 Y172.613 E20.03181
G1 X173.139 Y173.811 E20.11609
G1 X170.945 Y175.069 E20.20021
G1 X168.825 Y176.366 E20.28287
G1 X166.692 Y177.755 E20.36753
G1 X164.614 Y179.194 E20.4516
G1 X162.598 Y180.674 E20.53478
G1 X160.63 Y182.209 E20.61779
G1 X158.665 Y183.831 E20.70254
G1 X157.331 Y184.992 E20.76136
G1 X156.598 Y185.577 E20.79255
G1 X156.09 Y185.928 E20.81309
G1 X155.288 Y186.414 E20.84428
G1 X154.448 Y186.83 E20.87545
G1 X153.575 Y187.174 E20.90666
G1 X152.676 Y187.442 E20.93786
G1 X151.758 Y187.632 E20.96904
G1 X150.826 Y187.743 E21.00026
G1 X149.889 Y187.775 E21.03144
G1 X148.952 Y187.726 E21.06265
G1 X148.023 Y187.598 E21.09384
G1 X147.108 Y187.391 E21.12504
G1 X146.215 Y187.108 E21.1562
G1 X145.348 Y186.749 E21.18741
G1 X144.515 Y186.317 E21.21862
G1 X143.722 Y185.816 E21.24982
G1 X142.771 Y185.077 E21.28988
G1 X142.044 Y184.445 E21.32192
G1 X140.134 Y182.832 E21.40507
G1 X138.157 Y181.256 E21.48916
G1 X136.143 Y179.742 E21.57296
G1 X134.078 Y178.279 E21.65713
G1 X132 Y176.893 E21.74021
G1 X129.86 Y175.552 E21.82421
G1 X127.696 Y174.28 E21.9077
G1 X125.509 Y173.074 E21.99076
