;FLAVOR:Marlin
;TIME:5926
;Filament used: 3.72017m
;Layer height: 0.2
;MINX:113.95
;MINY:126.2
;MINZ:0.2
;MAXX:186.05
;MAXY:173.8
;MAXZ:25
;Generated with Cura_SteamEngine 4.6.0
M140 S50
M105
M190 S50
M104 S200
M105
M109 S200
M82 ;absolute extrusion mode
M201 X500.00 Y500.00 Z100.00 E5000.00 ;Setup machine max acceleration
M203 X500.00 Y500.00 Z10.00 E50.00 ;Setup machine max feedrate
M204 P500.00 R1000.00 T500.00 ;Setup Print/Retract/Travel acceleration
M205 X8.00 Y8.00 Z0.40 E5.00 ;Setup Jerk
M220 S100 ;Reset Feedrate
M221 S100 ;Reset Flowrate

G28 ;Home

G92 E0 ;Reset Extruder
G1 Z2.0 F3000 ;Move Z Axis up
G1 X10.1 Y20 Z0.28 F5000.0 ;Move to start position
G1 X10.1 Y200.0 Z0.28 F1500.0 E15 ;Draw the first line
G1 X10.4 Y200.0 Z0.28 F5000.0 ;Move to side a little
G1 X10.4 Y20 Z0.28 F1500.0 E30 ;Draw the second line
G92 E0 ;Reset Extruder
G1 Z2.0 F3000 ;Move Z Axis up

G92 E0
G92 E0
G1 F2700 E-5
;LAYER_COUNT:125
;LAYER:0
M107
G0 F6000 X116.373 Y134.349 Z0.2
;TYPE:SKIRT
G1 F2700 E0
G1 F1200 X116.972 Y133.834 E0.02627
G1 X117.62 Y133.383 E0.05253
G1 X118.18 Y133.069 E0.07389
G1 X118.179 Y133.066 E0.07399
G1 X121.651 Y131.269 E0.20402
G1 X121.937 Y131.128 E0.21463
G1 X121.952 Y131.121 E0.21518
G1 X122.279 Y130.977 E0.22706
G1 X125.89 Y129.489 E0.35696
G1 X126.528 Y129.259 E0.37952
G1 X130.274 Y128.084 E0.5101
G1 X130.598 Y127.989 E0.52133
G1 X130.613 Y127.985 E0.52184
G1 X130.942 Y127.905 E0.5331
G1 X134.757 Y127.063 E0.66304
G1 X135.441 Y126.947 E0.68612
G1 X135.441 Y126.944 E0.68622
G1 X139.316 Y126.436 E0.81621
G1 X139.995 Y126.377 E0.83887
G1 X143.898 Y126.209 E0.96881
G1 X143.898 Y126.22 E0.96917
G1 X144.251 Y126.2 E0.98093
G1 X173.249 Y126.2 E1.94541
G1 X174.117 Y126.248 E1.97433
G1 X175.225 Y126.372 E2.01141
G1 X176.004 Y126.5 E2.03766
G1 X176.929 Y126.76 E2.06962
G1 X177.991 Y127.131 E2.10704
G1 X178.723 Y127.429 E2.13332
G1 X179.571 Y127.892 E2.16546
G1 X180.514 Y128.485 E2.20251
G1 X180.509 Y128.493 E2.20282
G1 X180.904 Y128.746 E2.21843
G1 X181.522 Y129.237 E2.24468
G1 X181.884 Y129.577 E2.2612
G1 X182.673 Y130.366 E2.29831
G1 X183.203 Y130.952 E2.32459
G1 X183.762 Y131.73 E2.35645
G1 X184.356 Y132.675 E2.39357
G1 X184.349 Y132.679 E2.39384
G1 X184.648 Y133.181 E2.41328
G1 X185.115 Y134.249 E2.45205
G1 X185.484 Y135.302 E2.48916
G1 X185.478 Y135.304 E2.48937
G1 X185.669 Y135.904 E2.51031
G1 X185.881 Y137.057 E2.5493
G1 X186.005 Y138.211 E2.58791
G1 X186.05 Y139.044 E2.61565
G1 X186.05 Y165.601 E3.49894
G1 X186.01 Y166.39 E3.52522
G1 X185.842 Y167.39 E3.55894
G1 X185.801 Y167.564 E3.56489
G1 X185.581 Y168.322 E3.59114
G1 X185.286 Y169.055 E3.61742
G1 X184.918 Y169.754 E3.64369
G1 X184.279 Y170.674 E3.68095
G1 X184.166 Y170.814 E3.68693
G1 X183.639 Y171.403 E3.71322
G1 X183.056 Y171.935 E3.73947
G1 X182.422 Y172.406 E3.76574
G1 X181.441 Y172.961 E3.80323
G1 X181.283 Y173.036 E3.80905
G1 X180.553 Y173.339 E3.83533
G1 X179.797 Y173.565 E3.86158
G1 X178.809 Y173.741 E3.89496
G1 X178.72 Y173.751 E3.89794
G1 X177.849 Y173.8 E3.92695
G1 X122.151 Y173.8 E5.77947
G1 X121.362 Y173.76 E5.80575
G1 X120.36 Y173.592 E5.83954
G1 X120.182 Y173.55 E5.84562
G1 X119.423 Y173.33 E5.87191
G1 X118.691 Y173.034 E5.89817
G1 X117.992 Y172.666 E5.92444
G1 X117.058 Y172.014 E5.96233
G1 X116.92 Y171.902 E5.96824
G1 X116.333 Y171.374 E5.9945
G1 X115.802 Y170.79 E6.02075
G1 X115.333 Y170.154 E6.04704
G1 X114.772 Y169.157 E6.08509
G1 X114.697 Y168.997 E6.09096
G1 X114.399 Y168.266 E6.11722
G1 X114.176 Y167.508 E6.1435
G1 X114.013 Y166.597 E6.17428
G1 X114.003 Y166.512 E6.17713
G1 X113.95 Y165.601 E6.20748
G1 X113.95 Y140 E7.05897
G1 X113.99 Y139.211 E7.08525
G1 X114.109 Y138.431 E7.11149
G1 X114.307 Y137.666 E7.13777
G1 X114.581 Y136.926 E7.16402
G1 X114.929 Y136.217 E7.19029
G1 X115.347 Y135.546 E7.21658
G1 X115.83 Y134.922 E7.24282
G1 X116.373 Y134.349 E7.26908
G0 F6000 X116.766 Y134.53
G1 F1200 X117.361 Y134.042 E7.29468
G1 X118.003 Y133.619 E7.32025
G1 X118.364 Y133.423 E7.33391
G1 X118.363 Y133.421 E7.33398
G1 X121.835 Y131.624 E7.46401
G1 X122.107 Y131.49 E7.4741
G1 X122.122 Y131.483 E7.47465
G1 X122.432 Y131.347 E7.48591
G1 X126.043 Y129.859 E7.61581
G1 X126.647 Y129.64 E7.63718
G1 X130.393 Y128.465 E7.76775
G1 X130.701 Y128.376 E7.77842
G1 X130.716 Y128.372 E7.77893
G1 X131.028 Y128.296 E7.78961
G1 X134.843 Y127.454 E7.91956
G1 X135.493 Y127.344 E7.94148
G1 X135.493 Y127.341 E7.94158
G1 X139.368 Y126.833 E8.07157
G1 X140.012 Y126.777 E8.09307
G1 X143.915 Y126.609 E8.223
G1 X143.915 Y126.618 E8.2233
G1 X144.251 Y126.6 E8.23449
G1 X173.249 Y126.6 E9.19897
G1 X174.072 Y126.646 E9.22639
G1 X175.18 Y126.77 E9.26347
G1 X175.939 Y126.895 E9.28905
G1 X176.797 Y127.138 E9.31871
G1 X177.859 Y127.509 E9.35613
G1 X178.571 Y127.8 E9.38171
G1 X179.358 Y128.231 E9.41156
G1 X180.301 Y128.824 E9.44861
G1 X180.296 Y128.832 E9.44892
G1 X180.688 Y129.083 E9.4644
G1 X181.288 Y129.564 E9.48998
G1 X181.602 Y129.859 E9.50431
G1 X182.391 Y130.648 E9.54142
G1 X182.905 Y131.22 E9.567
G1 X183.423 Y131.943 E9.59658
G1 X184.017 Y132.888 E9.6337
G1 X184.011 Y132.892 E9.63394
G1 X184.304 Y133.386 E9.65305
G1 X184.738 Y134.382 E9.68918
G1 X185.107 Y135.435 E9.72629
G1 X185.101 Y135.437 E9.7265
G1 X185.287 Y136.025 E9.74702
G1 X185.484 Y137.099 E9.78333
G1 X185.608 Y138.253 E9.82194
G1 X185.65 Y139.044 E9.84828
G1 X185.65 Y165.601 E10.73157
G1 X185.61 Y166.369 E10.75715
G1 X185.453 Y167.298 E10.78849
G1 X185.412 Y167.472 E10.79443
G1 X185.197 Y168.211 E10.82003
G1 X184.906 Y168.923 E10.84561
G1 X184.543 Y169.601 E10.87119
G1 X183.967 Y170.423 E10.90458
G1 X183.854 Y170.563 E10.91056
G1 X183.341 Y171.135 E10.93612
G1 X182.771 Y171.652 E10.96171
G1 X182.15 Y172.106 E10.9873
G1 X181.269 Y172.6 E11.02089
G1 X181.111 Y172.675 E11.02671
G1 X180.4 Y172.968 E11.05228
G1 X179.663 Y173.186 E11.07785
G1 X178.764 Y173.344 E11.10821
G1 X178.675 Y173.354 E11.11119
G1 X177.849 Y173.4 E11.1387
G1 X122.151 Y173.4 E12.99122
G1 X121.383 Y173.36 E13.0168
G1 X120.452 Y173.202 E13.04821
G1 X120.274 Y173.16 E13.05429
G1 X119.535 Y172.945 E13.07989
G1 X118.823 Y172.654 E13.10547
G1 X118.145 Y172.291 E13.13105
G1 X117.31 Y171.704 E13.165
G1 X117.172 Y171.592 E13.17091
G1 X116.601 Y171.077 E13.19649
G1 X116.086 Y170.505 E13.22209
G1 X115.633 Y169.883 E13.24768
G1 X115.135 Y168.987 E13.28178
G1 X115.06 Y168.827 E13.28765
G1 X114.77 Y168.114 E13.31325
G1 X114.555 Y167.376 E13.33882
G1 X114.401 Y166.466 E13.36952
G1 X114.35 Y165.601 E13.39834
G1 X114.35 Y140 E14.24983
G1 X114.39 Y139.232 E14.27541
G1 X114.509 Y138.472 E14.30099
G1 X114.707 Y137.729 E14.32657
G1 X114.981 Y137.01 E14.35216
G1 X115.328 Y136.324 E14.37773
G1 X115.744 Y135.677 E14.40331
G1 X116.225 Y135.077 E14.42889
G1 X116.766 Y134.53 E14.45448
G0 F6000 X117.158 Y134.716
G1 F1200 X117.748 Y134.257 E14.47934
G1 X118.549 Y133.781 E14.51033
G1 X118.546 Y133.776 E14.51053
G1 X122.018 Y131.979 E14.64055
G1 X122.276 Y131.853 E14.6501
G1 X122.291 Y131.846 E14.65066
G1 X122.584 Y131.717 E14.6613
G1 X126.195 Y130.229 E14.7912
G1 X126.767 Y130.022 E14.81144
G1 X130.513 Y128.847 E14.94201
G1 X130.804 Y128.762 E14.9521
G1 X130.819 Y128.758 E14.95261
G1 X131.114 Y128.687 E14.9627
G1 X134.929 Y127.845 E15.09265
G1 X135.545 Y127.741 E15.11342
G1 X135.545 Y127.737 E15.11356
G1 X139.42 Y127.229 E15.24354
G1 X140.029 Y127.176 E15.26387
G1 X143.932 Y127.008 E15.39381
G1 X143.932 Y127.018 E15.39414
G1 X144.251 Y127 E15.40477
G1 X173.249 Y127 E16.36925
G1 X174.028 Y127.043 E16.3952
G1 X175.136 Y127.167 E16.43228
G1 X175.873 Y127.29 E16.45713
G1 X176.666 Y127.516 E16.48455
G1 X177.728 Y127.887 E16.52197
G1 X178.42 Y128.171 E16.54685
G1 X179.145 Y128.569 E16.57436
G1 X180.088 Y129.162 E16.61141
G1 X180.083 Y129.17 E16.61172
G1 X180.471 Y129.42 E16.62707
G1 X181.319 Y130.142 E16.66412
G1 X182.108 Y130.931 E16.70123
G1 X182.608 Y131.488 E16.72612
G1 X183.084 Y132.156 E16.7534
G1 X183.678 Y133.101 E16.79053
G1 X183.672 Y133.105 E16.79077
G1 X183.959 Y133.59 E16.80951
G1 X184.36 Y134.514 E16.84301
G1 X184.729 Y135.567 E16.88013
G1 X184.723 Y135.569 E16.88034
G1 X184.905 Y136.146 E16.90046
G1 X185.086 Y137.142 E16.93413
G1 X185.21 Y138.296 E16.97273
G1 X185.25 Y139.044 E16.99765
G1 X185.25 Y165.601 E17.88094
G1 X185.21 Y166.348 E17.90582
G1 X185.063 Y167.206 E17.93477
G1 X185.022 Y167.38 E17.94071
G1 X184.812 Y168.098 E17.9656
G1 X184.527 Y168.79 E17.99049
G1 X184.169 Y169.447 E18.01537
G1 X183.656 Y170.172 E18.04491
G1 X183.543 Y170.312 E18.0509
G1 X183.043 Y170.868 E18.07577
G1 X182.486 Y171.367 E18.10064
G1 X181.879 Y171.805 E18.12554
G1 X181.098 Y172.239 E18.15525
G1 X180.94 Y172.314 E18.16107
G1 X180.248 Y172.598 E18.18595
G1 X179.529 Y172.807 E18.21085
G1 X178.72 Y172.946 E18.23816
G1 X178.631 Y172.956 E18.24113
G1 X177.849 Y173 E18.26718
G1 X122.151 Y173 E20.11971
G1 X121.404 Y172.96 E20.14459
G1 X120.543 Y172.813 E20.17364
G1 X120.365 Y172.771 E20.17972
G1 X119.648 Y172.56 E20.20458
G1 X118.956 Y172.275 E20.22947
G1 X118.299 Y171.917 E20.25436
G1 X117.562 Y171.393 E20.28444
G1 X117.424 Y171.281 E20.29035
G1 X116.869 Y170.779 E20.31524
G1 X116.371 Y170.221 E20.34011
G1 X115.935 Y169.613 E20.365
G1 X115.497 Y168.817 E20.39522
G1 X115.422 Y168.657 E20.40109
G1 X115.141 Y167.964 E20.42596
G1 X114.936 Y167.244 E20.45086
G1 X114.798 Y166.419 E20.47868
G1 X114.75 Y165.601 E20.50594
G1 X114.75 Y140 E21.35743
G1 X114.79 Y139.253 E21.38231
G1 X114.909 Y138.515 E21.40717
G1 X115.107 Y137.793 E21.43208
G1 X115.38 Y137.097 E21.45694
G1 X115.727 Y136.434 E21.48183
G1 X116.142 Y135.811 E21.50673
G1 X116.621 Y135.237 E21.53159
G1 X117.158 Y134.716 E21.55648
G0 F6000 X117.015 Y135.402
G1 F1200 X117.549 Y134.909 E21.58065
G1 X118.134 Y134.479 E21.6048
G1 X118.732 Y134.135 E21.62775
G1 X118.73 Y134.132 E21.62787
G1 X122.202 Y132.335 E21.75789
G1 X122.445 Y132.215 E21.76691
G1 X122.46 Y132.208 E21.76746
G1 X122.736 Y132.087 E21.77748
G1 X126.347 Y130.599 E21.90738
G1 X126.887 Y130.404 E21.92648
G1 X130.633 Y129.229 E22.05706
G1 X130.907 Y129.149 E22.06655
G1 X130.922 Y129.145 E22.06707
G1 X131.201 Y129.077 E22.07662
G1 X135.016 Y128.235 E22.20656
G1 X135.597 Y128.137 E22.22616
G1 X135.597 Y128.134 E22.22626
G1 X139.472 Y127.626 E22.35624
G1 X140.046 Y127.576 E22.3754
G1 X143.949 Y127.408 E22.50534
G1 X143.949 Y127.417 E22.50564
G1 X144.251 Y127.4 E22.5157
G1 X173.249 Y127.4 E23.48018
G1 X173.983 Y127.441 E23.50463
G1 X175.091 Y127.565 E23.54171
G1 X175.807 Y127.685 E23.56586
G1 X176.534 Y127.893 E23.59101
G1 X177.596 Y128.264 E23.62842
G1 X178.267 Y128.541 E23.65257
G1 X178.932 Y128.908 E23.67783
G1 X179.875 Y129.501 E23.71488
G1 X179.87 Y129.508 E23.71517
G1 X180.253 Y129.756 E23.73034
G1 X181.036 Y130.425 E23.7646
G1 X181.825 Y131.214 E23.80171
G1 X182.309 Y131.755 E23.82585
G1 X182.746 Y132.369 E23.85092
G1 X183.34 Y133.314 E23.88804
G1 X183.334 Y133.318 E23.88828
G1 X183.615 Y133.794 E23.90667
G1 X183.983 Y134.646 E23.93753
G1 X184.352 Y135.699 E23.97465
G1 X184.346 Y135.701 E23.97486
G1 X184.523 Y136.266 E23.99455
G1 X184.688 Y137.185 E24.0256
G1 X184.812 Y138.339 E24.06421
G1 X184.85 Y139.044 E24.08769
G1 X184.85 Y165.601 E24.97098
G1 X184.81 Y166.326 E24.99513
G1 X184.674 Y167.115 E25.02176
G1 X184.633 Y167.289 E25.0277
G1 X184.428 Y167.985 E25.05184
G1 X184.147 Y168.655 E25.076
G1 X183.795 Y169.291 E25.10018
G1 X183.345 Y169.92 E25.1259
G1 X183.232 Y170.06 E25.13188
G1 X182.745 Y170.6 E25.15607
G1 X182.202 Y171.082 E25.18022
G1 X181.61 Y171.502 E25.20436
G1 X180.926 Y171.877 E25.23031
G1 X180.768 Y171.952 E25.23612
G1 X180.096 Y172.227 E25.26027
G1 X179.397 Y172.427 E25.28445
G1 X178.586 Y172.559 E25.31178
G1 X177.849 Y172.6 E25.33633
G1 X122.151 Y172.6 E27.18886
G1 X121.426 Y172.56 E27.21301
G1 X120.635 Y172.424 E27.2397
G1 X120.457 Y172.382 E27.24579
G1 X119.761 Y172.176 E27.26993
G1 X119.091 Y171.895 E27.29409
G1 X118.456 Y171.543 E27.31824
G1 X117.814 Y171.083 E27.34451
G1 X117.676 Y170.971 E27.35042
G1 X117.138 Y170.483 E27.37458
G1 X116.657 Y169.938 E27.39875
G1 X116.239 Y169.345 E27.42289
G1 X115.859 Y168.647 E27.44932
G1 X115.784 Y168.487 E27.4552
G1 X115.512 Y167.814 E27.47934
G1 X115.316 Y167.114 E27.50352
G1 X115.195 Y166.372 E27.52852
G1 X115.15 Y165.601 E27.55421
G1 X115.15 Y140 E28.4057
G1 X115.19 Y139.275 E28.42985
G1 X115.309 Y138.558 E28.45403
G1 X115.507 Y137.859 E28.47819
G1 X115.78 Y137.186 E28.50234
G1 X116.125 Y136.547 E28.5265
G1 X116.539 Y135.95 E28.55066
G1 X117.015 Y135.402 E28.5748
G0 F6000 X117.409 Y135.573
G1 F1200 X117.939 Y135.109 E28.59823
G1 X118.518 Y134.709 E28.62164
G1 X118.915 Y134.489 E28.63673
G1 X118.914 Y134.487 E28.63681
G1 X122.386 Y132.69 E28.76684
G1 X122.614 Y132.578 E28.77529
G1 X122.629 Y132.571 E28.77584
G1 X122.889 Y132.457 E28.78528
G1 X126.5 Y130.969 E28.91518
G1 X127.006 Y130.785 E28.93309
G1 X130.752 Y129.61 E29.06367
G1 X131.01 Y129.535 E29.0726
G1 X131.025 Y129.531 E29.07312
G1 X131.287 Y129.468 E29.08208
G1 X135.102 Y128.626 E29.21202
G1 X135.649 Y128.533 E29.23048
G1 X135.649 Y128.531 E29.23054
G1 X135.702 Y128.524 E29.23232
G1 X135.731 Y128.52 E29.2333
G1 X139.524 Y128.023 E29.36053
G1 X140.063 Y127.976 E29.37852
G1 X143.966 Y127.808 E29.50846
G1 X143.966 Y127.816 E29.50873
G1 X144.251 Y127.8 E29.51822
G1 X173.249 Y127.8 E30.4827
G1 X173.939 Y127.838 E30.50568
G1 X175.047 Y127.962 E30.54276
G1 X175.741 Y128.08 E30.56618
G1 X176.402 Y128.271 E30.58906
G1 X177.464 Y128.642 E30.62648
G1 X178.114 Y128.911 E30.64987
G1 X178.719 Y129.246 E30.67288
G1 X179.662 Y129.839 E30.70993
G1 X179.657 Y129.847 E30.71024
G1 X180.035 Y130.092 E30.72522
G1 X180.753 Y130.708 E30.75669
G1 X181.542 Y131.497 E30.7938
G1 X182.011 Y132.022 E30.81721
G1 X182.407 Y132.582 E30.84003
G1 X183.001 Y133.527 E30.87715
G1 X182.995 Y133.531 E30.87739
G1 X183.269 Y133.997 E30.89537
G1 X183.605 Y134.779 E30.92368
G1 X183.974 Y135.832 E30.96079
G1 X183.969 Y135.834 E30.96097
G1 X184.141 Y136.385 E30.98017
G1 X184.291 Y137.228 E31.00865
G1 X184.415 Y138.382 E31.04725
G1 X184.45 Y139.044 E31.0693
G1 X184.45 Y165.601 E31.95259
G1 X184.41 Y166.304 E31.97601
G1 X184.285 Y167.023 E32.00028
G1 X184.244 Y167.197 E32.00623
G1 X184.044 Y167.872 E32.02964
G1 X183.768 Y168.52 E32.05307
G1 X183.421 Y169.132 E32.07647
G1 X183.034 Y169.669 E32.09848
G1 X182.921 Y169.809 E32.10447
G1 X182.448 Y170.331 E32.1279
G1 X181.919 Y170.796 E32.15132
G1 X181.341 Y171.198 E32.17474
G1 X180.755 Y171.516 E32.19691
G1 X180.597 Y171.591 E32.20273
G1 X179.945 Y171.856 E32.22614
G1 X179.267 Y172.046 E32.24956
G1 X178.541 Y172.161 E32.27401
G1 X177.849 Y172.2 E32.29706
G1 X122.151 Y172.2 E34.14958
G1 X121.448 Y172.16 E34.173
G1 X120.727 Y172.034 E34.19734
G1 X120.549 Y171.992 E34.20343
G1 X119.874 Y171.792 E34.22684
G1 X119.226 Y171.516 E34.25027
G1 X118.614 Y171.169 E34.27367
G1 X118.066 Y170.772 E34.29618
G1 X117.928 Y170.66 E34.30209
G1 X117.407 Y170.186 E34.32551
G1 X116.944 Y169.656 E34.34892
G1 X116.544 Y169.077 E34.37233
G1 X116.221 Y168.477 E34.39499
G1 X116.146 Y168.317 E34.40087
G1 X115.884 Y167.664 E34.42427
G1 X115.698 Y166.985 E34.44769
G1 X115.592 Y166.325 E34.46992
G1 X115.55 Y165.601 E34.49404
G1 X115.55 Y140 E35.34553
G1 X115.59 Y139.297 E35.36895
G1 X115.709 Y138.603 E35.39237
G1 X115.907 Y137.928 E35.41577
G1 X116.179 Y137.279 E35.43917
G1 X116.524 Y136.665 E35.4626
G1 X116.935 Y136.094 E35.486
G1 X117.409 Y135.573 E35.50942
G0 F6000 X117.803 Y135.751
G1 F1200 X118.328 Y135.317 E35.53208
G1 X119.1 Y134.846 E35.56216
G1 X119.098 Y134.842 E35.56231
G1 X122.783 Y132.94 E35.70023
G1 X122.798 Y132.933 E35.70078
G1 X123.041 Y132.826 E35.70961
G1 X126.652 Y131.338 E35.83951
G1 X127.126 Y131.167 E35.85627
G1 X130.872 Y129.992 E35.98685
G1 X131.114 Y129.922 E35.99523
G1 X131.373 Y129.858 E36.0041
G1 X135.188 Y129.016 E36.13405
G1 X135.701 Y128.93 E36.15135
G1 X135.701 Y128.927 E36.15145
G1 X139.576 Y128.419 E36.28143
G1 X140.081 Y128.375 E36.29829
G1 X143.984 Y128.207 E36.42823
G1 X143.984 Y128.215 E36.42849
G1 X144.251 Y128.2 E36.43739
G1 X173.249 Y128.2 E37.40186
G1 X173.894 Y128.236 E37.42335
G1 X175.002 Y128.36 E37.46043
G1 X175.673 Y128.475 E37.48308
G1 X176.27 Y128.648 E37.50375
G1 X177.332 Y129.019 E37.54116
