;FLAVOR:Marlin
;TIME:3642
;Filament used: 2.2403m
;Layer height: 0.2
;MINX:108.862
;MINY:110.523
;MINZ:0.2
;MAXX:193.825
;MAXY:156.728
;MAXZ:15.2
;Generated with Cura_SteamEngine 4.6.0
M140 S50
M105
M190 S50
M104 S200
M105
M109 S200
M82 ;absolute extrusion mode
M201 X500.00 Y500.00 Z100.00 E5000.00 ;Setup machine max acceleration
M203 X500.00 Y500.00 Z10.00 E50.00 ;Setup machine max feedrate
M204 P500.00 R1000.00 T500.00 ;Setup Print/Retract/Travel acceleration
M205 X8.00 Y8.00 Z0.40 E5.00 ;Setup Jerk
M220 S100 ;Reset Feedrate
M221 S100 ;Reset Flowrate

G28 ;Home

G92 E0 ;Reset Extruder
G1 Z2.0 F3000 ;Move Z Axis up
G1 X10.1 Y20 Z0.28 F5000.0 ;Move to start position
G1 X10.1 Y200.0 Z0.28 F1500.0 E15 ;Draw the first line
G1 X10.4 Y200.0 Z0.28 F5000.0 ;Move to side a little
G1 X10.4 Y20 Z0.28 F1500.0 E30 ;Draw the second line
G92 E0 ;Reset Extruder
G1 Z2.0 F3000 ;Move Z Axis up

G92 E0
G92 E0
G1 F2700 E-5
;LAYER_COUNT:76
;LAYER:0
M107
G0 F6000 X117.415 Y118.251 Z0.2
;TYPE:SKIRT
G1 F2700 E0
G1 F1200 X118.432 Y117.246 E0.04756
G1 X118.433 Y117.247 E0.0476
G1 X118.933 Y116.79 E0.07013
G1 X120.002 Y115.899 E0.11642
G1 X120.55 Y115.482 E0.13932
G1 X121.686 Y114.694 E0.18531
G1 X122.29 Y114.315 E0.20902
G1 X123.456 Y113.655 E0.25358
G1 X123.464 Y113.668 E0.25409
G1 X124.119 Y113.319 E0.27878
G1 X125.347 Y112.769 E0.32353
G1 X125.367 Y112.76 E0.32426
G1 X126.033 Y112.497 E0.34808
G1 X127.284 Y112.067 E0.39207
G1 X127.287 Y112.074 E0.39233
G1 X127.895 Y111.883 E0.41352
G1 X129.363 Y111.508 E0.46392
G1 X129.874 Y111.398 E0.4813
G1 X131.753 Y111.065 E0.54477
G1 X131.957 Y111.039 E0.55161
G1 X133.815 Y110.82 E0.61384
G1 X133.816 Y110.829 E0.61414
G1 X134.224 Y110.782 E0.6278
G1 X136.406 Y110.639 E0.70053
G1 X136.406 Y110.641 E0.70059
G1 X136.714 Y110.624 E0.71085
G1 X139.686 Y110.544 E0.80974
G1 X139.686 Y110.543 E0.80977
G1 X141.46 Y110.524 E0.86878
G1 X142.25 Y110.556 E0.89508
G1 X143.031 Y110.667 E0.92131
G1 X143.798 Y110.857 E0.94759
G1 X144.541 Y111.123 E0.97384
G1 X145.254 Y111.463 E1.00012
G1 X145.929 Y111.873 E1.02638
G1 X146.559 Y112.35 E1.05267
G1 X146.8 Y112.57 E1.06352
G1 X155.891 Y112.57 E1.36589
G1 X156.24 Y112.257 E1.38148
G1 X156.878 Y111.793 E1.40772
G1 X157.561 Y111.395 E1.43401
G1 X158.28 Y111.068 E1.46028
G1 X159.028 Y110.816 E1.48653
G1 X159.798 Y110.64 E1.5128
G1 X160.581 Y110.543 E1.53905
G1 X161.228 Y110.523 E1.56058
G1 X162.997 Y110.542 E1.61942
G1 X165.966 Y110.623 E1.7182
G1 X165.966 Y110.627 E1.71833
G1 X166.268 Y110.637 E1.72838
G1 X168.45 Y110.78 E1.80111
G1 X168.915 Y110.824 E1.81665
G1 X170.743 Y111.04 E1.87787
G1 X171.209 Y111.109 E1.89354
G1 X172.961 Y111.425 E1.95275
G1 X172.976 Y111.428 E1.95326
G1 X173.38 Y111.521 E1.96705
G1 X174.794 Y111.883 E2.0156
G1 X175.327 Y112.039 E2.03407
G1 X176.643 Y112.491 E2.08035
G1 X177.295 Y112.748 E2.10366
G1 X178.556 Y113.312 E2.1496
G1 X179.217 Y113.657 E2.1744
G1 X179.221 Y113.649 E2.1747
G1 X180.395 Y114.313 E2.21956
G1 X180.996 Y114.706 E2.24344
G1 X181.003 Y114.695 E2.24388
G1 X182.115 Y115.465 E2.28886
G1 X182.675 Y115.902 E2.31249
G1 X182.68 Y115.896 E2.31275
G1 X183.718 Y116.762 E2.35771
G1 X183.734 Y116.774 E2.35838
G1 X184.261 Y117.25 E2.38199
G1 X185.279 Y118.258 E2.42964
G1 X185.709 Y118.73 E2.45088
G1 X185.713 Y118.726 E2.45107
G1 X186.773 Y119.962 E2.50523
G1 X186.778 Y119.968 E2.50548
G1 X187.078 Y120.351 E2.52167
G1 X188.026 Y121.645 E2.57502
G1 X188.224 Y121.928 E2.58651
G1 X188.351 Y122.124 E2.59427
G1 X189.228 Y123.526 E2.64928
G1 X189.227 Y123.526 E2.64931
G1 X189.505 Y124.004 E2.6677
G1 X190.475 Y125.823 E2.73627
G1 X190.478 Y125.829 E2.73649
G1 X190.615 Y126.118 E2.74713
G1 X191.357 Y127.768 E2.8073
G1 X191.344 Y127.774 E2.80778
G1 X191.564 Y128.267 E2.82573
G1 X192.298 Y130.249 E2.89603
G1 X192.3 Y130.255 E2.89624
G1 X192.38 Y130.511 E2.90516
G1 X192.888 Y132.23 E2.96478
G1 X192.883 Y132.231 E2.96495
G1 X193.04 Y132.822 E2.98529
G1 X193.409 Y134.534 E3.04354
G1 X193.513 Y135.151 E3.06435
G1 X193.709 Y136.683 E3.11572
G1 X193.713 Y136.714 E3.11676
G1 X193.768 Y137.393 E3.13941
G1 X193.82 Y138.799 E3.18621
G1 X193.825 Y139.087 E3.19579
G1 X193.825 Y139.095 E3.19606
G1 X193.814 Y139.518 E3.21013
G1 X193.741 Y140.861 E3.25486
G1 X193.722 Y140.86 E3.2555
G1 X193.671 Y141.566 E3.27904
G1 X193.478 Y142.895 E3.32371
G1 X193.465 Y142.893 E3.32414
G1 X193.354 Y143.56 E3.34663
G1 X193.037 Y144.915 E3.39292
G1 X192.88 Y145.472 E3.41216
G1 X192.884 Y145.473 E3.4123
G1 X192.437 Y146.902 E3.4621
G1 X192.276 Y147.354 E3.47806
G1 X192.28 Y147.355 E3.4782
G1 X191.631 Y149.055 E3.53872
G1 X191.537 Y149.28 E3.54683
G1 X190.34 Y152.026 E3.64646
G1 X189.988 Y152.733 E3.67273
G1 X189.567 Y153.401 E3.69899
G1 X189.08 Y154.022 E3.72524
G1 X188.533 Y154.592 E3.75152
G1 X187.931 Y155.103 E3.77778
G1 X187.28 Y155.55 E3.80405
G1 X186.588 Y155.93 E3.8303
G1 X185.861 Y156.238 E3.85656
G1 X185.106 Y156.47 E3.88283
G1 X184.332 Y156.625 E3.90909
G1 X183.843 Y156.682 E3.92546
G1 X183.605 Y156.702 E3.93341
G1 X182.816 Y156.728 E3.95966
G1 X182.028 Y156.674 E3.98593
G1 X181.25 Y156.541 E4.01219
G1 X180.489 Y156.33 E4.03845
G1 X179.753 Y156.043 E4.06473
G1 X179.05 Y155.683 E4.091
G1 X178.387 Y155.254 E4.11726
G1 X177.771 Y154.76 E4.14352
G1 X177.208 Y154.206 E4.1698
G1 X176.704 Y153.598 E4.19606
G1 X176.432 Y153.211 E4.21179
G1 X176.028 Y152.591 E4.23641
G1 X176.023 Y152.583 E4.23672
G1 X175.755 Y152.12 E4.25451
G1 X175.563 Y151.76 E4.26808
G1 X175.235 Y151.064 E4.29368
G1 X175.098 Y150.732 E4.30562
G1 X174.908 Y150.224 E4.32366
G1 X174.905 Y150.215 E4.32398
G1 X174.822 Y149.95 E4.33321
G1 X174.724 Y149.617 E4.34476
G1 X174.64 Y149.307 E4.35544
G1 X174.638 Y149.299 E4.35571
G1 X174.55 Y148.904 E4.36917
G1 X174.44 Y148.326 E4.38874
G1 X174.438 Y148.314 E4.38915
G1 X174.359 Y147.676 E4.41053
G1 X174.314 Y147.133 E4.42865
G1 X174.287 Y146.457 E4.45115
G1 X174.295 Y145.149 E4.49466
G1 X174.294 Y145.149 E4.49469
G1 X174.309 Y143.91 E4.5359
G1 X174.282 Y143.463 E4.5508
G1 X174.256 Y143.295 E4.55645
G1 X174.192 Y143.05 E4.56488
G1 X174.066 Y142.7 E4.57725
G1 X173.794 Y142.12 E4.59855
G1 X173.407 Y141.45 E4.62429
G1 X172.812 Y140.582 E4.65929
G1 X172.558 Y140.252 E4.67314
G1 X171.737 Y139.295 E4.71508
G1 X170.808 Y138.351 E4.75913
G1 X169.797 Y137.449 E4.80419
G1 X168.731 Y136.619 E4.84913
G1 X167.762 Y135.968 E4.88796
G1 X163.298 Y142.188 E5.1426
G1 X162.805 Y142.805 E5.16887
G1 X162.253 Y143.37 E5.19514
G1 X161.647 Y143.876 E5.2214
G1 X160.992 Y144.318 E5.24768
G1 X160.428 Y144.628 E5.26908
G1 X159.707 Y144.952 E5.29537
G1 X158.958 Y145.201 E5.32163
G1 X158.187 Y145.373 E5.3479
G1 X157.403 Y145.466 E5.37416
G1 X156.875 Y145.484 E5.39173
G1 X145.812 Y145.484 E5.75969
G1 X145.023 Y145.444 E5.78596
G1 X144.243 Y145.325 E5.81221
G1 X143.478 Y145.127 E5.83849
G1 X142.738 Y144.853 E5.86474
G1 X142.173 Y144.584 E5.88555
G1 X141.489 Y144.189 E5.91182
G1 X140.849 Y143.727 E5.93807
G1 X140.258 Y143.203 E5.96434
G1 X139.724 Y142.622 E5.99059
G1 X139.389 Y142.188 E6.00882
G1 X134.924 Y135.968 E6.26349
G1 X133.958 Y136.617 E6.30219
G1 X132.886 Y137.453 E6.34741
G1 X131.884 Y138.347 E6.39207
G1 X130.952 Y139.295 E6.43629
G1 X130.12 Y140.264 E6.47877
G1 X129.866 Y140.594 E6.49262
G1 X129.275 Y141.456 E6.52738
G1 X128.889 Y142.126 E6.5531
G1 X128.628 Y142.684 E6.57359
G1 X128.494 Y143.054 E6.58667
G1 X128.43 Y143.3 E6.59513
G1 X128.404 Y143.465 E6.60068
G1 X128.379 Y143.884 E6.61465
G1 X128.395 Y145.236 E6.65962
G1 X128.399 Y146.473 E6.70076
G1 X128.399 Y146.505 E6.70182
G1 X128.372 Y147.15 E6.7233
G1 X128.328 Y147.68 E6.74098
G1 X128.217 Y148.497 E6.76841
G1 X128.133 Y148.937 E6.78331
G1 X128.131 Y148.947 E6.78364
G1 X127.957 Y149.644 E6.80754
G1 X127.859 Y149.973 E6.81896
G1 X127.842 Y149.968 E6.81955
G1 X127.584 Y150.749 E6.8469
G1 X127.453 Y151.064 E6.85825
G1 X127.228 Y151.557 E6.87627
G1 X126.813 Y152.335 E6.9056
G1 X126.809 Y152.342 E6.90587
G1 X126.555 Y152.756 E6.92202
G1 X126.254 Y153.214 E6.94025
G1 X125.788 Y153.851 E6.9665
G1 X125.259 Y154.438 E6.99279
G1 X124.674 Y154.968 E7.01904
G1 X124.038 Y155.436 E7.0453
G1 X123.358 Y155.838 E7.07158
G1 X122.641 Y156.169 E7.09784
G1 X121.894 Y156.425 E7.12411
G1 X121.125 Y156.605 E7.15038
G1 X120.342 Y156.706 E7.17663
G1 X119.553 Y156.728 E7.20289
G1 X119.11 Y156.705 E7.21764
G1 X118.874 Y156.686 E7.22552
G1 X118.091 Y156.583 E7.25178
G1 X117.323 Y156.401 E7.27803
G1 X116.576 Y156.142 E7.30433
G1 X115.86 Y155.81 E7.33058
G1 X115.181 Y155.406 E7.35686
G1 X114.547 Y154.936 E7.38311
G1 X113.963 Y154.405 E7.40936
G1 X113.436 Y153.817 E7.43562
G1 X112.971 Y153.178 E7.46191
G1 X112.573 Y152.496 E7.48817
G1 X112.378 Y152.092 E7.50309
G1 X112.244 Y151.792 E7.51402
G1 X112.246 Y151.791 E7.51409
G1 X112.206 Y151.711 E7.51707
G1 X111.059 Y149.06 E7.61314
G1 X111.008 Y148.93 E7.61779
G1 X110.411 Y147.36 E7.67365
G1 X110.42 Y147.357 E7.67397
G1 X110.253 Y146.907 E7.68993
G1 X109.807 Y145.484 E7.73953
G1 X109.804 Y145.476 E7.73982
G1 X109.651 Y144.918 E7.75906
G1 X109.335 Y143.565 E7.80527
G1 X109.226 Y142.908 E7.82742
G1 X109.212 Y142.91 E7.82789
G1 X109.017 Y141.577 E7.8727
G1 X108.965 Y140.859 E7.89664
G1 X108.946 Y140.86 E7.89728
G1 X108.873 Y139.515 E7.94208
G1 X108.862 Y139.092 E7.95615
G1 X108.867 Y138.798 E7.96593
G1 X108.918 Y137.399 E8.01249
G1 X108.952 Y136.907 E8.0289
G1 X108.977 Y136.682 E8.03642
G1 X109.171 Y135.167 E8.08723
G1 X109.227 Y134.802 E8.09951
G1 X109.23 Y134.785 E8.10008
G1 X109.285 Y134.504 E8.10961
G1 X109.64 Y132.85 E8.16587
G1 X109.793 Y132.266 E8.18595
G1 X109.79 Y132.265 E8.18605
G1 X110.385 Y130.261 E8.25558
G1 X110.476 Y130.003 E8.26468
G1 X111.182 Y128.117 E8.33166
G1 X111.346 Y127.731 E8.34561
G1 X112.081 Y126.1 E8.40511
G1 X112.215 Y125.817 E8.41553
G1 X112.313 Y125.627 E8.42264
G1 X113.305 Y123.785 E8.49222
G1 X113.476 Y123.499 E8.50331
G1 X114.159 Y122.41 E8.54606
G1 X114.235 Y122.271 E8.55133
G1 X114.596 Y121.733 E8.57288
G1 X115.608 Y120.352 E8.62982
G1 X115.983 Y119.88 E8.64987
G1 X116.969 Y118.732 E8.70021
G1 X116.976 Y118.738 E8.70051
G1 X117.415 Y118.251 E8.72232
G0 F6000 X117.697 Y118.535
G1 F1200 X118.682 Y117.561 E8.76839
G1 X118.714 Y117.53 E8.76988
G1 X119.189 Y117.098 E8.79123
G1 X120.258 Y116.207 E8.83752
G1 X120.778 Y115.811 E8.85926
G1 X121.914 Y115.023 E8.90524
G1 X122.487 Y114.663 E8.92775
G1 X123.653 Y114.003 E8.97231
G1 X123.66 Y114.016 E8.9728
G1 X124.282 Y113.684 E8.99625
G1 X125.524 Y113.128 E9.04151
G1 X125.531 Y113.125 E9.04176
G1 X126.163 Y112.875 E9.06437
G1 X127.414 Y112.445 E9.10837
G1 X127.416 Y112.452 E9.10861
G1 X127.994 Y112.271 E9.12875
G1 X129.46 Y111.896 E9.17908
G1 X129.945 Y111.792 E9.19558
G1 X131.809 Y111.461 E9.25855
G1 X132.004 Y111.436 E9.26509
G1 X133.862 Y111.217 E9.32731
G1 X133.863 Y111.226 E9.32761
G1 X134.25 Y111.181 E9.34057
G1 X136.432 Y111.038 E9.4133
G1 X136.432 Y111.04 E9.41337
G1 X136.725 Y111.024 E9.42313
G1 X139.691 Y110.944 E9.52181
G1 X139.691 Y110.943 E9.52185
G1 X141.465 Y110.924 E9.58085
G1 X142.233 Y110.956 E9.60642
G1 X142.994 Y111.068 E9.632
G1 X143.74 Y111.257 E9.6576
G1 X144.461 Y111.523 E9.68316
G1 X145.151 Y111.863 E9.70874
G1 X145.803 Y112.272 E9.73434
G1 X146.408 Y112.747 E9.75993
G1 X146.648 Y112.97 E9.77082
G1 X156.044 Y112.97 E10.08333
G1 X156.507 Y112.556 E10.10399
G1 X157.131 Y112.106 E10.12958
G1 X157.798 Y111.723 E10.15516
G1 X158.501 Y111.411 E10.18074
G1 X159.233 Y111.174 E10.20633
G1 X159.985 Y111.014 E10.23191
G1 X160.75 Y110.933 E10.25749
G1 X161.223 Y110.923 E10.27323
G1 X163.127 Y110.948 E10.33656
G1 X163.127 Y110.946 E10.33663
G1 X165.955 Y111.023 E10.43072
G1 X165.955 Y111.027 E10.43085
G1 X166.242 Y111.036 E10.4404
G1 X168.424 Y111.179 E10.51313
G1 X168.869 Y111.221 E10.528
G1 X170.696 Y111.437 E10.58919
G1 X171.138 Y111.503 E10.60405
G1 X172.882 Y111.818 E10.663
G1 X172.897 Y111.821 E10.66351
G1 X173.281 Y111.908 E10.6766
G1 X174.695 Y112.27 E10.72515
G1 X175.278 Y112.445 E10.74539
G1 X176.513 Y112.869 E10.78882
G1 X177.131 Y113.113 E10.81092
G1 X178.392 Y113.677 E10.85687
G1 X179.02 Y114.004 E10.88042
G1 X179.024 Y113.997 E10.88069
G1 X180.198 Y114.661 E10.92555
G1 X180.769 Y115.034 E10.94823
G1 X180.776 Y115.024 E10.94864
G1 X181.888 Y115.794 E10.99362
G1 X182.419 Y116.209 E11.01604
G1 X182.424 Y116.203 E11.0163
G1 X183.477 Y117.081 E11.0619
G1 X183.495 Y117.095 E11.06266
G1 X183.98 Y117.535 E11.08444
G1 X184.998 Y118.543 E11.13209
G1 X185.405 Y118.991 E11.15222
G1 X185.41 Y118.987 E11.15243
G1 X186.466 Y120.218 E11.20637
G1 X186.471 Y120.224 E11.20663
G1 X186.755 Y120.588 E11.22199
G1 X187.703 Y121.882 E11.27534
G1 X187.891 Y122.15 E11.28623
G1 X188.012 Y122.337 E11.29364
G1 X188.872 Y123.711 E11.34755
G1 X188.884 Y123.73 E11.3483
G1 X189.153 Y124.193 E11.36611
G1 X190.117 Y126.002 E11.43429
G1 X190.12 Y126.008 E11.43451
G1 X190.25 Y126.282 E11.4446
G1 X190.992 Y127.932 E11.50477
G1 X190.98 Y127.937 E11.5052
G1 X191.189 Y128.407 E11.52231
G1 X191.918 Y130.376 E11.59214
G1 X191.997 Y130.625 E11.60083
G1 X192.505 Y132.344 E11.66045
G1 X192.5 Y132.345 E11.66062
G1 X192.649 Y132.906 E11.67993
G1 X193.017 Y134.617 E11.73814
G1 X193.116 Y135.202 E11.75787
G1 X193.312 Y136.734 E11.80924
G1 X193.316 Y136.763 E11.81021
G1 X193.368 Y137.408 E11.83174
G1 X193.42 Y138.814 E11.87853
G1 X193.425 Y139.087 E11.88761
G1 X193.425 Y139.095 E11.88788
G1 X193.414 Y139.497 E11.90125
G1 X193.341 Y140.84 E11.94599
G1 X193.323 Y140.839 E11.94659
G1 X193.275 Y141.508 E11.9689
G1 X193.082 Y142.837 E12.01356
G1 X193.071 Y142.835 E12.01393
G1 X192.964 Y143.469 E12.03532
G1 X192.647 Y144.824 E12.0816
G1 X192.498 Y145.351 E12.09982
G1 X192.503 Y145.353 E12.1
G1 X192.056 Y146.782 E12.1498
G1 X191.903 Y147.212 E12.16498
G1 X191.906 Y147.213 E12.16508
G1 X191.26 Y148.906 E12.22535
G1 X191.171 Y149.12 E12.23306
G1 X189.974 Y151.866 E12.33269
G1 X189.63 Y152.554 E12.35828
G1 X189.217 Y153.203 E12.38386
G1 X188.739 Y153.805 E12.40943
G1 X188.2 Y154.355 E12.43504
G1 X187.608 Y154.845 E12.4606
G1 X186.968 Y155.272 E12.48619
G1 X186.287 Y155.63 E12.51178
G1 X185.573 Y155.915 E12.53735
G1 X184.833 Y156.124 E12.56293
G1 X183.81 Y156.283 E12.59736
G1 X183.572 Y156.303 E12.6053
G1 X182.803 Y156.327 E12.63089
G1 X182.036 Y156.272 E12.65647
G1 X181.278 Y156.137 E12.68208
G1 X180.539 Y155.925 E12.70765
G1 X179.826 Y155.636 E12.73324
G1 X179.147 Y155.276 E12.7588
G1 X178.509 Y154.846 E12.78439
G1 X177.918 Y154.353 E12.80999
G1 X177.383 Y153.802 E12.83553
G1 X176.767 Y152.991 E12.8694
G1 X176.367 Y152.379 E12.89372
G1 X176.362 Y152.371 E12.89403
G1 X176.108 Y151.931 E12.91093
G1 X175.916 Y151.571 E12.9245
G1 X175.605 Y150.912 E12.94874
G1 X175.468 Y150.58 E12.96068
G1 X175.288 Y150.097 E12.97783
G1 X175.206 Y149.837 E12.9869
G1 X175.108 Y149.504 E12.99844
G1 X175.028 Y149.21 E13.00857
G1 X175.026 Y149.202 E13.00885
G1 X174.943 Y148.827 E13.02162
G1 X174.835 Y148.261 E13.04079
G1 X174.833 Y148.249 E13.04119
G1 X174.757 Y147.643 E13.06151
G1 X174.712 Y147.1 E13.07963
G1 X174.687 Y146.459 E13.10096
G1 X174.695 Y145.154 E13.14437
G1 X174.694 Y145.154 E13.1444
G1 X174.71 Y143.891 E13.18641
G1 X174.682 Y143.434 E13.20164
G1 X174.648 Y143.21 E13.20918
G1 X174.575 Y142.932 E13.21874
G1 X174.432 Y142.537 E13.23271
G1 X174.155 Y141.947 E13.25439
G1 X173.74 Y141.227 E13.28203
G1 X173.148 Y140.364 E13.31684
G1 X172.863 Y139.993 E13.3324
G1 X172.029 Y139.021 E13.375
G1 X171.086 Y138.062 E13.41973
G1 X170.058 Y137.146 E13.46552
G1 X168.957 Y136.287 E13.51197
G1 X167.928 Y135.597 E13.55318
G1 X167.649 Y135.44 E13.56383
G1 X162.973 Y141.955 E13.83055
G1 X162.492 Y142.556 E13.85615
G1 X161.952 Y143.103 E13.88172
G1 X161.358 Y143.592 E13.90731
G1 X160.717 Y144.016 E13.93287
G1 X160.246 Y144.272 E13.9507
G1 X159.544 Y144.586 E13.97628
G1 X158.813 Y144.826 E14.00187
G1 X158.061 Y144.988 E14.02745
G1 X157.296 Y145.072 E14.05305
G1 X156.875 Y145.084 E14.06706
G1 X145.812 Y145.084 E14.43502
G1 X145.044 Y145.044 E14.46059
G1 X144.284 Y144.925 E14.48618
G1 X143.541 Y144.727 E14.51175
G1 X142.822 Y144.453 E14.53735
G1 X142.355 Y144.228 E14.55459
G1 X141.69 Y143.842 E14.58016
G1 X141.068 Y143.39 E14.60573
G1 X140.496 Y142.875 E14.63133
G1 X139.981 Y142.304 E14.65691
