;FLAVOR:Marlin
;TIME:2450
;Filament used: 1.40629m
;Layer height: 0.2
;MINX:57.508
;MINY:123.228
;MINZ:0.2
;MAXX:242.487
;MAXY:176.768
;MAXZ:2
;Generated with Cura_SteamEngine 4.6.0
M140 S50
M105
M190 S50
M104 S200
M105
M109 S200
M82 ;absolute extrusion mode
M201 X500.00 Y500.00 Z100.00 E5000.00 ;Setup machine max acceleration
M203 X500.00 Y500.00 Z10.00 E50.00 ;Setup machine max feedrate
M204 P500.00 R1000.00 T500.00 ;Setup Print/Retract/Travel acceleration
M205 X8.00 Y8.00 Z0.40 E5.00 ;Setup Jerk
M220 S100 ;Reset Feedrate
M221 S100 ;Reset Flowrate

G28 ;Home

G92 E0 ;Reset Extruder
G1 Z2.0 F3000 ;Move Z Axis up
G1 X10.1 Y20 Z0.28 F5000.0 ;Move to start position
G1 X10.1 Y200.0 Z0.28 F1500.0 E15 ;Draw the first line
G1 X10.4 Y200.0 Z0.28 F5000.0 ;Move to side a little
G1 X10.4 Y20 Z0.28 F1500.0 E30 ;Draw the second line
G92 E0 ;Reset Extruder
G1 Z2.0 F3000 ;Move Z Axis up

G92 E0
G92 E0
G1 F2700 E-5
;LAYER_COUNT:10
;LAYER:0
M107
G0 F6000 X100.188 Y172.673 Z0.2
;TYPE:SKIRT
G1 F2700 E0
G1 F1200 X99.569 Y172.763 E0.0208
G1 X99.303 Y172.791 E0.0297
G1 X98.431 Y172.869 E0.05882
G1 X97.267 Y172.959 E0.09765
G1 X94.722 Y173.229 E0.18277
G1 X92.236 Y173.564 E0.2662
G1 X89.674 Y173.984 E0.35255
G1 X88.446 Y174.212 E0.3941
G1 X88.024 Y174.282 E0.40832
G1 X87.297 Y174.366 E0.43266
G1 X86.616 Y174.42 E0.45538
G1 X84.069 Y174.656 E0.54046
G1 X81.538 Y174.965 E0.62527
G1 X79.04 Y175.34 E0.70928
G1 X77.861 Y175.558 E0.74916
G1 X77.525 Y175.605 E0.76045
G1 X76.396 Y175.805 E0.79858
G1 X75.501 Y175.923 E0.82861
G1 X74.939 Y175.956 E0.84733
G1 X74.686 Y175.964 E0.85575
G1 X74.216 Y175.968 E0.87138
G1 X73.735 Y175.961 E0.88738
G1 X72.778 Y175.902 E0.91927
G1 X71.884 Y175.773 E0.94931
G1 X71.214 Y175.624 E0.97214
G1 X70.826 Y175.524 E0.98547
G1 X70.355 Y175.392 E1.00174
G1 X69.497 Y175.11 E1.03178
G1 X68.668 Y174.753 E1.0618
G1 X68.163 Y174.491 E1.08072
G1 X67.694 Y174.231 E1.09856
G1 X67.225 Y173.957 E1.11662
G1 X67.227 Y173.953 E1.11677
G1 X67.091 Y173.877 E1.12195
G1 X66.344 Y173.37 E1.15198
G1 X65.365 Y172.538 E1.19471
G1 X64.614 Y171.806 E1.22959
G1 X64.008 Y171.136 E1.25964
G1 X63.465 Y170.415 E1.28966
G1 X63.122 Y169.882 E1.31074
G1 X62.786 Y169.321 E1.33249
G1 X62.28 Y168.363 E1.36853
G1 X62.181 Y168.149 E1.37637
G1 X61.838 Y167.313 E1.40642
G1 X61.615 Y166.614 E1.43083
G1 X61.469 Y166.079 E1.44927
G1 X61.377 Y165.715 E1.46176
G1 X61.174 Y164.694 E1.49638
G1 X61.029 Y163.7 E1.52979
G1 X58.472 Y144.265 E2.18178
G1 X58.386 Y143.538 E2.20612
G1 X58.35 Y143.187 E2.21786
G1 X58.349 Y143.175 E2.21826
G1 X58.319 Y142.651 E2.23572
G1 X58.312 Y142.43 E2.24307
G1 X58.308 Y141.952 E2.25897
G1 X58.316 Y141.427 E2.27643
G1 X58.37 Y140.525 E2.30649
G1 X58.503 Y139.632 E2.33652
G1 X58.618 Y139.113 E2.3542
G1 X58.824 Y138.307 E2.38187
G1 X58.887 Y138.083 E2.38961
G1 X59.331 Y136.827 E2.43391
G1 X59.337 Y136.813 E2.43442
G1 X59.775 Y135.915 E2.46765
G1 X60.061 Y135.395 E2.48739
G1 X60.341 Y134.914 E2.5059
G1 X60.838 Y134.161 E2.53591
G1 X61.401 Y133.454 E2.56597
G1 X61.751 Y133.072 E2.5832
G1 X62.133 Y132.676 E2.6015
G1 X62.485 Y132.328 E2.61797
G1 X63.124 Y131.764 E2.64631
G1 X63.325 Y131.601 E2.65492
G1 X64.051 Y131.063 E2.68497
G1 X64.65 Y130.687 E2.7085
G1 X64.968 Y130.501 E2.72075
G1 X65.32 Y130.304 E2.73417
G1 X66.126 Y129.898 E2.76418
G1 X66.966 Y129.566 E2.79422
G1 X67.482 Y129.402 E2.81223
G1 X68.021 Y129.247 E2.83089
G1 X68.49 Y129.123 E2.84702
G1 X69.443 Y128.93 E2.87936
G1 X69.651 Y128.898 E2.88636
G1 X70.167 Y128.832 E2.90366
G1 X70.552 Y128.794 E2.91653
G1 X72.689 Y128.616 E2.98785
G1 X75.19 Y128.335 E3.07156
G1 X77.709 Y127.98 E3.15617
G1 X80.247 Y127.549 E3.24179
G1 X80.427 Y127.515 E3.24789
G1 X81.197 Y127.378 E3.2739
G1 X81.858 Y127.282 E3.29611
G1 X82.899 Y127.186 E3.33089
G1 X84.062 Y127.097 E3.36968
G1 X86.595 Y126.831 E3.45439
G1 X89.116 Y126.493 E3.53899
G1 X91.674 Y126.077 E3.62519
G1 X92.934 Y125.848 E3.66778
G1 X93.41 Y125.772 E3.68381
G1 X94.038 Y125.691 E3.70487
G1 X94.279 Y125.668 E3.71293
G1 X96.476 Y125.486 E3.78625
G1 X99.041 Y125.199 E3.87209
G1 X101.505 Y124.853 E3.95485
G1 X104.979 Y124.248 E4.07214
G1 X104.98 Y124.255 E4.07237
G1 X105.646 Y124.152 E4.09479
G1 X106.583 Y124.093 E4.12601
G1 X107.119 Y124.084 E4.14384
G1 X107.709 Y124.088 E4.16347
G1 X108.265 Y124.112 E4.18198
G1 X108.605 Y124.14 E4.19332
G1 X109.748 Y124.254 E4.23153
G1 X110.315 Y124.318 E4.25051
G1 X112.813 Y124.531 E4.33389
G1 X115.374 Y124.676 E4.41921
G1 X117.908 Y124.748 E4.50352
G1 X120.441 Y124.748 E4.58777
G1 X122.985 Y124.676 E4.67242
G1 X125.53 Y124.533 E4.7572
G1 X128.065 Y124.317 E4.84182
G1 X130.315 Y124.073 E4.91709
G1 X130.327 Y124.072 E4.91749
G1 X130.844 Y124.042 E4.93472
G1 X131.491 Y124.028 E4.95624
G1 X168.275 Y124.029 E6.17968
G1 X168.973 Y124.039 E6.2029
G1 X169.537 Y124.063 E6.22168
G1 X169.876 Y124.091 E6.23299
G1 X170.774 Y124.18 E6.263
G1 X172.382 Y124.355 E6.3168
G1 X174.907 Y124.559 E6.40106
G1 X177.434 Y124.69 E6.48522
G1 X179.97 Y124.75 E6.56959
G1 X182.538 Y124.74 E6.655
G1 X185.043 Y124.657 E6.73836
G1 X187.575 Y124.503 E6.82273
G1 X190.448 Y124.241 E6.91869
G1 X191.291 Y124.151 E6.94689
G1 X192.212 Y124.094 E6.97758
G1 X193.071 Y124.085 E7.00615
G1 X193.302 Y124.088 E7.01383
G1 X194.435 Y124.166 E7.05161
G1 X194.531 Y124.178 E7.05482
G1 X194.984 Y124.245 E7.07005
G1 X195.929 Y124.407 E7.10194
G1 X197.064 Y124.618 E7.14034
G1 X199.577 Y125.011 E7.22494
G1 X202.048 Y125.327 E7.30779
G1 X206.042 Y125.695 E7.4412
G1 X206.968 Y125.824 E7.47229
G1 X207.629 Y125.947 E7.49466
G1 X210.192 Y126.386 E7.58114
G1 X212.762 Y126.751 E7.66748
G1 X215.254 Y127.035 E7.7509
G1 X217.804 Y127.252 E7.83602
G1 X218.388 Y127.318 E7.85557
G1 X218.778 Y127.376 E7.86868
G1 X219.671 Y127.53 E7.89882
G1 X220.823 Y127.744 E7.93779
G1 X223.309 Y128.135 E8.02149
G1 X225.82 Y128.457 E8.10569
G1 X228.435 Y128.718 E8.1931
G1 X229.677 Y128.815 E8.23454
G1 X230.574 Y128.925 E8.26459
G1 X231.347 Y129.086 E8.29086
G1 X231.942 Y129.234 E8.31125
G1 X233.226 Y129.645 E8.35609
G1 X233.54 Y129.769 E8.36732
G1 X234.365 Y130.138 E8.39738
G1 X234.879 Y130.413 E8.41677
G1 X235.136 Y130.562 E8.42665
G1 X235.701 Y130.901 E8.44856
G1 X235.709 Y130.906 E8.44888
G1 X236.453 Y131.418 E8.47891
G1 X237.372 Y132.203 E8.51911
G1 X238.131 Y132.942 E8.55435
G1 X238.737 Y133.612 E8.58439
G1 X239.28 Y134.333 E8.61442
G1 X239.625 Y134.87 E8.63564
G1 X239.917 Y135.358 E8.65456
G1 X240.319 Y136.098 E8.68257
G1 X240.459 Y136.383 E8.69313
G1 X240.821 Y137.21 E8.72316
G1 X241.101 Y138.04 E8.75229
G1 X241.17 Y138.278 E8.76053
G1 X241.256 Y138.594 E8.77142
G1 X241.362 Y139.009 E8.78567
G1 X241.546 Y139.893 E8.8157
G1 X241.652 Y140.79 E8.84574
G1 X241.677 Y141.349 E8.86436
G1 X241.687 Y141.903 E8.88278
G1 X241.684 Y142.499 E8.90261
G1 X241.64 Y143.293 E8.92906
G1 X241.547 Y144.135 E8.95723
G1 X238.941 Y163.919 E9.62093
G1 X238.834 Y164.653 E9.64561
G1 X238.821 Y164.651 E9.64604
G1 X238.672 Y165.511 E9.67507
G1 X238.615 Y165.754 E9.68337
G1 X238.507 Y166.177 E9.6979
G1 X238.37 Y166.666 E9.71479
G1 X238.088 Y167.524 E9.74482
G1 X237.731 Y168.353 E9.77485
G1 X237.467 Y168.862 E9.79392
G1 X237.163 Y169.41 E9.81476
G1 X236.809 Y170.004 E9.83776
G1 X236.299 Y170.749 E9.86779
G1 X235.592 Y171.59 E9.90433
G1 X235.43 Y171.763 E9.91221
G1 X235.104 Y172.096 E9.92771
G1 X234.828 Y172.365 E9.94053
G1 X234.154 Y172.966 E9.97057
G1 X234.147 Y172.971 E9.97085
G1 X233.943 Y173.137 E9.9796
G1 X233.218 Y173.675 E10.00963
G1 X232.785 Y173.952 E10.02672
G1 X232.306 Y174.236 E10.04525
G1 X231.954 Y174.434 E10.05868
G1 X231.148 Y174.842 E10.08872
G1 X230.309 Y175.176 E10.11876
G1 X229.751 Y175.353 E10.13823
G1 X229.141 Y175.527 E10.15933
G1 X228.634 Y175.659 E10.17675
G1 X227.851 Y175.821 E10.20335
G1 X227.845 Y175.822 E10.20355
G1 X226.948 Y175.931 E10.2336
G1 X226.464 Y175.957 E10.24972
G1 X226.188 Y175.965 E10.25891
G1 X225.749 Y175.968 E10.27351
G1 X225.251 Y175.961 E10.29007
G1 X224.667 Y175.936 E10.30952
G1 X224.653 Y175.935 E10.30998
G1 X223.52 Y175.79 E10.34797
G1 X222.877 Y175.671 E10.36972
G1 X220.273 Y175.225 E10.45759
G1 X217.764 Y174.868 E10.54188
G1 X215.257 Y174.584 E10.6258
G1 X212.633 Y174.36 E10.71339
G1 X211.643 Y174.226 E10.74662
G1 X210.972 Y174.102 E10.76932
G1 X208.412 Y173.663 E10.85571
G1 X205.842 Y173.298 E10.94204
G1 X203.35 Y173.014 E11.02546
G1 X200.8 Y172.797 E11.11058
G1 X200.216 Y172.731 E11.13013
G1 X199.832 Y172.674 E11.14304
G1 X198.941 Y172.521 E11.17311
G1 X197.818 Y172.311 E11.21111
G1 X195.318 Y171.918 E11.29528
G1 X192.792 Y171.593 E11.37999
G1 X190.212 Y171.335 E11.46623
G1 X188.921 Y171.234 E11.5093
G1 X188.024 Y171.124 E11.53935
G1 X187.242 Y170.96 E11.56593
G1 X186.484 Y170.767 E11.59195
G1 X186.227 Y170.695 E11.60082
G1 X185.386 Y170.419 E11.63026
G1 X185.075 Y170.301 E11.64133
G1 X182.935 Y169.463 E11.71777
G1 X180.547 Y168.604 E11.80217
G1 X178.122 Y167.81 E11.88704
G1 X175.698 Y167.09 E11.97115
G1 X173.234 Y166.434 E12.05595
G1 X170.744 Y165.846 E12.14105
G1 X168.329 Y165.346 E12.22308
G1 X165.778 Y164.894 E12.30924
G1 X163.28 Y164.524 E12.39323
G1 X160.72 Y164.218 E12.47899
G1 X158.223 Y163.992 E12.56238
G1 X155.682 Y163.833 E12.64706
G1 X153.104 Y163.746 E12.73285
G1 X151.39 Y163.728 E12.78986
G1 X148.77 Y163.727 E12.877
G1 X146.163 Y163.763 E12.96372
G1 X143.632 Y163.87 E13.04798
G1 X141.09 Y164.049 E13.13273
G1 X138.549 Y164.3 E13.21766
G1 X136.058 Y164.618 E13.30118
G1 X133.522 Y165.014 E13.38655
G1 X131.039 Y165.475 E13.47055
G1 X128.541 Y166.013 E13.55554
G1 X126.061 Y166.619 E13.64045
G1 X123.642 Y167.285 E13.7239
G1 X121.219 Y168.025 E13.80816
G1 X118.807 Y168.838 E13.89282
G1 X116.408 Y169.722 E13.97786
G1 X115.689 Y170.01 E14.00362
G1 X114.789 Y170.356 E14.03569
G1 X114.786 Y170.348 E14.03597
G1 X114.442 Y170.483 E14.04826
G1 X113.918 Y170.647 E14.06652
G1 X112.976 Y170.909 E14.09904
G1 X111.971 Y171.117 E14.13318
G1 X111.758 Y171.15 E14.14035
G1 X110.877 Y171.251 E14.16984
G1 X108.757 Y171.428 E14.2406
G1 X106.187 Y171.716 E14.32661
G1 X103.688 Y172.069 E14.41055
G1 X101.207 Y172.49 E14.49425
G1 X101.178 Y172.496 E14.49524
G1 X100.188 Y172.673 E14.52869
G1 F2700 E9.52869
G0 F6000 X72.82 Y166.189
G0 X71.93 Y165.648
G0 X71.313 Y165.032
G0 X70.835 Y164.207
G0 X70.597 Y163.324
G0 X67.841 Y142.384
G0 X67.841 Y141.471
G0 X68.133 Y140.472
G0 X68.568 Y139.716
G0 X69.315 Y138.997
G0 X70.075 Y138.559
G0 X70.889 Y138.36
G0 X168.979 Y123.639
G1 F2700 E14.52869
G1 F1200 X169.565 Y123.664 E14.5482
G1 X169.916 Y123.693 E14.55991
G1 X170.817 Y123.783 E14.59003
G1 X172.386 Y123.954 E14.64252
G1 X174.924 Y124.159 E14.72721
G1 X177.465 Y124.291 E14.81184
G1 X179.978 Y124.35 E14.89544
G1 X182.522 Y124.34 E14.98006
G1 X185.041 Y124.257 E15.06389
G1 X187.55 Y124.104 E15.14749
G1 X190.371 Y123.847 E15.24171
G1 X191.249 Y123.753 E15.27107
G1 X192.206 Y123.694 E15.30297
G1 X193.077 Y123.685 E15.33194
G1 X193.308 Y123.688 E15.33962
G1 X194.485 Y123.769 E15.37886
G1 X194.581 Y123.781 E15.38208
G1 X195.051 Y123.85 E15.39788
G1 X196.002 Y124.014 E15.42997
G1 X197.127 Y124.223 E15.46803
G1 X199.618 Y124.613 E15.55189
G1 X202.11 Y124.931 E15.63545
G1 X206.078 Y125.297 E15.76799
G1 X207.041 Y125.43 E15.80032
G1 X207.704 Y125.553 E15.82275
G1 X210.278 Y125.994 E15.90961
G1 X212.791 Y126.352 E15.99403
G1 X215.296 Y126.637 E16.07789
G1 X217.838 Y126.853 E16.16274
G1 X218.44 Y126.921 E16.18289
G1 X218.846 Y126.982 E16.19654
G1 X219.744 Y127.137 E16.22685
G1 X220.852 Y127.343 E16.26434
G1 X223.386 Y127.741 E16.34965
G1 X225.878 Y128.061 E16.43322
G1 X228.457 Y128.319 E16.51942
G1 X229.708 Y128.416 E16.56116
G1 X230.622 Y128.527 E16.59178
G1 X231.444 Y128.697 E16.6197
G1 X232.039 Y128.845 E16.64009
G1 X232.922 Y129.106 E16.67071
G1 X233.373 Y129.273 E16.68671
G1 X233.687 Y129.397 E16.69794
G1 X234.528 Y129.772 E16.72857
G1 X235.074 Y130.064 E16.74916
G1 X235.341 Y130.218 E16.75941
G1 X235.913 Y130.562 E16.78161
G1 X235.921 Y130.567 E16.78192
G1 X236.68 Y131.089 E16.81256
G1 X237.65 Y131.915 E16.85494
G1 X238.416 Y132.661 E16.8905
G1 X239.034 Y133.344 E16.92114
G1 X239.59 Y134.077 E16.95174
G1 X239.968 Y134.664 E16.97496
G1 X240.26 Y135.152 E16.99387
G1 X240.678 Y135.921 E17.02298
G1 X240.818 Y136.206 E17.03354
G1 X241.188 Y137.05 E17.0642
G1 X241.485 Y137.928 E17.09502
G1 X241.554 Y138.166 E17.10327
G1 X241.643 Y138.495 E17.1146
G1 X241.749 Y138.91 E17.12885
G1 X241.938 Y139.811 E17.15947
G1 X242.048 Y140.725 E17.19009
G1 X242.077 Y141.342 E17.21063
G1 X242.087 Y141.896 E17.22906
G1 X242.084 Y142.505 E17.24931
G1 X242.038 Y143.331 E17.27683
G1 X241.943 Y144.187 E17.30548
G1 X239.337 Y163.977 E17.96938
G1 X239.23 Y164.711 E17.99405
G1 X239.224 Y164.71 E17.99425
G1 X239.195 Y164.942 E18.00203
G1 X239.062 Y165.603 E18.02445
G1 X239.005 Y165.846 E18.03275
G1 X238.892 Y166.285 E18.04783
G1 X238.755 Y166.774 E18.06472
G1 X238.468 Y167.649 E18.09535
G1 X238.107 Y168.495 E18.12594
G1 X237.817 Y169.056 E18.14695
G1 X237.513 Y169.604 E18.16779
G1 X237.149 Y170.215 E18.19144
G1 X236.629 Y170.975 E18.22207
G1 X235.884 Y171.863 E18.26063
G1 X235.722 Y172.036 E18.26851
G1 X235.383 Y172.382 E18.28462
G1 X235.107 Y172.651 E18.29744
G1 X234.421 Y173.264 E18.32804
G1 X234.399 Y173.281 E18.32896
G1 X234.195 Y173.447 E18.33771
G1 X233.457 Y173.996 E18.3683
G1 X232.992 Y174.294 E18.38667
G1 X232.502 Y174.585 E18.40563
G1 X232.15 Y174.783 E18.41906
G1 X231.329 Y175.199 E18.44967
G1 X230.474 Y175.542 E18.48031
G1 X229.861 Y175.737 E18.50171
G1 X229.251 Y175.911 E18.5228
G1 X228.731 Y176.047 E18.54068
G1 X227.917 Y176.216 E18.56833
G1 X227.911 Y176.217 E18.56853
G1 X226.997 Y176.329 E18.59916
G1 X226.475 Y176.357 E18.61655
G1 X226.199 Y176.365 E18.62573
G1 X225.743 Y176.368 E18.6409
G1 X225.245 Y176.361 E18.65746
G1 X224.639 Y176.335 E18.67764
G1 X224.625 Y176.334 E18.67811
G1 X223.447 Y176.183 E18.71761
G1 X222.802 Y176.063 E18.73943
G1 X220.221 Y175.622 E18.82652
G1 X217.734 Y175.267 E18.91007
G1 X215.214 Y174.982 E18.99442
G1 X212.599 Y174.759 E19.08171
G1 X211.57 Y174.62 E19.11625
G1 X210.897 Y174.495 E19.13902
G1 X208.326 Y174.055 E19.22577
G1 X205.813 Y173.697 E19.3102
G1 X203.308 Y173.412 E19.39405
G1 X200.766 Y173.196 E19.4789
G1 X200.164 Y173.128 E19.49905
G1 X199.765 Y173.068 E19.51247
G1 X198.868 Y172.914 E19.54274
G1 X197.754 Y172.706 E19.58044
G1 X195.242 Y172.31 E19.66502
G1 X192.772 Y171.993 E19.74784
G1 X190.189 Y171.735 E19.83418
G1 X188.889 Y171.633 E19.87755
G1 X187.975 Y171.521 E19.90818
G1 X187.145 Y171.349 E19.93637
G1 X186.376 Y171.152 E19.96278
G1 X186.119 Y171.08 E19.97165
G1 X185.245 Y170.794 E20.00224
G1 X184.929 Y170.674 E20.01348
G1 X182.791 Y169.837 E20.08985
G1 X180.393 Y168.975 E20.1746
G1 X178.005 Y168.192 E20.25819
G1 X175.586 Y167.474 E20.34211
G1 X173.145 Y166.824 E20.42613
G1 X170.677 Y166.241 E20.51047
G1 X168.25 Y165.738 E20.59291
G1 X165.721 Y165.29 E20.67834
G1 X163.205 Y164.918 E20.76293
G1 X160.708 Y164.619 E20.84657
G1 X158.163 Y164.388 E20.93157
G1 X155.68 Y164.234 E21.01431
G1 X153.085 Y164.145 E21.10067
G1 X151.386 Y164.128 E21.15718
G1 X148.774 Y164.127 E21.24406
G1 X146.186 Y164.163 E21.33014
G1 X143.641 Y164.27 E21.41487
G1 X141.121 Y164.448 E21.49889
G1 X138.607 Y164.696 E21.58291
G1 X136.094 Y165.017 E21.66717
G1 X133.591 Y165.408 E21.75143
G1 X131.124 Y165.866 E21.83489
G1 X128.614 Y166.406 E21.92028
G1 X126.19 Y166.999 E22.00328
G1 X123.76 Y167.667 E22.0871
G1 X121.327 Y168.411 E22.17172
G1 X118.925 Y169.22 E22.25602
G1 X116.559 Y170.093 E22.3399
G1 X115.833 Y170.383 E22.36591
G1 X114.933 Y170.729 E22.39798
G1 X114.931 Y170.725 E22.39812
G1 X114.808 Y170.777 E22.40257
G1 X114.027 Y171.032 E22.42989
G1 X113.076 Y171.296 E22.46272
G1 X112.032 Y171.512 E22.49818
G1 X111.819 Y171.545 E22.50535
G1 X110.91 Y171.65 E22.53578
G1 X108.763 Y171.83 E22.60744
G1 X106.255 Y172.111 E22.69138
G1 X103.739 Y172.466 E22.77589
G1 X101.575 Y172.833 E22.84889
G1 X101.575 Y172.834 E22.84893
G1 X100.258 Y173.067 E22.89341
G1 X99.615 Y173.16 E22.91502
G1 X99.34 Y173.189 E22.92422
G1 X98.462 Y173.268 E22.95354
G1 X97.304 Y173.358 E22.99217
G1 X94.785 Y173.625 E23.07642
G1 X92.283 Y173.962 E23.16039
G1 X89.716 Y174.382 E23.2469
