;FLAVOR:Marlin
;TIME:2872
;Filament used: 1.47715m
;Layer height: 0.2
;MINX:17.839
;MINY:16.628
;MINZ:0.2
;MAXX:87.18
;MAXY:76.215
;MAXZ:7
;Generated with Cura_SteamEngine 4.6.0
M140 S50
M105
M190 S50
M104 S200
M105
M109 S200
M82 ;absolute extrusion mode
M201 X500.00 Y500.00 Z100.00 E5000.00 ;Setup machine max acceleration
M203 X500.00 Y500.00 Z10.00 E50.00 ;Setup machine max feedrate
M204 P500.00 R1000.00 T500.00 ;Setup Print/Retract/Travel acceleration
M205 X8.00 Y8.00 Z0.40 E5.00 ;Setup Jerk
M220 S100 ;Reset Feedrate
M221 S100 ;Reset Flowrate

G28 ;Home

G92 E0 ;Reset Extruder
G1 Z2.0 F3000 ;Move Z Axis up
G1 X10.1 Y20 Z0.28 F5000.0 ;Move to start position
G1 X10.1 Y200.0 Z0.28 F1500.0 E15 ;Draw the first line
G1 X10.4 Y200.0 Z0.28 F5000.0 ;Move to side a little
G1 X10.4 Y20 Z0.28 F1500.0 E30 ;Draw the second line
G92 E0 ;Reset Extruder
G1 Z2.0 F3000 ;Move Z Axis up

G92 E0
G92 E0
G1 F2700 E-5
;LAYER_COUNT:35
;LAYER:0
M107
G0 F6000 X52.845 Y45.408 Z0.2
;TYPE:SKIRT
G1 F2700 E0
G1 F1200 X52.815 Y45.463 E0.00208
G1 X52.768 Y45.543 E0.00517
G1 X52.472 Y46.058 E0.02493
G1 X52.136 Y46.581 E0.0456
G1 X52.139 Y46.583 E0.04572
G1 X51.768 Y47.137 E0.0679
G1 X51.394 Y47.649 E0.08899
G1 X50.91 Y48.262 E0.11496
G1 X50.914 Y48.265 E0.11513
G1 X51.312 Y48.584 E0.1321
G1 X51.595 Y48.821 E0.14437
G1 X51.765 Y48.974 E0.15198
G1 X52.139 Y49.32 E0.16893
G1 X52.442 Y49.616 E0.18301
G1 X52.904 Y50.106 E0.20541
G1 X53.158 Y50.388 E0.21804
G1 X53.304 Y50.563 E0.22562
G1 X53.713 Y51.068 E0.24723
G1 X53.742 Y51.105 E0.24879
G1 X54.012 Y51.471 E0.26392
G1 X54.356 Y51.968 E0.28403
G1 X54.381 Y52.005 E0.28551
G1 X54.623 Y52.386 E0.30052
G1 X54.921 Y52.888 E0.31994
G1 X55.163 Y53.331 E0.33673
G1 X55.442 Y53.885 E0.35736
G1 X55.462 Y53.926 E0.35888
G1 X55.653 Y54.349 E0.37431
G1 X55.76 Y54.606 E0.38357
G1 X55.761 Y54.603 E0.38368
G1 X55.954 Y54.13 E0.40067
G1 X56.069 Y53.862 E0.41037
G1 X56.088 Y53.82 E0.4119
G1 X56.21 Y53.563 E0.42136
G1 X56.466 Y53.048 E0.44049
G1 X56.479 Y53.022 E0.44146
G1 X56.759 Y52.511 E0.46084
G1 X57.045 Y52.032 E0.4794
G1 X57.327 Y51.594 E0.49672
G1 X57.614 Y51.179 E0.5135
G1 X57.833 Y50.878 E0.52588
G1 X57.964 Y50.709 E0.533
G1 X57.984 Y50.684 E0.53406
G1 X57.758 Y50.526 E0.54323
G1 X57.272 Y50.176 E0.56315
G1 X56.763 Y49.769 E0.58483
G1 X56.761 Y49.771 E0.58492
G1 X56.25 Y49.344 E0.60707
G1 X55.778 Y48.913 E0.62833
G1 X55.777 Y48.914 E0.62838
G1 X55.297 Y48.452 E0.65054
G1 X54.868 Y48 E0.67126
G1 X54.867 Y48.001 E0.67131
G1 X54.42 Y47.508 E0.69344
G1 X54.014 Y47.011 E0.71479
G1 X54.01 Y47.014 E0.71495
G1 X53.599 Y46.491 E0.73708
G1 X53.222 Y45.966 E0.75858
G1 X52.849 Y45.415 E0.78071
G1 X52.845 Y45.408 E0.78097
G0 F6000 X53.18 Y45.19
G1 F1200 X52.873 Y44.696 E0.80032
G1 X52.817 Y44.599 E0.80404
G1 X52.745 Y44.747 E0.80952
G1 X52.456 Y45.284 E0.8298
G1 X52.125 Y45.859 E0.85187
G1 X51.804 Y46.359 E0.87163
G1 X51.807 Y46.361 E0.87175
G1 X51.436 Y46.915 E0.89393
G1 X51.081 Y47.4 E0.91392
G1 X50.656 Y47.945 E0.9369
G1 X50.331 Y48.326 E0.95356
G1 X50.543 Y48.482 E0.96232
G1 X50.664 Y48.577 E0.96743
G1 X51.062 Y48.896 E0.9844
G1 X51.33 Y49.121 E0.99604
G1 X51.493 Y49.268 E1.00334
G1 X51.867 Y49.614 E1.02028
G1 X52.154 Y49.895 E1.03364
G1 X52.264 Y50.009 E1.03891
G1 X52.613 Y50.38 E1.05585
G1 X52.853 Y50.648 E1.06782
G1 X52.993 Y50.815 E1.07506
G1 X53.398 Y51.315 E1.09647
G1 X53.427 Y51.352 E1.09803
G1 X53.683 Y51.699 E1.11237
G1 X54.025 Y52.192 E1.13233
G1 X54.05 Y52.229 E1.13381
G1 X54.279 Y52.59 E1.14803
G1 X54.576 Y53.091 E1.1674
G1 X54.806 Y53.512 E1.18336
G1 X55.083 Y54.061 E1.20381
G1 X55.103 Y54.102 E1.20533
G1 X55.284 Y54.503 E1.21996
G1 X55.507 Y55.041 E1.23933
G1 X55.524 Y55.083 E1.24084
G1 X55.687 Y55.523 E1.25645
G1 X55.773 Y55.782 E1.26552
G1 X55.782 Y55.753 E1.26653
G1 X55.999 Y55.103 E1.28932
G1 X56.014 Y55.061 E1.29081
G1 X56.131 Y54.754 E1.30174
G1 X56.324 Y54.281 E1.31873
G1 X56.434 Y54.027 E1.32793
G1 X56.453 Y53.985 E1.32947
G1 X56.569 Y53.741 E1.33845
G1 X56.825 Y53.226 E1.35758
G1 X56.837 Y53.201 E1.3585
G1 X57.102 Y52.716 E1.37688
G1 X57.388 Y52.237 E1.39544
G1 X57.656 Y51.822 E1.41187
G1 X57.943 Y51.407 E1.42865
G1 X58.151 Y51.121 E1.44042
G1 X58.277 Y50.959 E1.44724
G1 X58.569 Y50.594 E1.46279
G1 X58.525 Y50.567 E1.46451
G1 X57.995 Y50.203 E1.48589
G1 X57.506 Y49.851 E1.50593
G1 X57.019 Y49.462 E1.52666
G1 X57.017 Y49.464 E1.52675
G1 X56.506 Y49.037 E1.5489
G1 X56.001 Y48.575 E1.57167
G1 X55.574 Y48.164 E1.59138
G1 X55.127 Y47.694 E1.61295
G1 X55.108 Y47.672 E1.61392
G1 X54.716 Y47.24 E1.63332
G1 X54.328 Y46.764 E1.65375
G1 X54.325 Y46.766 E1.65387
G1 X53.914 Y46.243 E1.67599
G1 X53.487 Y45.643 E1.70048
G1 X53.18 Y45.19 E1.71869
G0 F6000 X53.511 Y44.966
G1 F1200 X53.221 Y44.499 E1.73697
G1 X53.204 Y44.469 E1.73812
G1 X52.871 Y43.894 E1.76022
G1 X52.787 Y43.734 E1.76623
G1 X52.718 Y43.889 E1.77187
G1 X52.386 Y44.572 E1.79713
G1 X52.125 Y45.058 E1.81548
G1 X51.779 Y45.659 E1.83854
G1 X51.472 Y46.137 E1.85744
G1 X51.474 Y46.138 E1.85751
G1 X51.103 Y46.692 E1.87969
G1 X50.71 Y47.225 E1.90171
G1 X50.34 Y47.699 E1.92171
G1 X49.967 Y48.137 E1.94085
G1 X49.735 Y48.395 E1.95239
G1 X49.973 Y48.559 E1.962
G1 X50.298 Y48.798 E1.97542
G1 X50.414 Y48.889 E1.98032
G1 X50.812 Y49.208 E1.99729
G1 X51.065 Y49.421 E2.00829
G1 X51.222 Y49.562 E2.0153
G1 X51.596 Y49.908 E2.03225
G1 X51.867 Y50.173 E2.04486
G1 X51.973 Y50.283 E2.04994
G1 X52.322 Y50.654 E2.06688
G1 X52.549 Y50.907 E2.07819
G1 X52.683 Y51.068 E2.08515
G1 X53.083 Y51.562 E2.10629
G1 X53.112 Y51.599 E2.10786
G1 X53.354 Y51.927 E2.12141
G1 X53.693 Y52.416 E2.1412
G1 X53.718 Y52.453 E2.14269
G1 X53.935 Y52.795 E2.15616
G1 X54.232 Y53.294 E2.17548
G1 X54.449 Y53.692 E2.19055
G1 X54.723 Y54.236 E2.21081
G1 X54.743 Y54.277 E2.21233
G1 X54.915 Y54.657 E2.2262
G1 X55.137 Y55.191 E2.24544
G1 X55.154 Y55.233 E2.24694
G1 X55.307 Y55.65 E2.26172
G1 X55.468 Y56.134 E2.27868
G1 X55.465 Y56.135 E2.27879
G1 X55.621 Y56.645 E2.29653
G1 X55.791 Y57.322 E2.31974
G1 X55.807 Y57.24 E2.32252
G1 X55.886 Y56.893 E2.33436
G1 X56.043 Y56.278 E2.35547
G1 X56.055 Y56.234 E2.35699
G1 X56.162 Y55.879 E2.36932
G1 X56.376 Y55.238 E2.39179
G1 X56.391 Y55.196 E2.39328
G1 X56.502 Y54.905 E2.40364
G1 X56.798 Y54.192 E2.42931
G1 X56.817 Y54.15 E2.43085
G1 X56.927 Y53.919 E2.43936
G1 X57.183 Y53.404 E2.45848
G1 X57.195 Y53.38 E2.45938
G1 X57.446 Y52.921 E2.47678
G1 X57.732 Y52.442 E2.49533
G1 X57.985 Y52.049 E2.51088
G1 X58.272 Y51.634 E2.52766
G1 X58.468 Y51.364 E2.53876
G1 X58.589 Y51.209 E2.5453
G1 X58.905 Y50.814 E2.56212
G1 X59.168 Y50.504 E2.57564
G1 X59.172 Y50.5 E2.57583
G1 X58.737 Y50.228 E2.59289
G1 X58.258 Y49.901 E2.61218
G1 X57.739 Y49.527 E2.63346
G1 X57.275 Y49.155 E2.65324
G1 X57.273 Y49.158 E2.65336
G1 X56.762 Y48.731 E2.67551
G1 X56.252 Y48.26 E2.6986
G1 X55.852 Y47.875 E2.71707
G1 X55.46 Y47.463 E2.73598
G1 X55.459 Y47.464 E2.73603
G1 X55.012 Y46.971 E2.75816
G1 X54.641 Y46.517 E2.77766
G1 X54.639 Y46.519 E2.77776
G1 X54.228 Y45.996 E2.79988
G1 X53.844 Y45.458 E2.82186
G1 X53.511 Y44.966 E2.84162
G0 F6000 X53.843 Y44.742
G1 F1200 X53.542 Y44.254 E2.86069
G1 X53.218 Y43.694 E2.88221
G1 X52.957 Y43.196 E2.90091
G1 X52.753 Y42.777 E2.91641
G1 X52.541 Y43.302 E2.93524
G1 X52.358 Y43.714 E2.95024
G1 X52.026 Y44.397 E2.9755
G1 X51.734 Y44.935 E2.99586
G1 X51.432 Y45.46 E3.016
G1 X51.141 Y45.914 E3.03394
G1 X51.142 Y45.915 E3.03398
G1 X51.109 Y45.964 E3.03595
G1 X51.088 Y45.996 E3.03722
G1 X50.771 Y46.469 E3.05616
G1 X50.397 Y46.976 E3.07711
G1 X50.025 Y47.453 E3.09723
G1 X49.67 Y47.87 E3.11545
G1 X49.225 Y48.366 E3.13761
G1 X49.125 Y48.469 E3.14239
G1 X49.289 Y48.574 E3.14886
G1 X49.746 Y48.889 E3.16732
G1 X50.052 Y49.113 E3.17994
G1 X50.562 Y49.52 E3.20164
G1 X50.801 Y49.721 E3.21203
G1 X50.95 Y49.855 E3.21869
G1 X51.324 Y50.201 E3.23564
G1 X51.58 Y50.451 E3.24754
G1 X52.03 Y50.928 E3.26935
G1 X52.245 Y51.167 E3.28004
G1 X52.373 Y51.32 E3.28668
G1 X52.769 Y51.809 E3.30761
G1 X52.798 Y51.846 E3.30917
G1 X53.026 Y52.155 E3.32194
G1 X53.362 Y52.64 E3.34157
G1 X53.387 Y52.677 E3.34305
G1 X53.591 Y52.999 E3.35573
G1 X53.887 Y53.497 E3.375
G1 X54.092 Y53.873 E3.38924
G1 X54.364 Y54.411 E3.40929
G1 X54.384 Y54.452 E3.41081
G1 X54.545 Y54.81 E3.42386
G1 X54.766 Y55.341 E3.44299
G1 X54.783 Y55.383 E3.4445
G1 X54.928 Y55.776 E3.45843
G1 X55.089 Y56.26 E3.4754
G1 X55.086 Y56.261 E3.4755
G1 X55.234 Y56.745 E3.49234
G1 X55.382 Y57.323 E3.51218
G1 X55.472 Y57.742 E3.52644
G1 X55.575 Y58.308 E3.54557
G1 X55.644 Y58.78 E3.56144
G1 X55.71 Y59.4 E3.58217
G1 X55.714 Y59.444 E3.58364
G1 X55.736 Y59.794 E3.59531
G1 X55.757 Y60.352 E3.61388
G1 X55.757 Y60.844 E3.63024
G1 X55.736 Y61.411 E3.64912
G1 X55.701 Y61.889 E3.66506
G1 X55.639 Y62.452 E3.6839
G1 X55.576 Y62.892 E3.69868
G1 X55.455 Y63.556 E3.72113
G1 X55.446 Y63.6 E3.72262
G1 X55.375 Y63.908 E3.73313
G1 X55.184 Y64.641 E3.75833
G1 X55.107 Y64.887 E3.7669
G1 X54.896 Y65.519 E3.78906
G1 X54.881 Y65.561 E3.79055
G1 X54.766 Y65.861 E3.80123
G1 X54.571 Y66.333 E3.81822
G1 X54.433 Y66.645 E3.82956
G1 X54.108 Y67.302 E3.85394
G1 X53.878 Y67.723 E3.8699
G1 X53.617 Y68.162 E3.88689
G1 X53.606 Y68.181 E3.88762
G1 X53.342 Y68.593 E3.90389
G1 X52.91 Y69.207 E3.92886
G1 X52.747 Y69.419 E3.93776
G1 X52.378 Y69.877 E3.95732
G1 X52.35 Y69.911 E3.95878
G1 X52.063 Y70.237 E3.97323
G1 X51.652 Y70.674 E3.99318
G1 X51.353 Y70.972 E4.00722
G1 X50.981 Y71.32 E4.02416
G1 X50.621 Y71.633 E4.04003
G1 X50.188 Y71.983 E4.05855
G1 X50.185 Y71.98 E4.05869
G1 X49.813 Y72.266 E4.0743
G1 X49.358 Y72.583 E4.09274
G1 X48.947 Y72.847 E4.10899
G1 X48.228 Y73.267 E4.13668
G1 X48.018 Y73.376 E4.14455
G1 X47.562 Y73.604 E4.16151
G1 X47.305 Y73.726 E4.17097
G1 X47.097 Y73.816 E4.17851
G1 X46.585 Y74.028 E4.19694
G1 X46.115 Y74.202 E4.21361
G1 X45.587 Y74.375 E4.23209
G1 X45.173 Y74.496 E4.24644
G1 X44.614 Y74.639 E4.26563
G1 X44.157 Y74.736 E4.28117
G1 X43.566 Y74.84 E4.30112
G1 X43.121 Y74.903 E4.31607
G1 X42.614 Y74.957 E4.33303
G1 X42.345 Y74.98 E4.34201
G1 X42.102 Y74.993 E4.3501
G1 X41.36 Y75.015 E4.37479
G1 X41.082 Y75.011 E4.38404
G1 X40.573 Y74.993 E4.40098
G1 X40.118 Y74.961 E4.41615
G1 X39.565 Y74.903 E4.43465
G1 X39.103 Y74.838 E4.45016
G1 X38.555 Y74.741 E4.46867
G1 X38.082 Y74.639 E4.48477
G1 X37.546 Y74.503 E4.50316
G1 X37.208 Y74.408 E4.51484
G1 X37.056 Y74.36 E4.52014
G1 X36.571 Y74.2 E4.53712
G1 X36.124 Y74.034 E4.55298
G1 X35.612 Y73.823 E4.5714
G1 X35.194 Y73.634 E4.58666
G1 X34.696 Y73.387 E4.60515
G1 X34.386 Y73.222 E4.61683
G1 X34.227 Y73.131 E4.62292
G1 X33.715 Y72.827 E4.64273
G1 X33.355 Y72.595 E4.65697
G1 X32.936 Y72.305 E4.67392
G1 X32.661 Y72.104 E4.68525
G1 X32.529 Y72.001 E4.69082
G1 X32.131 Y71.682 E4.70778
G1 X31.883 Y71.473 E4.71857
G1 X31.702 Y71.309 E4.72669
G1 X31.282 Y70.914 E4.74587
G1 X30.99 Y70.621 E4.75963
G1 X30.642 Y70.25 E4.77655
G1 X30.445 Y70.03 E4.78637
G1 X30.284 Y69.837 E4.79473
G1 X29.935 Y69.402 E4.81328
G1 X29.663 Y69.038 E4.82839
G1 X29.326 Y68.552 E4.84806
G1 X29.299 Y68.512 E4.84967
G1 X29.088 Y68.179 E4.86278
G1 X28.8 Y67.692 E4.8816
G1 X28.58 Y67.289 E4.89687
G1 X28.352 Y66.834 E4.9138
G1 X28.216 Y66.544 E4.92445
G1 X28.138 Y66.363 E4.931
G1 X27.943 Y65.893 E4.94793
G1 X27.933 Y65.87 E4.94876
G1 X27.756 Y65.396 E4.96559
G1 X27.572 Y64.839 E4.9851
G1 X27.558 Y64.795 E4.98664
G1 X27.449 Y64.413 E4.99985
G1 X27.308 Y63.857 E5.01893
G1 X27.217 Y63.436 E5.03325
G1 X27.095 Y62.748 E5.05649
G1 X27.088 Y62.702 E5.05804
G1 X27.052 Y62.422 E5.06743
G1 X26.992 Y61.87 E5.0859
G1 X26.957 Y61.39 E5.10191
G1 X26.939 Y60.88 E5.11888
G1 X26.94 Y60.88 E5.11891
G1 X26.937 Y60.384 E5.13541
G1 X26.965 Y59.643 E5.16007
G1 X26.989 Y59.363 E5.16942
G1 X27.064 Y58.668 E5.19267
G1 X27.07 Y58.623 E5.19418
G1 X27.113 Y58.343 E5.2036
G1 X27.229 Y57.699 E5.22537
G1 X27.238 Y57.654 E5.22689
G1 X27.309 Y57.338 E5.23766
G1 X27.467 Y56.718 E5.25895
G1 X27.479 Y56.674 E5.26046
G1 X27.578 Y56.343 E5.27195
G1 X27.759 Y55.797 E5.29108
G1 X27.92 Y55.364 E5.30645
G1 X28.172 Y54.759 E5.32825
G1 X28.19 Y54.718 E5.32974
G1 X28.325 Y54.429 E5.34035
G1 X28.582 Y53.913 E5.35952
G1 X28.592 Y53.893 E5.36026
G1 X28.828 Y53.462 E5.37661
G1 X29.114 Y52.983 E5.39516
G1 X29.348 Y52.618 E5.40958
G1 X29.497 Y52.402 E5.41831
G1 X29.063 Y52.21 E5.43409
G1 X28.63 Y52 E5.4501
G1 X27.96 Y51.643 E5.47535
G1 X27.557 Y51.409 E5.49085
G1 X26.916 Y51.007 E5.51602
G1 X26.52 Y50.738 E5.53194
G1 X25.954 Y50.331 E5.55513
G1 X25.513 Y49.979 E5.57389
G1 X25.512 Y49.98 E5.57394
G1 X25.001 Y49.554 E5.59607
G1 X24.592 Y49.177 E5.61457
G1 X24.59 Y49.179 E5.61466
G1 X24.11 Y48.718 E5.6368
G1 X23.662 Y48.244 E5.65849
G1 X23.28 Y47.822 E5.67742
G1 X22.932 Y47.395 E5.69574
G1 X22.93 Y47.397 E5.69584
G1 X22.519 Y46.874 E5.71796
G1 X22.149 Y46.355 E5.73916
G1 X21.819 Y45.867 E5.75875
G1 X21.545 Y45.426 E5.77602
G1 X21.196 Y44.824 E5.79917
G1 X20.906 Y44.265 E5.82011
G1 X20.643 Y43.727 E5.84003
G1 X20.406 Y43.182 E5.8598
G1 X20.176 Y42.617 E5.88009
G1 X19.966 Y42.023 E5.90104
G1 X19.958 Y41.995 E5.90201
G1 X19.782 Y41.458 E5.9208
G1 X19.637 Y40.933 E5.93892
G1 X19.636 Y40.933 E5.93895
G1 X19.473 Y40.289 E5.96105
G1 X19.355 Y39.721 E5.98034
G1 X19.348 Y39.679 E5.98176
G1 X19.242 Y39.088 E6.00173
G1 X19.16 Y38.459 E6.02283
G1 X19.097 Y37.866 E6.04266
G1 X19.059 Y37.231 E6.06382
G1 X19.038 Y36.651 E6.08312
G1 X19.044 Y36.037 E6.10355
G1 X19.064 Y35.434 E6.12361
G1 X19.107 Y34.868 E6.14249
G1 X19.174 Y34.224 E6.16403
G1 X19.249 Y33.7 E6.18163
G1 X19.258 Y33.651 E6.18329
G1 X19.37 Y33.011 E6.2049
G1 X19.487 Y32.482 E6.22292
G1 X19.645 Y31.838 E6.24497
G1 X19.826 Y31.229 E6.26611
G1 X20.003 Y30.677 E6.28539
G1 X20.224 Y30.087 E6.30634
G1 X20.243 Y30.043 E6.30794
G1 X20.453 Y29.522 E6.32662
G1 X20.635 Y29.11 E6.3416
G1 X20.966 Y28.428 E6.36681
G1 X21.261 Y27.886 E6.38734
G1 X21.563 Y27.361 E6.40748
G1 X21.853 Y26.909 E6.42534
G1 X21.852 Y26.908 E6.42539
G1 X21.897 Y26.841 E6.42807
G1 X22.222 Y26.355 E6.44752
G1 X22.56 Y25.898 E6.46643
G1 X22.559 Y25.897 E6.46647
G1 X22.967 Y25.373 E6.48856
G1 X23.378 Y24.895 E6.50953
G1 X23.776 Y24.452 E6.52934
G1 X24.087 Y24.128 E6.54427
G1 X24.631 Y23.6 E6.56949
G1 X25.045 Y23.231 E6.58793
G1 X25.074 Y23.207 E6.58919
G1 X25.556 Y22.801 E6.61015
G1 X26.001 Y22.46 E6.62879
G1 X26 Y22.459 E6.62884
G1 X26.537 Y22.068 E6.65093
G1 X26.989 Y21.771 E6.66892
G1 X26.988 Y21.77 E6.66897
G1 X27.037 Y21.739 E6.6709
G1 X27.073 Y21.717 E6.6723
G1 X27.549 Y21.417 E6.69101
G1 X28.002 Y21.157 E6.70839
G1 X28.625 Y20.824 E6.73188
G1 X29.201 Y20.551 E6.75308
G1 X29.724 Y20.316 E6.77215
G1 X30.243 Y20.113 E6.79069
G1 X30.242 Y20.111 E6.79076
G1 X30.866 Y19.882 E6.81287
G1 X31.457 Y19.696 E6.83348
G1 X31.483 Y19.689 E6.83437
G1 X32.022 Y19.532 E6.85305
G1 X32.572 Y19.401 E6.87185
G1 X32.571 Y19.399 E6.87193
G1 X33.221 Y19.259 E6.89404
G1 X33.849 Y19.154 E6.91522
G1 X34.44 Y19.071 E6.93507
G1 X34.979 Y19.019 E6.95308
G1 X34.979 Y19.018 E6.95311
G1 X35.643 Y18.97 E6.97525
G1 X36.273 Y18.954 E6.99621
G1 X36.868 Y18.953 E7.016
G1 X37.34 Y18.969 E7.03171
G1 X38.096 Y19.022 E7.05692
G1 X38.548 Y19.07 E7.07204
G1 X39.299 Y19.175 E7.09726
G1 X39.9 Y19.286 E7.11758
G1 X40.503 Y19.415 E7.13809
G1 X41.085 Y19.566 E7.15809
G1 X41.66 Y19.73 E7.17798
G1 X42.196 Y19.907 E7.19675
G1 X42.227 Y19.919 E7.19786
G1 X42.816 Y20.132 E7.21869
G1 X43.316 Y20.337 E7.23666
G1 X43.327 Y20.342 E7.23707
G1 X43.936 Y20.612 E7.25922
G1 X44.365 Y20.822 E7.27511
G1 X45.033 Y21.178 E7.30029
G1 X45.43 Y21.407 E7.31553
G1 X46.074 Y21.81 E7.3408
G1 X46.476 Y22.083 E7.35696
G1 X47.043 Y22.491 E7.38019
G1 X47.476 Y22.837 E7.39863
G1 X47.477 Y22.836 E7.39867
G1 X47.546 Y22.894 E7.40167
G1 X47.573 Y22.916 E7.40283
G1 X47.988 Y23.261 E7.42078
G1 X48.41 Y23.648 E7.43983
G1 X48.411 Y23.647 E7.43987
G1 X48.89 Y24.108 E7.46198
G1 X49.264 Y24.501 E7.48003
G1 X49.265 Y24.501 E7.48006
G1 X49.711 Y24.993 E7.50215
G1 X50.07 Y25.433 E7.52104
G1 X50.072 Y25.431 E7.52113
G1 X50.481 Y25.953 E7.54319
G1 X50.838 Y26.454 E7.56365
G1 X51.176 Y26.954 E7.58372
G1 X51.45 Y27.395 E7.60099
G1 X51.799 Y27.997 E7.62413
G1 X52.062 Y28.499 E7.64298
G1 X52.063 Y28.502 E7.64309
G1 X52.266 Y28.919 E7.65851
G1 X52.269 Y28.911 E7.6588
