;FLAVOR:Marlin
;TIME:7297
;Filament used: 4.5323m
;Layer height: 0.2
;MINX:24.349
;MINY:19.593
;MINZ:0.2
;MAXX:88.841
;MAXY:84.083
;MAXZ:35
;Generated with Cura_SteamEngine 4.6.0
M140 S50
M105
M190 S50
M104 S200
M105
M109 S200
M82 ;absolute extrusion mode
M201 X500.00 Y500.00 Z100.00 E5000.00 ;Setup machine max acceleration
M203 X500.00 Y500.00 Z10.00 E50.00 ;Setup machine max feedrate
M204 P500.00 R1000.00 T500.00 ;Setup Print/Retract/Travel acceleration
M205 X8.00 Y8.00 Z0.40 E5.00 ;Setup Jerk
M220 S100 ;Reset Feedrate
M221 S100 ;Reset Flowrate

G28 ;Home

G92 E0 ;Reset Extruder
G1 Z2.0 F3000 ;Move Z Axis up
G1 X10.1 Y20 Z0.28 F5000.0 ;Move to start position
G1 X10.1 Y200.0 Z0.28 F1500.0 E15 ;Draw the first line
G1 X10.4 Y200.0 Z0.28 F5000.0 ;Move to side a little
G1 X10.4 Y20 Z0.28 F1500.0 E30 ;Draw the second line
G92 E0 ;Reset Extruder
G1 Z2.0 F3000 ;Move Z Axis up

G92 E0
G92 E0
G1 F2700 E-5
;LAYER_COUNT:175
;LAYER:0
M107
G0 F6000 X35.743 Y30.567 Z0.2
;TYPE:SKIRT
G1 F2700 E0
G1 F1200 X36.241 Y30.041 E0.02409
G1 X36.831 Y29.517 E0.05034
G1 X37.472 Y29.055 E0.07662
G1 X38.156 Y28.66 E0.10289
G1 X38.823 Y28.358 E0.12724
G1 X39.014 Y28.282 E0.13408
G1 X39.027 Y28.277 E0.13454
G1 X52.07 Y23.114 E0.6011
G1 X54.343 Y22.192 E0.68269
G1 X55.089 Y21.933 E0.70895
G1 X55.857 Y21.75 E0.73521
G1 X56.64 Y21.646 E0.76148
G1 X57.429 Y21.622 E0.78774
G1 X58.217 Y21.677 E0.81401
G1 X58.747 Y21.759 E0.83185
G1 X59.517 Y21.936 E0.85813
G1 X60.265 Y22.19 E0.8844
G1 X60.983 Y22.518 E0.91065
G1 X61.22 Y22.657 E0.91979
G1 X75.639 Y29.149 E1.44574
G1 X76.342 Y29.509 E1.47201
G1 X77.005 Y29.938 E1.49827
G1 X77.621 Y30.433 E1.52456
G1 X78.183 Y30.987 E1.5508
G1 X78.687 Y31.595 E1.57707
G1 X78.991 Y32.03 E1.59472
G1 X79.395 Y32.709 E1.621
G1 X79.729 Y33.425 E1.64728
G1 X79.988 Y34.17 E1.67351
G1 X80.029 Y34.344 E1.67946
G1 X85.638 Y49.526 E2.21777
G1 X85.873 Y50.28 E2.24404
G1 X86.032 Y51.053 E2.27029
G1 X86.111 Y51.839 E2.29656
G1 X86.111 Y52.629 E2.32284
G1 X86.03 Y53.414 E2.34909
G1 X85.868 Y54.199 E2.37575
G1 X85.809 Y54.425 E2.38351
G1 X85.425 Y55.543 E2.42283
G1 X85.253 Y55.942 E2.43728
G1 X85.25 Y55.948 E2.43751
G1 X78.699 Y71.108 E2.98679
G1 X78.35 Y71.816 E3.01305
G1 X77.93 Y72.485 E3.03932
G1 X77.445 Y73.109 E3.06561
G1 X76.801 Y73.772 E3.09635
G1 X76.197 Y74.281 E3.12262
G1 X75.545 Y74.726 E3.14887
G1 X74.851 Y75.103 E3.17514
G1 X74.35 Y75.323 E3.19334
G1 X61.103 Y80.566 E3.66719
G1 X58.853 Y81.481 E3.74798
G1 X58.107 Y81.741 E3.77425
G1 X57.339 Y81.924 E3.80051
G1 X56.556 Y82.029 E3.82679
G1 X55.767 Y82.054 E3.85304
G1 X54.979 Y81.999 E3.87932
G1 X54.443 Y81.916 E3.89736
G1 X53.673 Y81.739 E3.92364
G1 X52.925 Y81.485 E3.94991
G1 X52.207 Y81.157 E3.97616
G1 X51.963 Y81.015 E3.98555
G1 X37.551 Y74.528 E4.51122
G1 X36.848 Y74.168 E4.53749
G1 X36.185 Y73.738 E4.56377
G1 X35.569 Y73.244 E4.59003
G1 X35.006 Y72.69 E4.61631
G1 X34.502 Y72.082 E4.64257
G1 X34.198 Y71.646 E4.66025
G1 X33.794 Y70.967 E4.68653
G1 X33.46 Y70.251 E4.71281
G1 X33.201 Y69.506 E4.73904
G1 X33.159 Y69.329 E4.74509
G1 X27.552 Y54.148 E5.28335
G1 X27.316 Y53.395 E5.3096
G1 X27.158 Y52.621 E5.33587
G1 X27.079 Y51.835 E5.36215
G1 X27.079 Y51.046 E5.38839
G1 X27.16 Y50.26 E5.41467
G1 X27.318 Y49.491 E5.44078
G1 X27.376 Y49.267 E5.44848
G1 X27.755 Y48.155 E5.48755
G1 X27.817 Y48.01 E5.4928
G1 X27.829 Y47.983 E5.49378
G1 X34.49 Y32.567 E6.05233
G1 X34.839 Y31.859 E6.07859
G1 X35.259 Y31.19 E6.10486
G1 X35.743 Y30.567 E6.1311
G0 F6000 X36.086 Y30.783
G1 F1200 X36.521 Y30.326 E6.15208
G1 X37.097 Y29.817 E6.17765
G1 X37.723 Y29.369 E6.20325
G1 X38.391 Y28.989 E6.22881
G1 X38.971 Y28.729 E6.24995
G1 X39.162 Y28.653 E6.25679
G1 X39.174 Y28.648 E6.25722
G1 X52.278 Y23.461 E6.72597
G1 X54.493 Y22.563 E6.80546
G1 X55.22 Y22.311 E6.83105
G1 X55.969 Y22.136 E6.85664
G1 X56.732 Y22.04 E6.88222
G1 X57.501 Y22.023 E6.9078
G1 X58.565 Y22.133 E6.94338
G1 X58.678 Y22.153 E6.94719
G1 X59.427 Y22.326 E6.97276
G1 X60.154 Y22.577 E6.99834
G1 X60.852 Y22.901 E7.02394
G1 X61.039 Y23.013 E7.03119
G1 X75.475 Y29.513 E7.55776
G1 X76.159 Y29.865 E7.58334
G1 X76.803 Y30.286 E7.60893
G1 X77.4 Y30.772 E7.63454
G1 X77.943 Y31.316 E7.6601
G1 X78.594 Y32.156 E7.69545
G1 X78.658 Y32.252 E7.69928
G1 X79.051 Y32.914 E7.72489
G1 X79.373 Y33.612 E7.75046
G1 X79.621 Y34.34 E7.77604
G1 X79.654 Y34.484 E7.78095
G1 X85.262 Y49.665 E8.31922
G1 X85.491 Y50.399 E8.3448
G1 X85.642 Y51.153 E8.37037
G1 X85.715 Y51.919 E8.39597
G1 X85.707 Y52.688 E8.42154
G1 X85.619 Y53.452 E8.44712
G1 X85.481 Y54.098 E8.46909
G1 X85.422 Y54.324 E8.47686
G1 X85.057 Y55.384 E8.51415
G1 X84.885 Y55.783 E8.5286
G1 X84.883 Y55.789 E8.52881
G1 X78.332 Y70.949 E9.0781
G1 X77.991 Y71.639 E9.1037
G1 X77.579 Y72.289 E9.12929
G1 X77.103 Y72.893 E9.15487
G1 X76.528 Y73.48 E9.1822
G1 X75.939 Y73.975 E9.20779
G1 X75.302 Y74.406 E9.23337
G1 X74.624 Y74.768 E9.25893
G1 X74.202 Y74.951 E9.27423
G1 X60.933 Y80.203 E9.74888
G1 X58.702 Y81.11 E9.82898
G1 X57.975 Y81.362 E9.85457
G1 X57.226 Y81.538 E9.88016
G1 X56.463 Y81.635 E9.90574
G1 X55.694 Y81.652 E9.93132
G1 X54.625 Y81.542 E9.96707
G1 X54.512 Y81.522 E9.97088
G1 X53.763 Y81.349 E9.99645
G1 X53.036 Y81.098 E10.02203
G1 X52.338 Y80.774 E10.04763
G1 X52.138 Y80.654 E10.05538
G1 X37.715 Y74.163 E10.58144
G1 X37.031 Y73.811 E10.60702
G1 X36.387 Y73.391 E10.63259
G1 X35.79 Y72.905 E10.6582
G1 X35.247 Y72.361 E10.68376
G1 X34.595 Y71.52 E10.71916
G1 X34.531 Y71.424 E10.72299
G1 X34.138 Y70.762 E10.7486
G1 X33.816 Y70.064 E10.77417
G1 X33.568 Y69.336 E10.79975
G1 X33.537 Y69.198 E10.80445
G1 X27.927 Y54.01 E11.34296
G1 X27.699 Y53.275 E11.36856
G1 X27.548 Y52.521 E11.39414
G1 X27.475 Y51.756 E11.4197
G1 X27.483 Y50.986 E11.44531
G1 X27.571 Y50.222 E11.47089
G1 X27.705 Y49.591 E11.49234
G1 X27.763 Y49.367 E11.50004
G1 X28.123 Y48.313 E11.53708
G1 X28.185 Y48.168 E11.54233
G1 X28.196 Y48.142 E11.54327
G1 X34.857 Y32.726 E12.10182
G1 X35.198 Y32.037 E12.12739
G1 X35.609 Y31.386 E12.153
G1 X36.086 Y30.783 E12.17857
G0 F6000 X36.427 Y31
G1 F1200 X36.801 Y30.612 E12.19649
G1 X37.362 Y30.117 E12.22138
G1 X37.973 Y29.684 E12.24628
G1 X38.626 Y29.32 E12.27115
G1 X39.119 Y29.101 E12.28909
G1 X39.31 Y29.025 E12.29593
G1 X39.322 Y29.02 E12.29636
G1 X52.394 Y23.846 E12.76396
G1 X54.644 Y22.933 E12.84472
G1 X55.351 Y22.69 E12.86958
G1 X56.08 Y22.523 E12.89446
G1 X56.823 Y22.435 E12.91934
G1 X57.571 Y22.426 E12.94422
G1 X58.495 Y22.527 E12.97514
G1 X58.608 Y22.547 E12.97895
G1 X59.337 Y22.717 E13.00385
G1 X60.043 Y22.963 E13.02872
G1 X60.719 Y23.283 E13.05359
G1 X60.871 Y23.376 E13.05952
G1 X75.311 Y29.878 E13.58624
G1 X75.976 Y30.221 E13.61113
G1 X76.6 Y30.633 E13.636
G1 X77.177 Y31.11 E13.6609
G1 X77.699 Y31.645 E13.68576
G1 X78.261 Y32.378 E13.71648
G1 X78.325 Y32.474 E13.72031
G1 X78.706 Y33.118 E13.7452
G1 X79.017 Y33.799 E13.7701
G1 X79.253 Y34.508 E13.79496
G1 X79.276 Y34.615 E13.7986
G1 X84.887 Y49.803 E14.33712
G1 X85.109 Y50.518 E14.36202
G1 X85.252 Y51.252 E14.38689
G1 X85.317 Y51.997 E14.41177
G1 X85.302 Y52.745 E14.43665
G1 X85.207 Y53.487 E14.46153
G1 X85.094 Y53.997 E14.47891
G1 X85.035 Y54.223 E14.48667
G1 X84.69 Y55.226 E14.52195
G1 X84.518 Y55.625 E14.5364
G1 X84.516 Y55.631 E14.53661
G1 X77.965 Y70.791 E15.0859
G1 X77.632 Y71.461 E15.11079
G1 X77.229 Y72.091 E15.13566
G1 X76.762 Y72.675 E15.16053
G1 X76.255 Y73.187 E15.1845
G1 X75.682 Y73.668 E15.20938
G1 X75.06 Y74.084 E15.23427
G1 X74.055 Y74.579 E15.27153
G1 X60.823 Y79.817 E15.74485
G1 X58.551 Y80.74 E15.82642
G1 X57.844 Y80.984 E15.8513
G1 X57.115 Y81.151 E15.87617
G1 X56.372 Y81.24 E15.90106
G1 X55.624 Y81.249 E15.92594
G1 X54.695 Y81.148 E15.95702
G1 X54.582 Y81.128 E15.96084
G1 X53.853 Y80.958 E15.98573
G1 X53.147 Y80.712 E16.0106
G1 X52.471 Y80.392 E16.03548
G1 X52.307 Y80.292 E16.04186
G1 X37.879 Y73.798 E16.56811
G1 X37.214 Y73.455 E16.593
G1 X36.59 Y73.043 E16.61787
G1 X36.013 Y72.567 E16.64275
G1 X35.49 Y72.032 E16.66763
G1 X34.928 Y71.298 E16.69838
G1 X34.864 Y71.202 E16.70221
G1 X34.483 Y70.558 E16.7271
G1 X34.172 Y69.877 E16.752
G1 X33.936 Y69.168 E16.77686
G1 X33.912 Y69.059 E16.78057
G1 X28.303 Y53.871 E17.31907
G1 X28.081 Y53.157 E17.34394
G1 X27.937 Y52.423 E17.36882
G1 X27.873 Y51.677 E17.39372
G1 X27.888 Y50.929 E17.4186
G1 X27.983 Y50.187 E17.44349
G1 X28.092 Y49.691 E17.46038
G1 X28.15 Y49.467 E17.46807
G1 X28.491 Y48.47 E17.50312
G1 X28.553 Y48.325 E17.50836
G1 X28.563 Y48.301 E17.50923
G1 X35.224 Y32.885 E18.06778
G1 X35.557 Y32.215 E18.09267
G1 X35.96 Y31.584 E18.11757
G1 X36.427 Y31 E18.14244
G0 F6000 X36.768 Y31.22
G1 F1200 X37.082 Y30.897 E18.15742
G1 X37.627 Y30.417 E18.18158
G1 X38.222 Y30 E18.20574
G1 X38.859 Y29.651 E18.2299
G1 X39.267 Y29.473 E18.24471
G1 X39.458 Y29.397 E18.25154
G1 X39.469 Y29.392 E18.25195
G1 X52.573 Y24.205 E18.72069
G1 X54.794 Y23.304 E18.80041
G1 X55.481 Y23.068 E18.82457
G1 X56.19 Y22.91 E18.84873
G1 X56.912 Y22.83 E18.87289
G1 X57.638 Y22.83 E18.89704
G1 X58.425 Y22.921 E18.92339
G1 X58.538 Y22.941 E18.9272
G1 X59.245 Y23.107 E18.95136
G1 X59.93 Y23.349 E18.97552
G1 X60.584 Y23.665 E18.99968
G1 X60.7 Y23.738 E19.00424
G1 X75.147 Y30.243 E19.53121
G1 X75.792 Y30.577 E19.55537
G1 X76.396 Y30.98 E19.57952
G1 X76.952 Y31.447 E19.60367
G1 X77.454 Y31.973 E19.62785
G1 X77.929 Y32.6 E19.65401
G1 X77.993 Y32.696 E19.65785
G1 X78.362 Y33.322 E19.68202
G1 X78.66 Y33.984 E19.70617
G1 X78.883 Y34.675 E19.73032
G1 X78.897 Y34.742 E19.73259
G1 X84.512 Y49.942 E20.27154
G1 X84.726 Y50.636 E20.29569
G1 X84.862 Y51.35 E20.31987
G1 X84.919 Y52.074 E20.34402
G1 X84.896 Y52.8 E20.36818
G1 X84.794 Y53.519 E20.39234
G1 X84.707 Y53.896 E20.4052
G1 X84.648 Y54.122 E20.41297
G1 X84.323 Y55.068 E20.44624
G1 X84.151 Y55.467 E20.46069
G1 X84.149 Y55.472 E20.46087
G1 X77.598 Y70.632 E21.01016
G1 X77.273 Y71.282 E21.03433
G1 X76.879 Y71.892 E21.05848
G1 X76.421 Y72.456 E21.08265
G1 X75.982 Y72.895 E21.1033
G1 X75.425 Y73.361 E21.12745
G1 X74.82 Y73.762 E21.15159
G1 X73.908 Y74.207 E21.18534
G1 X60.639 Y79.459 E21.65999
G1 X58.401 Y80.369 E21.74034
G1 X57.714 Y80.605 E21.7645
G1 X57.005 Y80.764 E21.78867
G1 X56.283 Y80.845 E21.81283
G1 X55.557 Y80.845 E21.83698
G1 X54.765 Y80.754 E21.8635
G1 X54.652 Y80.734 E21.86731
G1 X53.945 Y80.568 E21.89147
G1 X53.26 Y80.326 E21.91563
G1 X52.606 Y80.01 E21.93979
G1 X52.485 Y79.934 E21.94454
G1 X38.043 Y73.434 E22.47129
G1 X37.398 Y73.099 E22.49547
G1 X36.794 Y72.696 E22.51962
G1 X36.238 Y72.23 E22.54375
G1 X35.736 Y71.704 E22.56793
G1 X35.26 Y71.076 E22.59414
G1 X35.196 Y70.98 E22.59798
G1 X34.827 Y70.354 E22.62214
G1 X34.529 Y69.692 E22.64629
G1 X34.306 Y69.001 E22.67044
G1 X34.292 Y68.934 E22.67272
G1 X28.678 Y53.733 E23.21168
G1 X28.464 Y53.038 E23.23587
G1 X28.328 Y52.325 E23.26001
G1 X28.271 Y51.601 E23.28417
G1 X28.294 Y50.875 E23.30833
G1 X28.396 Y50.156 E23.33248
G1 X28.48 Y49.792 E23.3449
G1 X28.538 Y49.568 E23.3526
G1 X28.858 Y48.627 E23.38566
G1 X28.92 Y48.482 E23.3909
G1 X28.93 Y48.459 E23.39174
G1 X35.591 Y33.043 E23.95029
G1 X35.916 Y32.393 E23.97446
G1 X36.31 Y31.783 E23.99861
G1 X36.768 Y31.22 E24.02275
G0 F6000 X36.659 Y31.983
G1 F1200 X37.305 Y31.238 E24.05555
G1 X37.362 Y31.182 E24.05821
G1 X37.891 Y30.718 E24.08161
G1 X38.47 Y30.317 E24.10504
G1 X39.09 Y29.984 E24.12844
G1 X39.415 Y29.844 E24.14021
G1 X39.606 Y29.768 E24.14705
G1 X39.616 Y29.764 E24.14741
G1 X52.72 Y24.577 E24.61615
G1 X54.945 Y23.675 E24.69601
G1 X55.611 Y23.448 E24.71941
G1 X56.299 Y23.297 E24.74284
G1 X56.999 Y23.226 E24.76624
G1 X57.703 Y23.235 E24.78966
G1 X58.356 Y23.315 E24.81154
G1 X58.469 Y23.335 E24.81535
G1 X59.154 Y23.497 E24.83877
G1 X59.816 Y23.735 E24.86216
G1 X60.447 Y24.047 E24.88558
G1 X60.529 Y24.1 E24.88882
G1 X74.983 Y30.608 E25.41605
G1 X75.607 Y30.933 E25.43945
G1 X76.191 Y31.326 E25.46286
G1 X76.726 Y31.784 E25.48629
G1 X77.206 Y32.299 E25.5097
G1 X77.596 Y32.822 E25.5314
G1 X77.66 Y32.918 E25.53524
G1 X78.016 Y33.525 E25.55864
G1 X78.302 Y34.168 E25.58205
G1 X78.513 Y34.84 E25.60548
G1 X78.52 Y34.874 E25.60663
G1 X84.137 Y50.08 E26.14579
G1 X84.343 Y50.754 E26.16923
G1 X84.471 Y51.446 E26.19263
G1 X84.52 Y52.148 E26.21604
G1 X84.49 Y52.851 E26.23944
G1 X84.32 Y53.795 E26.27135
G1 X84.261 Y54.021 E26.27911
G1 X83.956 Y54.909 E26.31034
G1 X83.784 Y55.308 E26.32479
G1 X83.781 Y55.313 E26.32499
G1 X77.23 Y70.473 E26.87427
G1 X76.915 Y71.103 E26.8977
G1 X76.53 Y71.692 E26.92111
G1 X76.081 Y72.234 E26.94452
G1 X75.709 Y72.603 E26.96194
G1 X75.168 Y73.053 E26.98535
G1 X74.58 Y73.439 E27.00874
G1 X73.761 Y73.835 E27.039
G1 X60.545 Y79.066 E27.51174
G1 X58.25 Y79.999 E27.59414
G1 X57.584 Y80.226 E27.61755
G1 X56.896 Y80.377 E27.64097
G1 X56.196 Y80.449 E27.66438
G1 X55.492 Y80.441 E27.6878
G1 X54.834 Y80.36 E27.70985
G1 X54.721 Y80.34 E27.71366
G1 X54.036 Y80.178 E27.73707
G1 X53.374 Y79.94 E27.76047
G1 X52.743 Y79.628 E27.78388
G1 X52.657 Y79.572 E27.7873
G1 X38.207 Y73.069 E28.31433
G1 X37.583 Y72.744 E28.33773
G1 X36.999 Y72.35 E28.36117
G1 X36.464 Y71.893 E28.38457
G1 X35.984 Y71.378 E28.40798
G1 X35.593 Y70.854 E28.42973
G1 X35.529 Y70.758 E28.43357
G1 X35.173 Y70.151 E28.45697
G1 X34.887 Y69.508 E28.48038
G1 X34.676 Y68.836 E28.5038
G1 X34.669 Y68.8 E28.50502
G1 X29.053 Y53.594 E29.04417
G1 X28.847 Y52.921 E29.06758
G1 X28.719 Y52.229 E29.09098
G1 X28.67 Y51.526 E29.11442
G1 X28.7 Y50.823 E29.13783
G1 X28.867 Y49.892 E29.16928
G1 X28.925 Y49.668 E29.17698
G1 X29.226 Y48.784 E29.20804
G1 X29.288 Y48.639 E29.21329
G1 X29.298 Y48.618 E29.21406
G1 X35.959 Y33.202 E29.77261
G1 X36.274 Y32.572 E29.79604
G1 X36.659 Y31.983 E29.81944
G0 F6000 X37.007 Y32.184
G1 F1200 X37.585 Y31.524 E29.84862
G1 X37.642 Y31.468 E29.85128
G1 X38.155 Y31.02 E29.87394
G1 X38.717 Y30.635 E29.89659
G1 X39.563 Y30.216 E29.92799
G1 X39.754 Y30.14 E29.93483
G1 X39.763 Y30.136 E29.93516
G1 X52.841 Y24.959 E30.40297
G1 X55.095 Y24.045 E30.48387
G1 X55.74 Y23.827 E30.50652
G1 X56.406 Y23.686 E30.52916
G1 X57.084 Y23.623 E30.55181
G1 X57.764 Y23.641 E30.57443
G1 X58.399 Y23.729 E30.59575
G1 X59.061 Y23.887 E30.61839
G1 X59.7 Y24.121 E30.64102
G1 X60.308 Y24.429 E30.66369
G1 X60.353 Y24.459 E30.66549
G1 X74.818 Y30.972 E31.19312
G1 X75.422 Y31.288 E31.21579
G1 X75.984 Y31.672 E31.23843
G1 X76.497 Y32.119 E31.26106
G1 X76.955 Y32.624 E31.28374
G1 X77.263 Y33.044 E31.30106
G1 X77.327 Y33.14 E31.3049
G1 X77.671 Y33.727 E31.32753
G1 X77.943 Y34.351 E31.35017
G1 X78.141 Y35.003 E31.37283
G1 X83.762 Y50.219 E31.91234
G1 X83.96 Y50.871 E31.93501
G1 X84.08 Y51.541 E31.95765
G1 X84.121 Y52.22 E31.98027
G1 X84.082 Y52.9 E32.00292
G1 X83.933 Y53.694 E32.02979
G1 X83.874 Y53.92 E32.03756
G1 X83.588 Y54.751 E32.06679
G1 X83.416 Y55.15 E32.08124
G1 X83.414 Y55.155 E32.08142
G1 X76.863 Y70.315 E32.63071
G1 X76.557 Y70.923 E32.65335
G1 X76.181 Y71.491 E32.67601
G1 X75.742 Y72.011 E32.69864
G1 X75.436 Y72.31 E32.71287
G1 X74.912 Y72.745 E32.73552
G1 X74.341 Y73.115 E32.75815
G1 X73.614 Y73.463 E32.78496
G1 X60.345 Y78.715 E33.2596
G1 X58.099 Y79.628 E33.34024
G1 X57.455 Y79.847 E33.36286
G1 X56.789 Y79.989 E33.38551
G1 X56.111 Y80.052 E33.40816
G1 X55.43 Y80.035 E33.43082
G1 X54.904 Y79.966 E33.44846
G1 X54.791 Y79.946 E33.45228
G1 X54.129 Y79.788 E33.47492
G1 X53.49 Y79.554 E33.49755
G1 X52.882 Y79.246 E33.52022
G1 X52.828 Y79.21 E33.52238
G1 X38.372 Y72.704 E34.04963
G1 X37.768 Y72.389 E34.07229
G1 X37.206 Y72.005 E34.09493
G1 X36.692 Y71.557 E34.11761
G1 X36.235 Y71.053 E34.14024
G1 X35.926 Y70.632 E34.15761
G1 X35.862 Y70.536 E34.16144
G1 X35.518 Y69.949 E34.18407
G1 X35.246 Y69.325 E34.20671
G1 X35.048 Y68.673 E34.22938
G1 X35.047 Y68.67 E34.22948
G1 X29.428 Y53.455 E34.76894
G1 X29.23 Y52.804 E34.79157
G1 X29.11 Y52.134 E34.81421
G1 X29.069 Y51.454 E34.83687
G1 X29.108 Y50.774 E34.85952
G1 X29.254 Y49.992 E34.88598
G1 X29.312 Y49.768 E34.89368
G1 X29.594 Y48.942 E34.92271
G1 X29.656 Y48.797 E34.92795
G1 X29.665 Y48.776 E34.92871
G1 X36.326 Y33.36 E35.48727
G1 X36.632 Y32.752 E35.50991
G1 X37.007 Y32.184 E35.53255
G0 F6000 X37.355 Y32.387
G1 F1200 X37.866 Y31.809 E35.55821
G1 X37.923 Y31.753 E35.56086
G1 X38.418 Y31.322 E35.58269
G1 X38.963 Y30.954 E35.60457
G1 X39.711 Y30.588 E35.63226
