;FLAVOR:Marlin
;TIME:9102
;Filament used: 5.00805m
;Layer height: 0.2
;MINX:15.728
;MINY:18.944
;MINZ:0.2
;MAXX:111.714
;MAXY:101.154
;MAXZ:13
;Generated with Cura_SteamEngine 4.6.0
M140 S50
M105
M190 S50
M104 S200
M105
M109 S200
M82 ;absolute extrusion mode
M201 X500.00 Y500.00 Z100.00 E5000.00 ;Setup machine max acceleration
M203 X500.00 Y500.00 Z10.00 E50.00 ;Setup machine max feedrate
M204 P500.00 R1000.00 T500.00 ;Setup Print/Retract/Travel acceleration
M205 X8.00 Y8.00 Z0.40 E5.00 ;Setup Jerk
M220 S100 ;Reset Feedrate
M221 S100 ;Reset Flowrate

G28 ;Home

G92 E0 ;Reset Extruder
G1 Z2.0 F3000 ;Move Z Axis up
G1 X10.1 Y20 Z0.28 F5000.0 ;Move to start position
G1 X10.1 Y200.0 Z0.28 F1500.0 E15 ;Draw the first line
G1 X10.4 Y200.0 Z0.28 F5000.0 ;Move to side a little
G1 X10.4 Y20 Z0.28 F1500.0 E30 ;Draw the second line
G92 E0 ;Reset Extruder
G1 Z2.0 F3000 ;Move Z Axis up

G92 E0
G92 E0
G1 F2700 E-5
;LAYER_COUNT:65
;LAYER:0
M107
G0 F6000 X18.747 Y20.675 Z0.2
;TYPE:SKIRT
G1 F2700 E0
G1 F1200 X19.386 Y20.211 E0.02627
G1 X20.068 Y19.813 E0.05253
G1 X20.787 Y19.487 E0.07879
G1 X21.536 Y19.236 E0.10506
G1 X22.306 Y19.061 E0.13132
G1 X23.09 Y18.965 E0.15759
G1 X23.644 Y18.945 E0.17603
G1 X34.657 Y18.944 E0.54233
G1 X35.446 Y18.984 E0.5686
G1 X36.085 Y19.081 E0.5901
G1 X36.161 Y19.064 E0.59269
G1 X36.945 Y18.966 E0.61897
G1 X37.517 Y18.945 E0.63801
G1 X43.344 Y18.944 E0.83181
G1 X44.132 Y18.984 E0.85805
G1 X44.913 Y19.103 E0.88433
G1 X45.721 Y18.982 E0.9115
G1 X46.48 Y18.945 E0.93678
G1 X53.126 Y18.944 E1.15783
G1 X53.915 Y18.984 E1.1841
G1 X54.695 Y19.103 E1.21034
G1 X55.762 Y19.402 E1.2472
G1 X56.493 Y19.7 E1.27346
G1 X57.19 Y20.07 E1.2997
G1 X57.977 Y20.608 E1.33141
G1 X58.224 Y20.8 E1.34182
G1 X58.608 Y21.131 E1.35868
G1 X58.782 Y20.961 E1.36677
G1 X59.466 Y20.423 E1.39571
G1 X59.569 Y20.351 E1.39989
G1 X60.238 Y19.932 E1.42615
G1 X60.947 Y19.583 E1.45243
G1 X61.687 Y19.307 E1.4787
G1 X62.451 Y19.107 E1.50497
G1 X63.231 Y18.986 E1.53122
G1 X64.038 Y18.944 E1.5581
G1 X85.018 Y18.945 E2.25589
G1 X85.807 Y18.985 E2.28217
G1 X86.588 Y19.105 E2.30845
G1 X87.352 Y19.302 E2.33469
G1 X88.093 Y19.577 E2.36098
G1 X88.802 Y19.924 E2.38724
G1 X89.472 Y20.342 E2.4135
G1 X89.995 Y20.74 E2.43536
G1 X90.106 Y20.832 E2.44015
G1 X90.688 Y21.366 E2.46643
G1 X91.213 Y21.956 E2.49269
G1 X91.675 Y22.596 E2.51895
G1 X92.071 Y23.28 E2.54523
G1 X92.395 Y24 E2.57149
G1 X92.644 Y24.749 E2.59775
G1 X92.803 Y25.441 E2.62136
G1 X93.291 Y28.123 E2.71203
G1 X93.393 Y28.906 E2.73829
G1 X93.415 Y29.695 E2.76455
G1 X93.357 Y30.483 E2.79083
G1 X93.258 Y31.087 E2.81118
G1 X93.068 Y31.854 E2.83746
G1 X92.801 Y32.597 E2.86372
G1 X92.461 Y33.31 E2.89
G1 X92.057 Y33.975 E2.91588
G1 X89.715 Y37.426 E3.05459
G1 X90.206 Y37.961 E3.07875
G1 X90.72 Y38.657 E3.10752
G1 X90.802 Y38.782 E3.1125
G1 X91.201 Y39.463 E3.13875
G1 X91.529 Y40.181 E3.165
G1 X91.767 Y40.882 E3.18962
G1 X92.289 Y41.043 E3.20779
G1 X92.396 Y41.085 E3.21162
G1 X93.116 Y41.411 E3.2379
G1 X93.798 Y41.807 E3.26413
G1 X94.438 Y42.271 E3.29043
G1 X95.027 Y42.796 E3.31667
G1 X95.799 Y43.684 E3.3558
G1 X99.149 Y48.177 E3.54221
G1 X99.589 Y48.833 E3.56848
G1 X99.959 Y49.53 E3.59473
G1 X100.258 Y50.261 E3.62099
G1 X100.554 Y51.36 E3.65885
G1 X100.571 Y51.448 E3.66183
G1 X100.682 Y52.229 E3.68807
G1 X100.712 Y53.019 E3.71436
G1 X100.663 Y53.807 E3.74062
G1 X100.498 Y54.746 E3.77233
G1 X100.227 Y55.876 E3.81098
G1 X100.004 Y56.634 E3.83726
G1 X99.706 Y57.365 E3.86352
G1 X99.367 Y58.002 E3.88752
G1 X103.806 Y59.521 E4.04356
G1 X104.539 Y59.815 E4.06983
G1 X105.239 Y60.18 E4.09609
G1 X105.911 Y60.625 E4.1229
G1 X106.526 Y61.12 E4.14915
G1 X107.088 Y61.675 E4.17542
G1 X107.657 Y62.375 E4.20543
G1 X109.511 Y64.945 E4.31083
G1 X109.94 Y65.608 E4.33709
G1 X110.3 Y66.311 E4.36336
G1 X110.586 Y67.046 E4.38959
G1 X110.797 Y67.807 E4.41586
G1 X110.921 Y68.503 E4.43937
G1 X110.993 Y69.289 E4.46562
G1 X110.985 Y70.079 E4.4919
G1 X110.897 Y70.864 E4.51817
G1 X110.73 Y71.636 E4.54445
G1 X110.55 Y72.214 E4.56458
G1 X109.463 Y75.278 E4.67271
G1 X109.549 Y75.361 E4.67669
G1 X110.059 Y75.964 E4.70295
G1 X110.567 Y76.72 E4.73325
G1 X110.632 Y76.83 E4.7375
G1 X110.999 Y77.529 E4.76376
G1 X111.293 Y78.262 E4.79002
G1 X111.512 Y79.021 E4.8163
G1 X111.653 Y79.798 E4.84256
G1 X111.714 Y80.585 E4.86882
G1 X111.689 Y81.453 E4.8977
G1 X110.801 Y91.994 E5.24954
G1 X110.695 Y92.776 E5.27578
G1 X110.511 Y93.544 E5.30205
G1 X110.25 Y94.289 E5.32831
G1 X109.914 Y95.004 E5.35458
G1 X109.573 Y95.585 E5.37699
G1 X109.118 Y96.231 E5.40327
G1 X108.6 Y96.827 E5.42953
G1 X108.025 Y97.368 E5.45579
G1 X107.398 Y97.848 E5.48206
G1 X106.934 Y98.144 E5.50036
G1 X106.248 Y98.548 E5.52684
G1 X103.699 Y100.059 E5.6254
G1 X103 Y100.427 E5.65167
G1 X102.268 Y100.722 E5.67792
G1 X101.509 Y100.942 E5.7042
G1 X100.755 Y101.081 E5.7297
G1 X99.969 Y101.154 E5.75596
G1 X99.179 Y101.147 E5.78224
G1 X98.394 Y101.061 E5.8085
G1 X97.497 Y100.861 E5.83907
G1 X69.261 Y92.798 E6.81574
G1 X68.514 Y92.543 E6.84199
G1 X67.796 Y92.214 E6.86826
G1 X67.115 Y91.814 E6.89453
G1 X66.478 Y91.347 E6.9208
G1 X65.748 Y90.67 E6.95391
G1 X65.672 Y90.59 E6.95758
G1 X65.158 Y89.991 E6.98384
G1 X64.707 Y89.343 E7.0101
G1 X64.324 Y88.652 E7.03637
G1 X64.241 Y88.459 E7.04336
G1 X64.13 Y88.383 E7.04783
G1 X63.527 Y87.874 E7.07408
G1 X62.924 Y87.246 E7.10304
G1 X62.433 Y86.627 E7.12932
G1 X62.008 Y85.961 E7.15559
G1 X61.652 Y85.256 E7.18186
G1 X61.369 Y84.519 E7.20812
G1 X61.216 Y83.985 E7.2266
G1 X60.461 Y80.957 E7.33039
G1 X60.309 Y80.182 E7.35666
G1 X60.236 Y79.396 E7.38291
G1 X60.237 Y79.281 E7.38674
G1 X60.113 Y79.035 E7.3959
G1 X59.83 Y78.298 E7.42216
G1 X59.678 Y77.768 E7.4405
G1 X58.92 Y74.735 E7.54448
G1 X58.767 Y73.96 E7.57075
G1 X58.694 Y73.174 E7.59701
G1 X58.701 Y72.384 E7.62328
G1 X58.787 Y71.599 E7.64955
G1 X58.844 Y71.311 E7.65931
G1 X58.705 Y71.159 E7.66616
G1 X58.233 Y70.527 E7.6924
G1 X57.827 Y69.849 E7.71868
G1 X57.491 Y69.135 E7.74493
G1 X57.227 Y68.381 E7.7715
G1 X56.695 Y66.571 E7.83425
G1 X56.604 Y66.193 E7.84718
G1 X56.346 Y65.932 E7.85939
G1 X55.096 Y64.516 E7.92221
G1 X54.604 Y63.898 E7.94848
G1 X54.178 Y63.234 E7.97472
G1 X53.82 Y62.53 E8.00099
G1 X53.742 Y62.328 E8.00819
G1 X53.631 Y62.27 E8.01236
G1 X52.973 Y61.834 E8.03861
G1 X52.362 Y61.334 E8.06487
G1 X51.742 Y60.703 E8.09429
G1 X50.5 Y59.289 E8.15689
G1 X50.009 Y58.671 E8.18314
G1 X49.584 Y58.005 E8.20942
G1 X49.228 Y57.3 E8.23569
G1 X49.157 Y57.116 E8.24225
G1 X49.128 Y57.101 E8.24333
G1 X48.465 Y56.673 E8.26958
G1 X47.848 Y56.18 E8.29585
G1 X47.157 Y55.485 E8.32844
G1 X45.908 Y54.061 E8.39144
G1 X45.418 Y53.442 E8.4177
G1 X44.993 Y52.776 E8.44398
G1 X44.638 Y52.071 E8.47023
G1 X44.573 Y51.9 E8.47632
G1 X44.527 Y51.877 E8.47803
G1 X43.864 Y51.448 E8.50429
G1 X43.248 Y50.953 E8.53057
G1 X42.588 Y50.291 E8.56167
G1 X41.338 Y48.877 E8.62444
G1 X40.846 Y48.26 E8.65069
G1 X40.418 Y47.596 E8.67696
G1 X40.095 Y46.961 E8.70066
G1 X39.346 Y46.573 E8.72871
G1 X39.108 Y46.438 E8.73781
G1 X38.424 Y46.043 E8.76408
G1 X37.784 Y45.581 E8.79034
G1 X37.193 Y45.057 E8.81661
G1 X37.024 Y44.873 E8.82492
G1 X36.879 Y44.856 E8.82977
G1 X36.108 Y44.686 E8.85603
G1 X35.358 Y44.439 E8.88229
G1 X34.583 Y44.089 E8.91058
G1 X32.91 Y43.222 E8.97325
G1 X32.228 Y42.824 E8.99951
G1 X31.59 Y42.359 E9.02577
G1 X31.002 Y41.831 E9.05206
G1 X30.553 Y41.337 E9.07426
G1 X29.983 Y41.282 E9.09331
G1 X29.209 Y41.126 E9.11957
G1 X28.454 Y40.892 E9.14586
G1 X27.682 Y40.562 E9.17378
G1 X25.988 Y39.726 E9.23661
G1 X25.299 Y39.341 E9.26286
G1 X24.651 Y38.888 E9.28916
G1 X24.053 Y38.372 E9.31543
G1 X23.511 Y37.799 E9.34166
G1 X23.029 Y37.173 E9.36794
G1 X22.635 Y36.544 E9.39263
G1 X22.361 Y36.012 E9.41253
G1 X20.598 Y35.139 E9.47796
G1 X19.909 Y34.754 E9.50421
G1 X19.262 Y34.3 E9.5305
G1 X18.665 Y33.784 E9.55675
G1 X18.334 Y33.449 E9.57241
G1 X17.822 Y32.847 E9.5987
G1 X17.373 Y32.198 E9.62494
G1 X16.993 Y31.506 E9.6512
G1 X16.79 Y31.053 E9.66771
G1 X16.309 Y29.879 E9.70991
G1 X16.047 Y29.134 E9.73618
G1 X15.862 Y28.367 E9.76242
G1 X15.755 Y27.584 E9.7887
G1 X15.728 Y26.795 E9.81496
G1 X15.781 Y26.007 E9.84123
G1 X15.913 Y25.228 E9.86751
G1 X16.123 Y24.467 E9.89377
G1 X16.409 Y23.731 E9.92003
G1 X16.769 Y23.028 E9.9463
G1 X17.037 Y22.595 E9.96323
G1 X17.155 Y22.418 E9.97031
G1 X17.626 Y21.784 E9.99658
G1 X18.158 Y21.201 E10.02283
G1 X18.747 Y20.675 E10.04909
G0 F6000 X19.045 Y20.949
G1 F1200 X19.671 Y20.502 E10.07468
G1 X20.341 Y20.124 E10.10027
G1 X21.046 Y19.816 E10.12585
G1 X21.779 Y19.584 E10.15143
G1 X22.533 Y19.429 E10.17703
G1 X23.644 Y19.345 E10.21409
G1 X34.657 Y19.344 E10.58038
G1 X35.425 Y19.384 E10.60596
G1 X36.103 Y19.49 E10.62878
G1 X36.329 Y19.441 E10.63647
G1 X37.094 Y19.357 E10.66207
G1 X37.517 Y19.345 E10.67614
G1 X43.344 Y19.344 E10.86995
G1 X44.112 Y19.384 E10.89553
G1 X44.872 Y19.503 E10.92112
G1 X44.926 Y19.517 E10.92297
G1 X45.098 Y19.475 E10.92886
G1 X45.86 Y19.371 E10.95444
G1 X46.48 Y19.345 E10.97508
G1 X53.126 Y19.344 E11.19613
G1 X53.894 Y19.384 E11.2217
G1 X54.654 Y19.503 E11.24729
G1 X55.63 Y19.78 E11.28103
G1 X56.342 Y20.071 E11.30662
G1 X57.02 Y20.434 E11.3322
G1 X57.732 Y20.924 E11.36094
G1 X57.979 Y21.116 E11.37135
G1 X58.56 Y21.618 E11.39689
G1 X58.615 Y21.677 E11.39957
G1 X59.121 Y21.195 E11.42281
G1 X59.695 Y20.751 E11.44695
G1 X59.798 Y20.679 E11.45113
G1 X60.451 Y20.272 E11.47672
G1 X61.142 Y19.934 E11.50231
G1 X61.864 Y19.67 E11.52787
G1 X62.61 Y19.483 E11.55345
G1 X63.372 Y19.374 E11.57906
G1 X64.038 Y19.344 E11.60123
G1 X85.018 Y19.345 E12.29903
G1 X85.786 Y19.385 E12.32461
G1 X86.546 Y19.505 E12.3502
G1 X87.29 Y19.702 E12.37579
G1 X88.008 Y19.976 E12.40136
G1 X88.695 Y20.323 E12.42695
G1 X89.342 Y20.739 E12.45254
G1 X89.851 Y21.14 E12.47409
G1 X90.417 Y21.66 E12.49965
G1 X90.926 Y22.237 E12.52524
G1 X91.372 Y22.864 E12.55084
G1 X91.751 Y23.533 E12.57641
G1 X92.058 Y24.239 E12.60202
G1 X92.29 Y24.972 E12.62759
G1 X92.409 Y25.512 E12.64598
G1 X92.897 Y28.194 E12.73665
G1 X92.996 Y28.957 E12.76224
G1 X93.014 Y29.726 E12.78782
G1 X92.953 Y30.493 E12.81341
G1 X92.865 Y31.011 E12.83089
G1 X92.679 Y31.757 E12.85646
G1 X92.417 Y32.48 E12.88204
G1 X92.081 Y33.172 E12.90762
G1 X91.726 Y33.75 E12.93018
G1 X89.191 Y37.487 E13.08038
G1 X89.462 Y37.734 E13.09257
G1 X89.974 Y38.309 E13.11818
G1 X90.385 Y38.876 E13.14147
G1 X90.467 Y39.001 E13.14644
G1 X90.855 Y39.665 E13.17202
G1 X91.172 Y40.366 E13.19761
G1 X91.415 Y41.096 E13.2232
G1 X91.436 Y41.194 E13.22653
G1 X92.143 Y41.416 E13.25118
G1 X92.25 Y41.458 E13.255
G1 X92.95 Y41.776 E13.28058
G1 X93.614 Y42.164 E13.30615
G1 X94.234 Y42.62 E13.33175
G1 X94.803 Y43.137 E13.35732
G1 X95.478 Y43.923 E13.39178
G1 X98.828 Y48.416 E13.57819
G1 X99.256 Y49.055 E13.60377
G1 X99.614 Y49.736 E13.62936
G1 X99.9 Y50.45 E13.65494
G1 X100.162 Y51.435 E13.68884
G1 X100.179 Y51.523 E13.69182
G1 X100.285 Y52.285 E13.71741
G1 X100.312 Y53.054 E13.743
G1 X100.259 Y53.821 E13.76857
G1 X100.109 Y54.653 E13.79669
G1 X99.838 Y55.783 E13.83534
G1 X99.62 Y56.52 E13.8609
G1 X99.327 Y57.231 E13.88648
G1 X98.961 Y57.908 E13.91208
G1 X98.752 Y58.214 E13.9244
G1 X103.676 Y59.9 E14.09751
G1 X104.39 Y60.186 E14.12309
G1 X105.07 Y60.545 E14.14867
G1 X105.676 Y60.948 E14.17287
G1 X106.275 Y61.432 E14.19849
G1 X106.82 Y61.975 E14.22407
G1 X107.332 Y62.609 E14.25118
G1 X109.186 Y65.179 E14.35658
G1 X109.603 Y65.825 E14.38215
G1 X109.951 Y66.511 E14.40774
G1 X110.225 Y67.23 E14.43333
G1 X110.424 Y67.973 E14.45891
G1 X110.525 Y68.559 E14.47869
G1 X110.594 Y69.326 E14.5043
G1 X110.583 Y70.095 E14.52988
G1 X110.492 Y70.858 E14.55544
G1 X110.323 Y71.609 E14.58104
G1 X110.173 Y72.08 E14.59748
G1 X109 Y75.386 E14.71416
G1 X109.312 Y75.693 E14.72872
G1 X109.801 Y76.286 E14.75428
G1 X110.223 Y76.923 E14.77969
G1 X110.288 Y77.033 E14.78394
G1 X110.644 Y77.715 E14.80953
G1 X110.928 Y78.43 E14.83512
G1 X111.136 Y79.17 E14.86069
G1 X111.266 Y79.929 E14.8863
G1 X111.316 Y80.696 E14.91186
G1 X111.291 Y81.419 E14.93592
G1 X110.403 Y91.96 E15.28776
G1 X110.299 Y92.722 E15.31334
G1 X110.116 Y93.469 E15.33892
G1 X109.856 Y94.193 E15.36451
G1 X109.523 Y94.887 E15.39011
G1 X109.234 Y95.372 E15.40889
G1 X108.791 Y96 E15.43445
G1 X108.284 Y96.579 E15.46004
G1 X107.72 Y97.102 E15.48563
G1 X107.105 Y97.564 E15.51121
G1 X106.731 Y97.799 E15.5259
G1 X106.063 Y98.193 E15.5517
G1 X103.495 Y99.715 E15.65098
G1 X102.814 Y100.072 E15.67656
G1 X102.099 Y100.357 E15.70216
G1 X101.359 Y100.566 E15.72773
G1 X100.698 Y100.685 E15.75007
G1 X99.932 Y100.755 E15.77565
G1 X99.163 Y100.746 E15.80123
G1 X98.399 Y100.656 E15.82682
G1 X97.607 Y100.477 E15.85383
G1 X69.371 Y92.414 E16.8305
G1 X68.643 Y92.164 E16.8561
G1 X67.946 Y91.841 E16.88165
G1 X67.285 Y91.446 E16.90726
G1 X66.669 Y90.986 E16.93283
G1 X66.038 Y90.395 E16.96159
G1 X65.962 Y90.315 E16.96526
G1 X65.462 Y89.73 E16.99085
G1 X65.025 Y89.097 E17.01644
G1 X64.657 Y88.422 E17.04201
G1 X64.56 Y88.191 E17.05034
G1 X64.325 Y88.028 E17.05985
G1 X63.741 Y87.527 E17.08544
G1 X63.224 Y86.982 E17.11043
G1 X62.747 Y86.378 E17.13603
G1 X62.336 Y85.728 E17.16161
G1 X61.994 Y85.039 E17.18719
G1 X61.725 Y84.319 E17.21275
G1 X61.604 Y83.888 E17.22764
G1 X60.849 Y80.86 E17.33144
G1 X60.702 Y80.105 E17.35702
G1 X60.634 Y79.339 E17.3826
G1 X60.636 Y79.184 E17.38776
G1 X60.455 Y78.818 E17.40134
G1 X60.186 Y78.098 E17.4269
G1 X60.066 Y77.671 E17.44165
G1 X59.308 Y74.638 E17.54563
G1 X59.16 Y73.883 E17.57122
G1 X59.092 Y73.117 E17.5968
G1 X59.104 Y72.348 E17.62238
G1 X59.195 Y71.584 E17.64797
G1 X59.276 Y71.19 E17.66135
G1 X58.988 Y70.873 E17.67559
G1 X58.532 Y70.254 E17.70116
G1 X58.142 Y69.591 E17.72675
G1 X57.824 Y68.89 E17.75235
G1 X57.61 Y68.268 E17.77423
G1 X57.078 Y66.458 E17.83698
G1 X56.969 Y65.999 E17.85267
G1 X56.646 Y65.667 E17.86807
G1 X55.396 Y64.251 E17.93089
G1 X54.918 Y63.649 E17.95646
G1 X54.505 Y63 E17.98205
G1 X54.161 Y62.312 E18.00763
G1 X54.06 Y62.042 E18.01722
G1 X53.784 Y61.895 E18.02762
G1 X53.146 Y61.464 E18.05323
G1 X52.557 Y60.97 E18.0788
G1 X52.042 Y60.44 E18.10338
G1 X50.8 Y59.026 E18.16597
G1 X50.323 Y58.422 E18.19157
G1 X49.912 Y57.772 E18.21715
G1 X49.57 Y57.083 E18.24273
G1 X49.474 Y56.827 E18.25183
G1 X49.276 Y56.724 E18.25925
G1 X48.634 Y56.301 E18.28482
G1 X48.039 Y55.814 E18.31039
G1 X47.458 Y55.222 E18.33798
G1 X46.209 Y53.798 E18.40098
G1 X45.732 Y53.194 E18.42658
G1 X45.321 Y52.544 E18.45216
G1 X44.98 Y51.855 E18.47773
G1 X44.89 Y51.613 E18.48632
G1 X44.675 Y51.501 E18.49438
G1 X44.034 Y51.076 E18.51996
G1 X43.44 Y50.588 E18.54553
G1 X42.888 Y50.026 E18.57173
G1 X41.638 Y48.612 E18.6345
G1 X41.159 Y48.01 E18.66009
G1 X40.745 Y47.362 E18.68566
G1 X40.401 Y46.674 E18.71125
G1 X40.399 Y46.667 E18.71149
G1 X39.53 Y46.218 E18.74402
G1 X39.29 Y46.082 E18.7532
G1 X38.625 Y45.697 E18.77875
G1 X38.003 Y45.244 E18.80435
G1 X37.431 Y44.729 E18.82995
G1 X37.217 Y44.492 E18.84057
G1 X36.886 Y44.451 E18.85166
G1 X36.137 Y44.279 E18.87722
G1 X35.409 Y44.029 E18.90282
G1 X34.767 Y43.734 E18.92632
G1 X33.094 Y42.867 E18.98899
G1 X32.431 Y42.478 E19.01456
G1 X31.811 Y42.023 E19.04014
G1 X31.242 Y41.505 E19.06573
G1 X30.753 Y40.957 E19.09016
G1 X30.748 Y40.957 E19.09033
G1 X29.983 Y40.877 E19.11591
G1 X29.23 Y40.718 E19.14151
G1 X28.498 Y40.482 E19.16709
G1 X27.859 Y40.203 E19.19028
G1 X26.165 Y39.367 E19.25311
G1 X25.494 Y38.991 E19.27869
G1 X24.866 Y38.548 E19.30425
G1 X24.286 Y38.041 E19.32987
G1 X23.763 Y37.478 E19.35543
G1 X23.301 Y36.863 E19.38102
G1 X22.981 Y36.344 E19.4013
G1 X22.659 Y35.714 E19.42483
G1 X20.775 Y34.781 E19.49475
G1 X20.104 Y34.404 E19.52035
G1 X19.477 Y33.96 E19.54591
G1 X18.675 Y33.227 E19.58204
G1 X18.625 Y33.174 E19.58447
G1 X18.127 Y32.588 E19.61004
G1 X17.693 Y31.953 E19.63563
G1 X17.327 Y31.277 E19.66119
G1 X17.16 Y30.902 E19.67485
G1 X16.679 Y29.728 E19.71704
G1 X16.425 Y29.002 E19.74263
G1 X16.248 Y28.253 E19.76822
G1 X16.149 Y27.49 E19.79381
G1 X16.13 Y26.722 E19.81937
G1 X16.19 Y25.955 E19.84495
G1 X16.331 Y25.198 E19.87057
G1 X16.548 Y24.461 E19.89612
G1 X16.841 Y23.75 E19.9217
G1 X17.37 Y22.817 E19.95737
G1 X17.488 Y22.64 E19.96444
G1 X17.947 Y22.023 E19.99002
G1 X18.468 Y21.457 E20.01561
G1 X19.045 Y20.949 E20.04118
