;FLAVOR:Marlin
;TIME:7166
;Filament used: 4.44571m
;Layer height: 0.2
;MINX:23.858
;MINY:18.411
;MINZ:0.2
;MAXX:89.333
;MAXY:85.26
;MAXZ:35
;Generated with Cura_SteamEngine 4.6.0
M140 S50
M105
M190 S50
M104 S200
M105
M109 S200
M82 ;absolute extrusion mode
M201 X500.00 Y500.00 Z100.00 E5000.00 ;Setup machine max acceleration
M203 X500.00 Y500.00 Z10.00 E50.00 ;Setup machine max feedrate
M204 P500.00 R1000.00 T500.00 ;Setup Print/Retract/Travel acceleration
M205 X8.00 Y8.00 Z0.40 E5.00 ;Setup Jerk
M220 S100 ;Reset Feedrate
M221 S100 ;Reset Flowrate

G28 ;Home

G92 E0 ;Reset Extruder
G1 Z2.0 F3000 ;Move Z Axis up
G1 X10.1 Y20 Z0.28 F5000.0 ;Move to start position
G1 X10.1 Y200.0 Z0.28 F1500.0 E15 ;Draw the first line
G1 X10.4 Y200.0 Z0.28 F5000.0 ;Move to side a little
G1 X10.4 Y20 Z0.28 F1500.0 E30 ;Draw the second line
G92 E0 ;Reset Extruder
G1 Z2.0 F3000 ;Move Z Axis up

G92 E0
G92 E0
G1 F2700 E-5
;LAYER_COUNT:175
;LAYER:0
M107
G0 F6000 X58.944 Y19.332 Z0.2
;TYPE:SKIRT
G1 F2700 E0
G1 F1200 X59.828 Y19.514 E0.03002
G1 X60.694 Y19.773 E0.06008
G1 X61.532 Y20.107 E0.09009
G1 X61.769 Y20.227 E0.09892
G1 X61.772 Y20.22 E0.09918
G1 X62.295 Y20.472 E0.11848
G1 X64.54 Y21.519 E0.20087
G1 X76.174 Y26.761 E0.62529
G1 X76.829 Y27.069 E0.64936
G1 X77.629 Y27.489 E0.67941
G1 X78.388 Y27.978 E0.70944
G1 X79.101 Y28.532 E0.73948
G1 X79.762 Y29.148 E0.76953
G1 X80.366 Y29.819 E0.79955
G1 X80.908 Y30.541 E0.82958
G1 X81.385 Y31.308 E0.85962
G1 X81.791 Y32.115 E0.88967
G1 X82.098 Y32.878 E0.91702
G1 X82.599 Y34.276 E0.96642
G1 X83.182 Y35.956 E1.02556
G1 X87.727 Y48.258 E1.46176
G1 X87.953 Y48.899 E1.48437
G1 X88.215 Y49.764 E1.51443
G1 X88.4 Y50.648 E1.54447
G1 X88.506 Y51.544 E1.57448
G1 X88.533 Y52.291 E1.59934
G1 X88.533 Y52.293 E1.5994
G1 X88.493 Y53.195 E1.62943
G1 X88.373 Y54.09 E1.65947
G1 X88.175 Y54.971 E1.6895
G1 X87.745 Y56.223 E1.73353
G1 X87.548 Y56.69 E1.75039
G1 X87.342 Y57.156 E1.76734
G1 X81.096 Y71.611 E2.29107
G1 X80.824 Y72.217 E2.31317
G1 X80.418 Y73.024 E2.34321
G1 X79.942 Y73.791 E2.37324
G1 X79.4 Y74.514 E2.40329
G1 X78.797 Y75.186 E2.43332
G1 X78.136 Y75.801 E2.46335
G1 X77.424 Y76.356 E2.49338
G1 X76.665 Y76.846 E2.52342
G1 X75.843 Y77.277 E2.55429
G1 X75.717 Y77.336 E2.55892
G1 X75.251 Y77.541 E2.57585
G1 X74.733 Y77.752 E2.59446
G1 X61.626 Y82.944 E3.06335
G1 X60.204 Y83.52 E3.11438
G1 X59.569 Y83.768 E3.13706
G1 X59.568 Y83.765 E3.13716
G1 X58.789 Y84.037 E3.16461
G1 X57.913 Y84.259 E3.19466
G1 X57.021 Y84.402 E3.22471
G1 X56.121 Y84.465 E3.25472
G1 X55.218 Y84.449 E3.28476
G1 X54.32 Y84.353 E3.31479
G1 X53.434 Y84.178 E3.34483
G1 X52.567 Y83.925 E3.37487
G1 X51.428 Y83.459 E3.4158
G1 X50.907 Y83.208 E3.43504
G1 X48.596 Y82.132 E3.51982
G1 X37.041 Y76.928 E3.94132
G1 X36.397 Y76.628 E3.96495
G1 X35.596 Y76.211 E3.99499
G1 X35.046 Y75.869 E4.01653
G1 X35.043 Y75.867 E4.01665
G1 X34.315 Y75.333 E4.04668
G1 X33.636 Y74.737 E4.07673
G1 X33.013 Y74.083 E4.10677
G1 X32.45 Y73.377 E4.1368
G1 X31.952 Y72.624 E4.16683
G1 X31.523 Y71.829 E4.19688
G1 X31.093 Y70.803 E4.23388
G1 X30.578 Y69.37 E4.28452
G1 X30.004 Y67.714 E4.34282
G1 X25.456 Y55.397 E4.77952
G1 X25.235 Y54.768 E4.80169
G1 X24.973 Y53.904 E4.83172
G1 X24.789 Y53.02 E4.86175
G1 X24.685 Y52.123 E4.89179
G1 X24.659 Y51.22 E4.92183
G1 X24.714 Y50.318 E4.95189
G1 X24.848 Y49.425 E4.98192
G1 X25.03 Y48.657 E5.00817
G1 X25.035 Y48.639 E5.00879
G1 X25.451 Y47.437 E5.0511
G1 X25.652 Y46.961 E5.06829
G1 X25.819 Y46.581 E5.08209
G1 X32.076 Y32.106 E5.60659
G1 X32.376 Y31.44 E5.63088
G1 X32.783 Y30.634 E5.66091
G1 X33.26 Y29.867 E5.69095
G1 X33.802 Y29.145 E5.72098
G1 X34.407 Y28.474 E5.75103
G1 X35.068 Y27.859 E5.78106
G1 X35.781 Y27.305 E5.81109
G1 X36.541 Y26.816 E5.84115
G1 X37.486 Y26.33 E5.87649
G1 X37.648 Y26.257 E5.8824
G1 X37.968 Y26.119 E5.89399
G1 X38.36 Y25.959 E5.90808
G1 X51.669 Y20.687 E6.3842
G1 X52.944 Y20.172 E6.42993
G1 X53.618 Y19.908 E6.45401
G1 X54.473 Y19.616 E6.48406
G1 X55.35 Y19.401 E6.51409
G1 X56.242 Y19.264 E6.54411
G1 X57.144 Y19.207 E6.57417
G1 X58.047 Y19.23 E6.60421
G1 X58.944 Y19.332 E6.63424
G0 F6000 X58.901 Y18.921
G1 F1200 X59.805 Y19.096 E6.66487
G1 X60.69 Y19.349 E6.69548
G1 X61.55 Y19.678 E6.72611
G1 X61.942 Y19.868 E6.74059
G1 X61.946 Y19.859 E6.74092
G1 X62.489 Y20.121 E6.76097
G1 X64.726 Y21.163 E6.84305
G1 X76.345 Y26.399 E7.26693
G1 X77 Y26.707 E7.291
G1 X77.815 Y27.134 E7.32161
G1 X78.59 Y27.631 E7.35223
G1 X79.319 Y28.193 E7.38284
G1 X79.997 Y28.816 E7.41347
G1 X80.618 Y29.496 E7.4441
G1 X81.178 Y30.227 E7.47472
G1 X81.672 Y31.004 E7.50535
G1 X82.096 Y31.821 E7.53596
G1 X82.475 Y32.744 E7.56915
G1 X82.977 Y34.144 E7.61862
G1 X83.567 Y35.843 E7.67844
G1 X88.104 Y48.125 E8.11392
G1 X88.33 Y48.766 E8.13652
G1 X88.598 Y49.647 E8.16715
G1 X88.789 Y50.548 E8.19778
G1 X88.901 Y51.462 E8.22841
G1 X88.933 Y52.291 E8.256
G1 X88.933 Y52.293 E8.25607
G1 X88.893 Y53.213 E8.2867
G1 X88.773 Y54.126 E8.31733
G1 X88.575 Y55.025 E8.34794
G1 X88.299 Y55.903 E8.37856
G1 X88.114 Y56.378 E8.39551
G1 X87.914 Y56.852 E8.41262
G1 X87.708 Y57.318 E8.42957
G1 X81.461 Y71.775 E8.95338
G1 X81.189 Y72.381 E8.97547
G1 X80.775 Y73.203 E9.00608
G1 X80.292 Y73.987 E9.03671
G1 X79.743 Y74.726 E9.06733
G1 X79.132 Y75.415 E9.09796
G1 X78.464 Y76.047 E9.12855
G1 X77.742 Y76.62 E9.1592
G1 X76.975 Y77.128 E9.1898
G1 X76.013 Y77.64 E9.22605
G1 X75.887 Y77.699 E9.23068
G1 X75.402 Y77.911 E9.24828
G1 X74.88 Y78.124 E9.26703
G1 X61.795 Y83.307 E9.73514
G1 X60.349 Y83.893 E9.78703
G1 X59.714 Y84.141 E9.80971
G1 X59.713 Y84.138 E9.80981
G1 X58.921 Y84.415 E9.83772
G1 X58.029 Y84.643 E9.86834
G1 X57.121 Y84.793 E9.89895
G1 X56.203 Y84.863 E9.92957
G1 X55.282 Y84.854 E9.9602
G1 X54.366 Y84.764 E9.99082
G1 X53.461 Y84.595 E10.02144
G1 X52.574 Y84.349 E10.05205
G1 X51.711 Y84.026 E10.0827
G1 X51.255 Y83.82 E10.09934
G1 X50.68 Y83.543 E10.12057
G1 X48.467 Y82.513 E10.20176
G1 X36.872 Y77.291 E10.62472
G1 X36.228 Y76.991 E10.64835
G1 X35.411 Y76.566 E10.67898
G1 X34.824 Y76.202 E10.70195
G1 X34.821 Y76.2 E10.70207
G1 X34.078 Y75.656 E10.7327
G1 X33.385 Y75.05 E10.76332
G1 X32.747 Y74.387 E10.79392
G1 X32.169 Y73.67 E10.82455
G1 X31.655 Y72.906 E10.85518
G1 X31.21 Y72.1 E10.8858
G1 X30.716 Y70.938 E10.92779
G1 X30.2 Y69.501 E10.97858
G1 X29.62 Y67.827 E11.0375
G1 X25.078 Y55.53 E11.47351
G1 X24.857 Y54.901 E11.49568
G1 X24.59 Y54.02 E11.5263
G1 X24.4 Y53.119 E11.55693
G1 X24.29 Y52.205 E11.58755
G1 X24.258 Y51.285 E11.61817
G1 X24.307 Y50.365 E11.64881
G1 X24.436 Y49.454 E11.67941
G1 X24.645 Y48.55 E11.71027
G1 X24.65 Y48.532 E11.71089
G1 X25.082 Y47.283 E11.75485
G1 X25.286 Y46.8 E11.77229
G1 X25.453 Y46.42 E11.78609
G1 X31.711 Y31.942 E12.31069
G1 X32.011 Y31.276 E12.33499
G1 X32.425 Y30.453 E12.36563
G1 X32.909 Y29.67 E12.39624
G1 X33.46 Y28.932 E12.42688
G1 X34.072 Y28.244 E12.4575
G1 X34.741 Y27.612 E12.48811
G1 X35.463 Y27.041 E12.51873
G1 X36.232 Y26.534 E12.54936
G1 X37.321 Y25.965 E12.59023
G1 X37.483 Y25.892 E12.59614
G1 X38.212 Y25.587 E12.62242
G1 X51.559 Y20.3 E13.09991
G1 X52.798 Y19.799 E13.14436
G1 X53.472 Y19.535 E13.16843
G1 X54.343 Y19.237 E13.19905
G1 X55.237 Y19.015 E13.22969
G1 X56.146 Y18.872 E13.26029
G1 X57.065 Y18.809 E13.29093
G1 X57.985 Y18.825 E13.32154
G1 X58.901 Y18.921 E13.35217
G0 F6000 X58.856 Y18.51
G1 F1200 X59.778 Y18.679 E13.38335
G1 X60.683 Y18.926 E13.41455
G1 X61.563 Y19.249 E13.44573
G1 X62.116 Y19.507 E13.46602
G1 X62.12 Y19.499 E13.46632
G1 X62.684 Y19.771 E13.48715
G1 X64.882 Y20.795 E13.5678
G1 X76.515 Y26.037 E13.99218
G1 X77.17 Y26.345 E14.01625
G1 X78.001 Y26.78 E14.04745
G1 X78.792 Y27.284 E14.07864
G1 X79.537 Y27.853 E14.10982
G1 X80.231 Y28.484 E14.14102
G1 X80.868 Y29.172 E14.17221
G1 X81.445 Y29.912 E14.20342
G1 X81.956 Y30.698 E14.2346
G1 X82.399 Y31.525 E14.2658
G1 X82.852 Y32.61 E14.30491
G1 X83.323 Y33.933 E14.35162
G1 X83.322 Y33.933 E14.35165
G1 X83.355 Y34.013 E14.35453
G1 X83.945 Y35.714 E14.41441
G1 X88.481 Y47.992 E14.84976
G1 X88.707 Y48.633 E14.87236
G1 X88.981 Y49.53 E14.90356
G1 X89.177 Y50.447 E14.93475
G1 X89.295 Y51.378 E14.96596
G1 X89.333 Y52.291 E14.99635
G1 X89.333 Y52.293 E14.99642
G1 X89.293 Y53.23 E15.02761
G1 X89.173 Y54.16 E15.0588
G1 X88.975 Y55.077 E15.09
G1 X88.699 Y55.973 E15.12118
G1 X88.484 Y56.532 E15.1411
G1 X88.28 Y57.013 E15.15848
G1 X88.111 Y57.395 E15.17238
G1 X81.825 Y71.938 E15.69933
G1 X81.553 Y72.544 E15.72142
G1 X81.133 Y73.383 E15.75263
G1 X80.643 Y74.182 E15.7838
G1 X80.087 Y74.937 E15.81499
G1 X79.468 Y75.642 E15.84619
G1 X78.792 Y76.292 E15.87738
G1 X78.062 Y76.882 E15.9086
G1 X77.285 Y77.407 E15.93979
G1 X76.183 Y78.002 E15.98145
G1 X76.057 Y78.061 E15.98607
G1 X75.553 Y78.282 E16.00438
G1 X75.027 Y78.496 E16.02326
G1 X61.895 Y83.698 E16.49306
G1 X60.495 Y84.265 E16.54329
G1 X59.86 Y84.513 E16.56597
G1 X59.859 Y84.51 E16.56607
G1 X59.053 Y84.793 E16.59449
G1 X58.145 Y85.027 E16.62567
G1 X57.221 Y85.184 E16.65685
G1 X56.286 Y85.26 E16.68805
G1 X55.348 Y85.257 E16.71924
G1 X54.414 Y85.174 E16.75043
G1 X53.49 Y85.012 E16.78163
G1 X52.583 Y84.772 E16.81284
G1 X51.701 Y84.455 E16.84401
G1 X51.081 Y84.18 E16.86657
G1 X50.548 Y83.923 E16.88625
G1 X48.311 Y82.882 E16.96832
G1 X36.703 Y77.653 E17.39176
G1 X36.059 Y77.353 E17.41539
G1 X35.227 Y76.921 E17.44657
G1 X34.602 Y76.535 E17.47101
G1 X34.599 Y76.533 E17.47113
G1 X33.842 Y75.98 E17.50231
G1 X33.134 Y75.364 E17.53352
G1 X32.482 Y74.69 E17.56471
G1 X31.889 Y73.964 E17.59589
G1 X31.36 Y73.189 E17.6271
G1 X30.899 Y72.372 E17.6583
G1 X30.509 Y71.519 E17.68949
G1 X30.339 Y71.072 E17.7054
G1 X29.858 Y69.722 E17.75306
G1 X29.859 Y69.721 E17.75311
G1 X29.822 Y69.631 E17.75635
G1 X29.247 Y67.971 E17.81478
G1 X24.701 Y55.662 E18.25121
G1 X24.48 Y55.033 E18.27338
G1 X24.207 Y54.136 E18.30457
G1 X24.012 Y53.219 E18.33575
G1 X23.895 Y52.288 E18.36696
G1 X23.858 Y51.351 E18.39815
G1 X23.901 Y50.414 E18.42934
G1 X24.024 Y49.484 E18.46054
G1 X24.259 Y48.443 E18.49604
G1 X24.264 Y48.425 E18.49666
G1 X24.713 Y47.129 E18.54228
G1 X24.92 Y46.639 E18.55997
G1 X25.087 Y46.259 E18.57378
G1 X31.347 Y31.777 E19.09852
G1 X31.647 Y31.111 E19.12282
G1 X32.068 Y30.273 E19.15401
G1 X32.559 Y29.474 E19.1852
G1 X33.116 Y28.72 E19.21638
G1 X33.736 Y28.016 E19.24758
G1 X34.413 Y27.367 E19.27878
G1 X35.144 Y26.779 E19.30998
G1 X35.921 Y26.254 E19.34117
G1 X37.157 Y25.6 E19.38768
G1 X37.319 Y25.527 E19.39359
G1 X37.664 Y25.378 E19.40609
G1 X38.065 Y25.215 E19.42048
G1 X51.371 Y19.944 E19.8965
G1 X52.652 Y19.427 E19.94245
G1 X53.326 Y19.163 E19.96652
G1 X54.213 Y18.858 E19.99772
G1 X55.123 Y18.63 E20.02892
G1 X56.049 Y18.481 E20.06012
G1 X56.984 Y18.411 E20.0913
G1 X57.922 Y18.421 E20.1225
G1 X58.856 Y18.51 E20.15371
G1 F2700 E15.15371
;MESH:Low_Poly_Planter_Mini.stl
G0 F6000 X57.457 Y28.777
G0 X57.259 Y29.887
G0 X71.805 Y36.825
G0 X77.463 Y52.144
G0 X77.382 Y52.548
G0 X70.937 Y67.453
G0 X55.942 Y73.596
;TYPE:WALL-INNER
G1 F2700 E20.15371
G1 F1200 X41.246 Y66.979 E20.68976
G1 X35.528 Y51.499 E21.23863
G1 X35.599 Y51.41 E21.24242
G1 X35.554 Y51.282 E21.24693
G1 X42.12 Y36.086 E21.79751
G1 X55.224 Y30.899 E22.26626
G1 X57.247 Y30.079 E22.33886
G1 X71.943 Y36.697 E22.87493
G1 X77.662 Y52.176 E23.42377
G1 X77.591 Y52.265 E23.42756
G1 X77.635 Y52.393 E23.43206
G1 X77.539 Y52.616 E23.44014
G1 X71.069 Y67.588 E23.98262
G1 X57.988 Y72.765 E24.45053
G1 X55.942 Y73.596 E24.52398
G0 F6000 X55.893 Y74.048
;TYPE:WALL-OUTER
G1 F1200 X55.813 Y73.976 E24.52756
G1 X40.885 Y67.255 E25.07206
G1 X40.88 Y67.143 E25.07579
G1 X35.075 Y51.426 E25.63306
G1 X35.149 Y51.333 E25.63701
G1 X35.126 Y51.266 E25.63937
G1 X35.173 Y51.156 E25.64335
G1 X41.819 Y35.775 E26.20063
G1 X41.971 Y35.715 E26.20607
G1 X55.075 Y30.528 E26.67481
G1 X57.297 Y29.627 E26.75456
G1 X57.378 Y29.699 E26.75817
G1 X72.304 Y36.421 E27.30263
G1 X72.309 Y36.533 E27.30636
G1 X78.115 Y52.249 E27.8636
G1 X78.041 Y52.342 E27.86756
G1 X78.064 Y52.409 E27.86991
G1 X77.906 Y52.775 E27.88317
G1 X71.37 Y67.899 E28.43116
G1 X71.22 Y67.958 E28.43652
G1 X58.137 Y73.136 E28.90451
G1 X55.893 Y74.048 E28.98507
G0 F6000 X55.944 Y73.553
G0 X55.949 Y73.172
;TYPE:SKIN
G1 F1200 X41.556 Y66.692 E29.51006
G1 X35.97 Y51.57 E30.04624
G1 X36.038 Y51.484 E30.04989
G1 X35.972 Y51.297 E30.05648
G1 X42.413 Y36.39 E30.5966
G1 X55.369 Y31.261 E31.06005
G1 X57.239 Y30.502 E31.12718
G1 X71.633 Y36.984 E31.65223
G1 X77.22 Y52.105 E32.18839
G1 X77.152 Y52.189 E32.19198
G1 X77.218 Y52.377 E32.19861
G1 X77.181 Y52.462 E32.20169
G1 X70.776 Y67.284 E32.73873
G1 X57.843 Y72.403 E33.20135
G1 X55.949 Y73.172 E33.26934
G0 F6000 X56.053 Y73.431
G0 X41.384 Y66.851
G0 X40.938 Y65.825
G0 X41.35 Y65.674
G1 F1200 X42.713 Y67.037 E33.33345
G0 F6000 X42.532 Y67.437
G0 X43.561 Y67.901
G0 X43.742 Y67.501
G1 F1200 X41.019 Y64.778 E33.46154
G0 F6000 X40.687 Y63.88
G1 F1200 X44.771 Y67.964 E33.65364
G0 F6000 X44.59 Y68.364
G0 X45.619 Y68.827
G0 X45.8 Y68.427
G1 F1200 X40.356 Y62.984 E33.90968
G0 F6000 X40.025 Y62.087
G1 F1200 X46.828 Y68.89 E34.22967
G0 F6000 X46.647 Y69.29
G0 X47.676 Y69.753
G0 X47.857 Y69.353
G1 F1200 X39.694 Y61.19 E34.61364
G0 F6000 X39.363 Y60.293
G1 F1200 X48.886 Y69.816 E35.06157
G0 F6000 X48.705 Y70.217
G0 X49.734 Y70.68
G0 X49.915 Y70.28
G1 F1200 X39.032 Y59.396 E35.57349
G0 F6000 X38.7 Y58.499
G1 F1200 X50.944 Y70.743 E36.14941
G0 F6000 X50.763 Y71.144
G0 X51.792 Y71.607
G0 X51.973 Y71.206
G1 F1200 X38.369 Y57.603 E36.78928
G0 F6000 X38.038 Y56.706
G1 F1200 X53.001 Y71.668 E37.49307
G0 F6000 X52.819 Y72.07
G0 X53.848 Y72.533
G0 X54.03 Y72.131
G1 F1200 X37.707 Y55.809 E38.26083
G0 F6000 X37.376 Y54.912
G1 F1200 X55.058 Y72.595 E39.09256
G0 F6000 X54.877 Y72.996
G0 X55.838 Y73.365
G0 X56.169 Y73.384
G0 X56.004 Y72.975
G1 F1200 X37.045 Y54.015 E39.98436
G0 F6000 X36.713 Y53.118
G1 F1200 X56.407 Y72.812 E40.9107
G0 F6000 X56.809 Y72.648
G1 F1200 X36.382 Y52.221 E41.87153
G0 F6000 X36.205 Y51.479
G1 F1200 X57.211 Y72.484 E42.85956
G0 F6000 X57.613 Y72.321
G1 F1200 X36.278 Y50.986 E43.8631
G0 F6000 X36.449 Y50.592
G1 F1200 X58.017 Y72.159 E44.87756
G0 F6000 X58.423 Y71.999
G1 F1200 X36.62 Y50.196 E45.90311
G0 F6000 X36.791 Y49.802
G1 F1200 X58.828 Y71.839 E46.93966
G0 F6000 X59.233 Y71.678
G1 F1200 X36.961 Y49.406 E47.98727
G0 F6000 X37.132 Y49.011
G1 F1200 X59.638 Y71.518 E49.04591
G0 F6000 X60.043 Y71.357
G1 F1200 X37.303 Y48.617 E50.11553
G0 F6000 X37.473 Y48.221
G1 F1200 X60.449 Y71.197 E51.19625
G0 F6000 X60.855 Y71.037
G1 F1200 X37.644 Y47.827 E52.288
G0 F6000 X37.815 Y47.432
G1 F1200 X61.26 Y70.876 E53.39076
G0 F6000 X61.665 Y70.716
G1 F1200 X37.985 Y47.036 E54.50459
G0 F6000 X38.156 Y46.642
G1 F1200 X62.07 Y70.555 E55.62941
G0 F6000 X62.475 Y70.395
G1 F1200 X38.327 Y46.246 E56.76528
G0 F6000 X38.498 Y45.852
G1 F1200 X62.88 Y70.234 E57.91213
G0 F6000 X63.286 Y70.074
G1 F1200 X38.668 Y45.457 E59.07007
G0 F6000 X38.839 Y45.061
G1 F1200 X63.691 Y69.914 E60.23905
G0 F6000 X64.097 Y69.753
G1 F1200 X39.01 Y44.667 E61.41904
G0 F6000 X39.18 Y44.271
G1 F1200 X64.502 Y69.593 E62.61011
G0 F6000 X64.907 Y69.432
G1 F1200 X39.351 Y43.877 E63.81216
G0 F6000 X39.522 Y43.482
G1 F1200 X65.312 Y69.272 E65.02525
G0 F6000 X65.717 Y69.111
G1 F1200 X39.693 Y43.087 E66.24934
G0 F6000 X39.863 Y42.692
G1 F1200 X66.123 Y68.952 E67.48453
G0 F6000 X66.528 Y68.791
G1 F1200 X40.034 Y42.297 E68.73072
G0 F6000 X40.205 Y41.902
G1 F1200 X66.934 Y68.631 E69.98797
G0 F6000 X67.339 Y68.47
G1 F1200 X40.375 Y41.507 E71.25625
G0 F6000 X40.546 Y41.112
G1 F1200 X67.744 Y68.31 E72.53556
G0 F6000 X68.149 Y68.149
G1 F1200 X40.717 Y40.717 E73.82588
G0 F6000 X40.887 Y40.322
G1 F1200 X68.555 Y67.989 E75.12728
G0 F6000 X68.96 Y67.829
G1 F1200 X41.058 Y39.927 E76.4397
G0 F6000 X41.229 Y39.532
G1 F1200 X69.365 Y67.668 E77.76313
G0 F6000 X69.77 Y67.508
G1 F1200 X41.4 Y39.137 E79.09759
G0 F6000 X41.57 Y38.742
G1 F1200 X70.176 Y67.347 E80.44311
G0 F6000 X70.581 Y67.187
G1 F1200 X41.741 Y38.347 E81.79965
G0 F6000 X41.912 Y37.952
G1 F1200 X70.794 Y66.835 E83.1582
G0 F6000 X70.965 Y66.44
G1 F1200 X42.082 Y37.557 E84.51677
G0 F6000 X42.253 Y37.162
G1 F1200 X71.136 Y66.045 E85.87533
G0 F6000 X71.307 Y65.65
G1 F1200 X42.424 Y36.767 E87.2339
G0 F6000 X42.68 Y36.457
